;FLAVOR:Marlin
;TIME:2844
;Filament used: 1.92923m
;Layer height: 0.2
;MINX:31.52
;MINY:89.6
;MINZ:0.2
;MAXX:188.48
;MAXY:160.4
;MAXZ:2
;Generated with Cura_SteamEngine 4.7.1
M140 S60
M105
M190 S60
M104 S200
M105
M109 S200
M82 ;absolute extrusion mode
; Ender 3 Custom Start G-code
G92 E0 ; Reset Extruder
G28 ; Home all axes
G1 Z2.0 F3000 ; Move Z Axis up little to prevent scratching of Heat Bed
G1 X0.1 Y20 Z0.3 F5000.0 ; Move to start position
G1 X0.1 Y200.0 Z0.3 F1500.0 E15 ; Draw the first line
G1 X0.4 Y200.0 Z0.3 F5000.0 ; Move to side a little
G1 X0.4 Y20 Z0.3 F1500.0 E30 ; Draw the second line
G92 E0 ; Reset Extruder
G1 Z2.0 F3000 ; Move Z Axis up little to prevent scratching of Heat Bed
G1 X5 Y20 Z0.3 F5000.0 ; Move over to prevent blob squish
G92 E0
G92 E0
G1 F1500 E-6.5
;LAYER_COUNT:10
;LAYER:0
M107
G0 F6000 X43.509 Y91.43 Z0.2
;TYPE:SKIRT
G1 F1500 E0
G1 F1200 X43.781 Y91.306 E0.00994
G1 X44.729 Y90.926 E0.04391
G1 X45.571 Y90.633 E0.07356
G1 X45.945 Y90.51 E0.08666
G1 X46.198 Y90.432 E0.09546
G1 X47.146 Y90.186 E0.12804
G1 X48.075 Y89.988 E0.15963
G1 X48.464 Y89.912 E0.17281
G1 X48.703 Y89.87 E0.18089
G1 X49.698 Y89.742 E0.21425
G1 X50.602 Y89.667 E0.24442
G1 X50.996 Y89.641 E0.25756
G1 X51.252 Y89.629 E0.26608
G1 X51.574 Y89.619 E0.27679
G1 X52.544 Y89.602 E0.30906
G1 X52.737 Y89.6 E0.31548
G1 X71.553 Y89.601 E0.9413
G1 X72.103 Y89.609 E0.9596
G1 X72.437 Y89.619 E0.97071
G1 X73.283 Y89.657 E0.99888
G1 X73.641 Y89.679 E1.01081
G1 X74.13 Y89.717 E1.02712
G1 X74.439 Y89.745 E1.03744
G1 X75.042 Y89.809 E1.05761
G1 X76.659 Y90.002 E1.11177
G1 X79.183 Y90.231 E1.19607
G1 X81.7 Y90.388 E1.27995
G1 X84.221 Y90.474 E1.36384
G1 X86.75 Y90.488 E1.44796
G1 X89.231 Y90.433 E1.5305
G1 X91.766 Y90.304 E1.61492
G1 X94.288 Y90.104 E1.69907
G1 X96.468 Y89.874 E1.77198
G1 X97.135 Y89.795 E1.79432
G1 X97.506 Y89.758 E1.80672
G1 X98.596 Y89.667 E1.8431
G1 X98.994 Y89.641 E1.85636
G1 X99.249 Y89.629 E1.86485
G1 X99.573 Y89.619 E1.87563
G1 X100.544 Y89.602 E1.90793
G1 X100.737 Y89.6 E1.91435
G1 X119.553 Y89.601 E2.54018
G1 X120.103 Y89.609 E2.55847
G1 X120.437 Y89.619 E2.56959
G1 X121.283 Y89.657 E2.59775
G1 X121.641 Y89.679 E2.60968
G1 X122.13 Y89.717 E2.626
G1 X122.439 Y89.745 E2.63631
G1 X123.042 Y89.809 E2.65648
G1 X124.659 Y90.002 E2.71065
G1 X127.183 Y90.231 E2.79494
G1 X129.7 Y90.388 E2.87882
G1 X132.221 Y90.474 E2.96272
G1 X134.75 Y90.488 E3.04683
G1 X137.231 Y90.433 E3.12937
G1 X139.766 Y90.304 E3.21379
G1 X142.288 Y90.104 E3.29794
G1 X144.468 Y89.874 E3.37085
G1 X145.135 Y89.795 E3.39319
G1 X145.506 Y89.758 E3.40559
G1 X146.596 Y89.667 E3.44197
G1 X146.994 Y89.641 E3.45524
G1 X147.249 Y89.629 E3.46373
G1 X147.573 Y89.619 E3.47451
G1 X148.544 Y89.602 E3.50681
G1 X148.737 Y89.6 E3.51323
G1 X167.553 Y89.601 E4.13905
G1 X168.103 Y89.609 E4.15735
G1 X168.437 Y89.619 E4.16846
G1 X169.283 Y89.657 E4.19663
G1 X169.639 Y89.679 E4.20849
G1 X170.013 Y89.708 E4.22097
G1 X170.999 Y89.829 E4.25401
G1 X171.891 Y89.98 E4.2841
G1 X172.276 Y90.052 E4.29712
G1 X172.538 Y90.106 E4.30602
G1 X173.5 Y90.351 E4.33904
G1 X174.37 Y90.614 E4.36927
G1 X174.748 Y90.736 E4.38248
G1 X175.011 Y90.826 E4.39172
G1 X175.938 Y91.19 E4.42485
G1 X176.748 Y91.552 E4.45436
G1 X177.059 Y91.697 E4.46577
G1 X177.323 Y91.825 E4.47553
G1 X178.234 Y92.321 E4.51003
G1 X179.003 Y92.788 E4.53995
G1 X179.339 Y93 E4.55317
G1 X179.567 Y93.15 E4.56224
G1 X180.35 Y93.716 E4.59438
G1 X181.061 Y94.279 E4.62454
G1 X181.377 Y94.54 E4.63817
G1 X181.583 Y94.716 E4.64718
G1 X182.295 Y95.381 E4.67959
G1 X182.923 Y96.022 E4.70943
G1 X183.175 Y96.287 E4.7216
G1 X183.362 Y96.491 E4.7308
G1 X184.019 Y97.279 E4.76493
G1 X184.586 Y98.027 E4.79614
G1 X184.788 Y98.302 E4.80749
G1 X184.918 Y98.485 E4.81496
G1 X185.485 Y99.37 E4.84992
G1 X185.959 Y100.194 E4.88153
G1 X186.131 Y100.505 E4.89335
G1 X186.252 Y100.732 E4.90191
G1 X186.689 Y101.651 E4.93576
G1 X187.033 Y102.471 E4.96533
G1 X187.161 Y102.791 E4.9768
G1 X187.256 Y103.039 E4.98563
G1 X187.582 Y104.027 E5.02023
G1 X187.832 Y104.926 E5.05127
G1 X187.928 Y105.296 E5.06398
G1 X187.988 Y105.545 E5.0725
G1 X188.178 Y106.528 E5.1058
G1 X188.3 Y107.361 E5.1338
G1 X188.337 Y107.636 E5.14303
G1 X188.391 Y108.083 E5.15801
G1 X188.461 Y108.951 E5.18697
G1 X188.469 Y109.146 E5.19346
G1 X188.477 Y109.486 E5.20477
G1 X188.48 Y109.783 E5.21465
G1 X188.48 Y110.046 E5.2234
G1 X188.472 Y110.624 E5.24262
G1 X188.412 Y111.625 E5.27598
G1 X188.297 Y112.716 E5.31247
G1 X188.267 Y112.978 E5.32124
G1 X188.201 Y113.487 E5.33831
G1 X187.9 Y116.085 E5.4253
G1 X187.683 Y118.563 E5.50803
G1 X187.535 Y121.077 E5.59179
G1 X187.459 Y123.601 E5.67578
G1 X187.453 Y126.125 E5.75973
G1 X187.518 Y128.612 E5.84247
G1 X187.658 Y131.165 E5.92751
G1 X187.864 Y133.656 E6.01065
G1 X188.143 Y136.158 E6.09438
G1 X188.286 Y137.21 E6.12969
G1 X188.319 Y137.476 E6.13861
G1 X188.339 Y137.655 E6.1446
G1 X188.39 Y138.076 E6.1587
G1 X188.461 Y138.951 E6.1879
G1 X188.469 Y139.146 E6.19439
G1 X188.477 Y139.486 E6.2057
G1 X188.48 Y139.783 E6.21558
G1 X188.48 Y140.046 E6.22433
G1 X188.472 Y140.624 E6.24355
G1 X188.412 Y141.626 E6.27694
G1 X188.309 Y142.602 E6.30958
G1 X188.249 Y143.074 E6.32541
G1 X188.207 Y143.355 E6.33486
G1 X188.025 Y144.292 E6.36661
G1 X187.869 Y144.943 E6.38887
G1 X187.789 Y145.256 E6.39962
G1 X187.682 Y145.651 E6.41323
G1 X187.374 Y146.612 E6.44679
G1 X187.048 Y147.488 E6.47788
G1 X186.905 Y147.853 E6.49092
G1 X186.8 Y148.107 E6.50006
G1 X186.378 Y149.01 E6.53321
G1 X185.972 Y149.785 E6.56231
G1 X185.801 Y150.099 E6.5742
G1 X185.664 Y150.341 E6.58345
G1 X185.12 Y151.205 E6.61741
G1 X184.589 Y151.968 E6.64833
G1 X184.386 Y152.25 E6.65988
G1 X184.235 Y152.453 E6.6683
G1 X183.58 Y153.253 E6.70269
G1 X182.968 Y153.932 E6.73309
G1 X182.699 Y154.219 E6.74618
G1 X182.515 Y154.409 E6.75497
G1 X181.797 Y155.087 E6.78782
G1 X181.106 Y155.683 E6.81817
G1 X180.799 Y155.938 E6.83144
G1 X180.593 Y156.103 E6.84022
G1 X179.804 Y156.68 E6.87273
G1 X179.032 Y157.193 E6.90356
G1 X178.688 Y157.412 E6.91712
G1 X178.461 Y157.551 E6.92598
G1 X177.601 Y158.026 E6.95865
G1 X176.812 Y158.417 E6.98794
G1 X176.491 Y158.57 E6.99977
G1 X176.219 Y158.694 E7.00971
G1 X175.271 Y159.074 E7.04368
G1 X174.429 Y159.367 E7.07333
G1 X174.055 Y159.49 E7.08643
G1 X173.802 Y159.568 E7.09523
G1 X172.854 Y159.814 E7.12781
G1 X171.925 Y160.012 E7.1594
G1 X171.536 Y160.088 E7.17258
G1 X171.297 Y160.13 E7.18065
G1 X170.302 Y160.258 E7.21402
G1 X169.398 Y160.333 E7.24419
G1 X169.004 Y160.359 E7.25732
G1 X168.748 Y160.371 E7.26585
G1 X168.426 Y160.381 E7.27656
G1 X167.456 Y160.398 E7.30883
G1 X167.263 Y160.4 E7.31525
G1 X148.447 Y160.399 E7.94107
G1 X147.898 Y160.391 E7.95933
G1 X147.566 Y160.381 E7.97038
G1 X146.718 Y160.343 E7.99861
G1 X146.356 Y160.321 E8.01068
G1 X145.868 Y160.283 E8.02696
G1 X145.561 Y160.255 E8.03721
G1 X144.958 Y160.191 E8.05738
G1 X143.341 Y159.998 E8.11154
G1 X140.815 Y159.768 E8.1959
G1 X138.301 Y159.612 E8.27968
G1 X135.78 Y159.526 E8.36358
G1 X133.25 Y159.512 E8.44773
G1 X130.768 Y159.567 E8.5303
G1 X128.235 Y159.696 E8.61466
G1 X125.712 Y159.896 E8.69884
G1 X123.532 Y160.126 E8.77175
G1 X122.865 Y160.205 E8.79409
G1 X122.494 Y160.242 E8.80649
G1 X121.404 Y160.333 E8.84287
G1 X121.004 Y160.359 E8.8562
G1 X120.748 Y160.371 E8.86472
G1 X120.426 Y160.381 E8.87544
G1 X119.456 Y160.398 E8.9077
G1 X119.263 Y160.4 E8.91412
G1 X100.447 Y160.399 E9.53995
G1 X99.898 Y160.391 E9.55821
G1 X99.566 Y160.381 E9.56926
G1 X98.718 Y160.343 E9.59749
G1 X98.356 Y160.321 E9.60955
G1 X97.868 Y160.283 E9.62583
G1 X97.561 Y160.255 E9.63608
G1 X96.958 Y160.191 E9.65625
G1 X95.341 Y159.998 E9.71042
G1 X92.815 Y159.768 E9.79478
G1 X90.301 Y159.612 E9.87856
G1 X87.78 Y159.526 E9.96245
G1 X85.25 Y159.512 E10.0466
G1 X82.768 Y159.567 E10.12917
G1 X80.235 Y159.696 E10.21353
G1 X77.712 Y159.896 E10.29771
G1 X75.532 Y160.126 E10.37062
G1 X74.865 Y160.205 E10.39296
G1 X74.494 Y160.242 E10.40536
G1 X73.404 Y160.333 E10.44174
G1 X73.004 Y160.359 E10.45507
G1 X72.748 Y160.371 E10.4636
G1 X72.426 Y160.381 E10.47431
G1 X71.456 Y160.398 E10.50658
G1 X71.263 Y160.4 E10.513
G1 X52.447 Y160.399 E11.13882
G1 X51.898 Y160.391 E11.15708
G1 X51.566 Y160.381 E11.16813
G1 X50.718 Y160.343 E11.19636
G1 X50.357 Y160.321 E11.20839
G1 X49.984 Y160.292 E11.22083
G1 X49.001 Y160.171 E11.25378
G1 X48.109 Y160.02 E11.28387
G1 X47.724 Y159.948 E11.29689
G1 X47.462 Y159.894 E11.30579
G1 X46.5 Y159.649 E11.33881
G1 X45.63 Y159.386 E11.36904
G1 X45.252 Y159.264 E11.38225
G1 X44.989 Y159.174 E11.39149
G1 X44.065 Y158.811 E11.42451
G1 X43.252 Y158.448 E11.45413
G1 X42.908 Y158.287 E11.46676
G1 X42.644 Y158.158 E11.47653
G1 X41.765 Y157.678 E11.50984
G1 X40.999 Y157.213 E11.53965
G1 X40.661 Y157 E11.55293
G1 X40.433 Y156.85 E11.56201
G1 X39.65 Y156.284 E11.59415
G1 X38.939 Y155.721 E11.62431
G1 X38.616 Y155.454 E11.63825
G1 X38.408 Y155.276 E11.64735
G1 X37.702 Y154.617 E11.67948
G1 X37.075 Y153.977 E11.70928
G1 X36.826 Y153.714 E11.72132
G1 X36.638 Y153.509 E11.73057
G1 X35.976 Y152.715 E11.76496
G1 X35.411 Y151.969 E11.79608
G1 X35.203 Y151.685 E11.80779
G1 X35.072 Y151.5 E11.81533
G1 X34.515 Y150.629 E11.84972
G1 X34.042 Y149.807 E11.88126
G1 X33.868 Y149.493 E11.8932
G1 X33.746 Y149.264 E11.90183
G1 X33.31 Y148.346 E11.93563
G1 X32.967 Y147.528 E11.96513
G1 X32.837 Y147.204 E11.97674
G1 X32.741 Y146.953 E11.98568
G1 X32.417 Y145.968 E12.02017
G1 X32.168 Y145.072 E12.0511
G1 X32.072 Y144.704 E12.06375
G1 X32.012 Y144.455 E12.07227
G1 X31.822 Y143.472 E12.10557
G1 X31.7 Y142.639 E12.13357
G1 X31.664 Y142.368 E12.14266
G1 X31.609 Y141.914 E12.15787
G1 X31.535 Y140.959 E12.18973
G1 X31.528 Y140.75 E12.19669
G1 X31.523 Y140.502 E12.20494
G1 X31.52 Y140.226 E12.21412
G1 X31.52 Y139.955 E12.22313
G1 X31.528 Y139.374 E12.24246
G1 X31.588 Y138.369 E12.27594
G1 X31.703 Y137.281 E12.31233
G1 X31.733 Y137.022 E12.321
G1 X31.799 Y136.513 E12.33807
G1 X32.1 Y133.915 E12.42506
G1 X32.317 Y131.437 E12.5078
G1 X32.465 Y128.923 E12.59156
G1 X32.541 Y126.399 E12.67554
G1 X32.547 Y123.875 E12.75949
G1 X32.482 Y121.388 E12.84224
G1 X32.342 Y118.834 E12.92731
G1 X32.135 Y116.34 E13.01055
G1 X31.856 Y113.834 E13.09441
G1 X31.713 Y112.778 E13.12986
G1 X31.681 Y112.519 E13.13854
G1 X31.657 Y112.304 E13.14573
G1 X31.61 Y111.92 E13.1586
G1 X31.537 Y111 E13.18929
G1 X31.53 Y110.812 E13.19555
G1 X31.523 Y110.514 E13.20547
G1 X31.52 Y110.217 E13.21534
G1 X31.52 Y109.955 E13.22406
G1 X31.528 Y109.374 E13.24338
G1 X31.588 Y108.367 E13.27694
G1 X31.691 Y107.394 E13.30948
G1 X31.751 Y106.926 E13.32517
G1 X31.793 Y106.645 E13.33462
G1 X31.975 Y105.708 E13.36637
G1 X32.131 Y105.057 E13.38864
G1 X32.211 Y104.744 E13.39938
G1 X32.318 Y104.349 E13.41299
G1 X32.626 Y103.388 E13.44656
G1 X32.952 Y102.512 E13.47764
G1 X33.095 Y102.147 E13.49068
G1 X33.2 Y101.893 E13.49982
G1 X33.622 Y100.99 E13.53298
G1 X34.028 Y100.215 E13.56208
G1 X34.199 Y99.901 E13.57397
G1 X34.336 Y99.659 E13.58322
G1 X34.88 Y98.795 E13.61718
G1 X35.411 Y98.032 E13.64809
G1 X35.614 Y97.75 E13.65965
G1 X35.765 Y97.547 E13.66806
G1 X36.42 Y96.747 E13.70245
G1 X37.032 Y96.068 E13.73286
G1 X37.301 Y95.781 E13.74594
G1 X37.485 Y95.591 E13.75474
G1 X38.203 Y94.913 E13.78758
G1 X38.894 Y94.317 E13.81793
G1 X39.201 Y94.062 E13.83121
G1 X39.407 Y93.897 E13.83999
G1 X40.196 Y93.32 E13.8725
G1 X40.968 Y92.807 E13.90333
G1 X41.318 Y92.584 E13.91713
G1 X41.547 Y92.444 E13.92606
G1 X42.401 Y91.973 E13.95849
G1 X43.188 Y91.583 E13.98771
G1 X43.509 Y91.43 E13.99953
G0 F6000 X43.675 Y91.794
G1 F1200 X43.947 Y91.67 E14.00948
G1 X44.86 Y91.304 E14.04219
G1 X45.702 Y91.011 E14.07184
G1 X46.063 Y90.892 E14.08449
G1 X46.316 Y90.814 E14.09329
G1 X47.229 Y90.577 E14.12467
G1 X48.158 Y90.379 E14.15626
G1 X48.533 Y90.306 E14.16896
G1 X48.772 Y90.264 E14.17704
G1 X49.731 Y90.14 E14.2092
G1 X50.635 Y90.065 E14.23937
G1 X51.015 Y90.041 E14.25203
G1 X51.271 Y90.029 E14.26056
G1 X51.581 Y90.019 E14.27087
G1 X52.551 Y90.002 E14.30314
G1 X52.737 Y90 E14.30933
G1 X71.393 Y90 E14.92983
G1 X72.097 Y90.009 E14.95324
G1 X72.419 Y90.019 E14.96396
G1 X73.265 Y90.057 E14.99213
G1 X73.61 Y90.078 E15.00362
G1 X74.099 Y90.116 E15.01993
G1 X74.397 Y90.143 E15.02989
G1 X75 Y90.207 E15.05006
G1 X76.651 Y90.404 E15.10536
G1 X79.154 Y90.631 E15.18895
G1 X81.661 Y90.787 E15.27249
G1 X84.206 Y90.874 E15.35719
G1 X86.756 Y90.888 E15.442
G1 X89.261 Y90.832 E15.52534
G1 X91.779 Y90.704 E15.6092
G1 X94.325 Y90.503 E15.69414
G1 X96.56 Y90.266 E15.7689
G1 X97.182 Y90.193 E15.78973
G1 X97.539 Y90.157 E15.80166
G1 X98.629 Y90.066 E15.83804
G1 X99.013 Y90.041 E15.85084
G1 X99.268 Y90.029 E15.85933
G1 X99.58 Y90.019 E15.86971
G1 X100.551 Y90.002 E15.90201
G1 X100.737 Y90 E15.9082
G1 X119.547 Y90.001 E16.53382
G1 X120.097 Y90.009 E16.55212
G1 X120.419 Y90.019 E16.56283
G1 X121.265 Y90.057 E16.591
G1 X121.61 Y90.078 E16.60249
G1 X122.099 Y90.116 E16.61881
G1 X122.397 Y90.143 E16.62876
G1 X123 Y90.207 E16.64893
G1 X124.651 Y90.404 E16.70423
G1 X127.154 Y90.631 E16.78782
G1 X129.661 Y90.787 E16.87137
G1 X132.206 Y90.874 E16.95606
G1 X134.756 Y90.888 E17.04088
G1 X137.261 Y90.832 E17.12422
G1 X139.779 Y90.704 E17.20807
G1 X142.325 Y90.503 E17.29302
G1 X144.56 Y90.266 E17.36777
G1 X145.182 Y90.193 E17.3886
G1 X145.539 Y90.157 E17.40053
G1 X146.629 Y90.066 E17.43691
G1 X147.013 Y90.041 E17.44971
G1 X147.268 Y90.029 E17.4582
G1 X147.58 Y90.019 E17.46859
G1 X148.551 Y90.002 E17.50089
G1 X148.737 Y90 E17.50707
G1 X167.547 Y90.001 E18.1327
G1 X168.097 Y90.009 E18.15099
G1 X168.419 Y90.019 E18.16171
G1 X169.265 Y90.057 E18.18987
G1 X169.608 Y90.078 E18.2013
G1 X169.982 Y90.107 E18.21378
G1 X170.932 Y90.224 E18.24561
G1 X171.824 Y90.375 E18.2757
G1 X172.195 Y90.444 E18.28826
G1 X172.457 Y90.498 E18.29715
G1 X173.384 Y90.733 E18.32896
G1 X174.254 Y90.996 E18.35919
G1 X174.619 Y91.114 E18.37195
G1 X174.882 Y91.204 E18.38119
G1 X175.775 Y91.555 E18.41311
G1 X176.585 Y91.917 E18.44262
G1 X176.884 Y92.057 E18.4536
G1 X177.148 Y92.185 E18.46335
G1 X178.026 Y92.663 E18.4966
G1 X178.795 Y93.13 E18.52653
G1 X179.119 Y93.335 E18.53928
G1 X179.347 Y93.485 E18.54836
G1 X180.101 Y94.03 E18.5793
G1 X180.812 Y94.593 E18.60947
G1 X181.117 Y94.844 E18.6226
G1 X181.323 Y95.02 E18.63161
G1 X182.01 Y95.661 E18.66287
G1 X182.638 Y96.302 E18.69271
G1 X182.88 Y96.557 E18.70441
G1 X183.067 Y96.761 E18.71361
G1 X183.7 Y97.521 E18.74651
G1 X184.267 Y98.269 E18.77773
G1 X184.461 Y98.533 E18.78862
G1 X184.591 Y98.716 E18.79609
G1 X185.138 Y99.57 E18.82982
G1 X185.612 Y100.394 E18.86144
G1 X185.778 Y100.693 E18.87281
G1 X185.899 Y100.92 E18.88137
G1 X186.32 Y101.805 E18.91396
G1 X186.664 Y102.625 E18.94354
G1 X186.788 Y102.934 E18.95461
G1 X186.883 Y103.182 E18.96345
G1 X187.196 Y104.134 E18.99678
G1 X187.446 Y105.033 E19.02781
G1 X187.539 Y105.39 E19.04008
G1 X187.599 Y105.639 E19.0486
G1 X187.782 Y106.586 E19.08068
G1 X187.904 Y107.419 E19.10868
G1 X187.939 Y107.684 E19.11757
G1 X187.993 Y108.131 E19.13255
G1 X188.061 Y108.967 E19.16045
G1 X188.069 Y109.162 E19.16694
G1 X188.077 Y109.49 E19.17785
G1 X188.08 Y109.787 E19.18773
G1 X188.08 Y110.041 E19.19618
G1 X188.072 Y110.619 E19.2154
G1 X188.015 Y111.583 E19.24752
G1 X187.9 Y112.674 E19.28401
G1 X187.87 Y112.927 E19.29248
G1 X187.8 Y113.467 E19.31059
G1 X187.505 Y116.005 E19.39558
G1 X187.284 Y118.538 E19.48014
G1 X187.135 Y121.078 E19.56477
G1 X187.059 Y123.587 E19.64826
G1 X187.053 Y126.135 E19.73301
G1 X187.119 Y128.644 E19.81648
G1 X187.256 Y131.149 E19.89992
G1 X187.467 Y133.701 E19.98509
G1 X187.747 Y136.212 E20.06913
G1 X187.89 Y137.264 E20.10444
G1 X187.993 Y138.125 E20.13328
G1 X188.061 Y138.967 E20.16138
G1 X188.069 Y139.162 E20.16787
G1 X188.077 Y139.49 E20.17878
G1 X188.08 Y139.787 E20.18866
G1 X188.08 Y140.041 E20.19711
G1 X188.072 Y140.619 E20.21633
G1 X188.014 Y141.584 E20.24849
G1 X187.911 Y142.56 E20.28113
G1 X187.854 Y143.015 E20.29638
G1 X187.812 Y143.296 E20.30583
G1 X187.636 Y144.199 E20.33643
G1 X187.48 Y144.85 E20.3587
G1 X187.403 Y145.152 E20.36906
G1 X187.296 Y145.547 E20.38267
G1 X186.999 Y146.472 E20.41499
G1 X186.673 Y147.348 E20.44607
G1 X186.535 Y147.701 E20.45868
G1 X186.43 Y147.955 E20.46782
