;FLAVOR:Marlin
;TIME:4907
;Filament used: 3.12406m
;Layer height: 0.2
;MINX:79.54
;MINY:89.6
;MINZ:0.2
;MAXX:140.46
;MAXY:130.4
;MAXZ:68.4
;Generated with Cura_SteamEngine 4.7.1
M140 S60
M105
M190 S60
M104 S200
M105
M109 S200
M82 ;absolute extrusion mode
; Ender 3 Custom Start G-code
G92 E0 ; Reset Extruder
G28 ; Home all axes
G1 Z2.0 F3000 ; Move Z Axis up little to prevent scratching of Heat Bed
G1 X0.1 Y20 Z0.3 F5000.0 ; Move to start position
G1 X0.1 Y200.0 Z0.3 F1500.0 E15 ; Draw the first line
G1 X0.4 Y200.0 Z0.3 F5000.0 ; Move to side a little
G1 X0.4 Y20 Z0.3 F1500.0 E30 ; Draw the second line
G92 E0 ; Reset Extruder
G1 Z2.0 F3000 ; Move Z Axis up little to prevent scratching of Heat Bed
G1 X5 Y20 Z0.3 F5000.0 ; Move over to prevent blob squish
G92 E0
G92 E0
G1 F1500 E-6.5
;LAYER_COUNT:342
;LAYER:0
M107
G0 F6000 X86.209 Y94.89 Z0.2
;TYPE:SKIRT
G1 F1500 E0
G1 F1200 X86.653 Y94.511 E0.01942
G1 X86.919 Y94.296 E0.03079
G1 X87.216 Y94.064 E0.04333
G1 X87.775 Y93.643 E0.0666
G1 X88.465 Y93.138 E0.09504
G1 X89.245 Y92.617 E0.12624
G1 X89.757 Y92.324 E0.14586
G1 X90.057 Y92.163 E0.15718
G1 X90.359 Y92.007 E0.16849
G1 X91.107 Y91.636 E0.19626
G1 X91.744 Y91.33 E0.21976
G1 X92.606 Y90.96 E0.25096
G1 X93.187 Y90.758 E0.27142
G1 X93.506 Y90.657 E0.28255
G1 X93.804 Y90.567 E0.29291
G1 X94.652 Y90.326 E0.32223
G1 X95.326 Y90.145 E0.34544
G1 X96.241 Y89.941 E0.37662
G1 X96.841 Y89.851 E0.3968
G1 X97.151 Y89.813 E0.40719
G1 X97.476 Y89.778 E0.41806
G1 X98.382 Y89.695 E0.44832
G1 X98.928 Y89.652 E0.46653
G1 X99.594 Y89.62 E0.48871
G1 X100.594 Y89.602 E0.52198
G1 X100.792 Y89.6 E0.52856
G1 X119.557 Y89.601 E1.15269
G1 X120.162 Y89.61 E1.17281
G1 X120.806 Y89.639 E1.19426
G1 X121.797 Y89.712 E1.22731
G1 X122.029 Y89.731 E1.23505
G1 X122.339 Y89.762 E1.24541
G1 X123.027 Y89.837 E1.26843
G1 X123.954 Y89.978 E1.29961
G1 X124.541 Y90.11 E1.31963
G1 X124.872 Y90.194 E1.33098
G1 X125.175 Y90.276 E1.34142
G1 X125.957 Y90.499 E1.36847
G1 X126.631 Y90.7 E1.39186
G1 X127.517 Y91.006 E1.42304
G1 X128.094 Y91.252 E1.4439
G1 X128.365 Y91.377 E1.45383
G1 X128.659 Y91.518 E1.46467
G1 X129.302 Y91.838 E1.48856
G1 X130.018 Y92.207 E1.51535
G1 X130.832 Y92.672 E1.54653
G1 X131.399 Y93.055 E1.56929
G1 X132.312 Y93.713 E1.60672
G1 X132.638 Y93.957 E1.62026
G1 X133.184 Y94.382 E1.64328
G1 X133.899 Y94.989 E1.67447
G1 X134.317 Y95.397 E1.6939
G1 X134.521 Y95.607 E1.70364
G1 X134.863 Y95.971 E1.72025
G1 X135.279 Y96.428 E1.7408
G1 X135.805 Y97.022 E1.76719
G1 X136.065 Y97.327 E1.78052
G1 X136.762 Y98.264 E1.81937
G1 X136.926 Y98.511 E1.82923
G1 X137.112 Y98.802 E1.84071
G1 X137.503 Y99.433 E1.8654
G1 X137.592 Y99.579 E1.87109
G1 X137.948 Y100.174 E1.89415
G1 X138.395 Y100.999 E1.92536
G1 X138.652 Y101.565 E1.94604
G1 X138.78 Y101.87 E1.95704
G1 X138.894 Y102.154 E1.96722
G1 X139.19 Y102.92 E1.99453
G1 X139.444 Y103.605 E2.01883
G1 X139.732 Y104.497 E2.05
G1 X139.866 Y105.035 E2.06844
G1 X139.928 Y105.313 E2.07792
G1 X140 Y105.663 E2.0898
G1 X140.165 Y106.541 E2.11952
G1 X140.288 Y107.25 E2.14345
G1 X140.409 Y108.18 E2.17464
G1 X140.445 Y108.801 E2.19533
G1 X140.455 Y109.135 E2.20645
G1 X140.46 Y109.464 E2.21739
G1 X140.459 Y110.332 E2.24626
G1 X140.448 Y111.042 E2.26988
G1 X140.393 Y111.979 E2.3011
G1 X140.31 Y112.612 E2.32233
G1 X140.252 Y112.974 E2.33452
G1 X140.203 Y113.259 E2.34414
G1 X140.055 Y114.045 E2.37074
G1 X139.912 Y114.752 E2.39473
G1 X139.687 Y115.662 E2.42591
G1 X139.499 Y116.243 E2.44622
G1 X139.391 Y116.548 E2.45698
G1 X139.285 Y116.836 E2.46719
G1 X139.045 Y117.458 E2.48937
G1 X138.707 Y118.299 E2.51951
G1 X138.32 Y119.153 E2.5507
G1 X138.032 Y119.685 E2.57082
G1 X137.897 Y119.919 E2.5798
G1 X137.732 Y120.196 E2.59053
G1 X137.341 Y120.83 E2.6153
G1 X136.887 Y121.545 E2.64347
G1 X136.436 Y122.2 E2.66992
G1 X135.92 Y122.846 E2.69742
G1 X135.682 Y123.122 E2.70954
G1 X135.485 Y123.344 E2.71941
G1 X134.933 Y123.949 E2.74665
G1 X134.461 Y124.453 E2.76962
G1 X133.791 Y125.11 E2.80083
G1 X133.327 Y125.505 E2.8211
G1 X133.061 Y125.719 E2.83245
G1 X132.799 Y125.923 E2.8435
G1 X132.254 Y126.335 E2.86622
G1 X132.113 Y126.44 E2.87207
G1 X131.533 Y126.864 E2.89596
G1 X130.753 Y127.385 E2.92716
G1 X130.258 Y127.668 E2.94613
G1 X129.974 Y127.821 E2.95685
G1 X129.664 Y127.982 E2.96847
G1 X129.038 Y128.294 E2.99174
G1 X128.25 Y128.673 E3.02082
G1 X127.388 Y129.042 E3.05201
G1 X126.813 Y129.242 E3.07225
G1 X126.494 Y129.343 E3.08338
G1 X126.196 Y129.433 E3.09374
G1 X125.348 Y129.674 E3.12306
G1 X124.674 Y129.855 E3.14627
G1 X123.759 Y130.059 E3.17745
G1 X123.159 Y130.149 E3.19763
G1 X122.849 Y130.187 E3.20802
G1 X122.524 Y130.222 E3.21889
G1 X121.618 Y130.305 E3.24915
G1 X121.072 Y130.348 E3.26737
G1 X120.406 Y130.38 E3.28954
G1 X119.406 Y130.398 E3.32281
G1 X119.208 Y130.4 E3.32939
G1 X100.44 Y130.399 E3.95362
G1 X99.836 Y130.39 E3.97371
G1 X99.19 Y130.361 E3.99522
G1 X98.188 Y130.287 E4.02864
G1 X97.851 Y130.258 E4.03989
G1 X96.997 Y130.167 E4.06845
G1 X96.07 Y130.026 E4.09964
G1 X95.485 Y129.896 E4.11957
G1 X95.156 Y129.813 E4.13086
G1 X94.842 Y129.729 E4.14167
G1 X94.047 Y129.502 E4.16917
G1 X93.375 Y129.302 E4.19248
G1 X92.489 Y128.996 E4.22366
G1 X91.894 Y128.742 E4.24518
G1 X91.613 Y128.612 E4.25548
G1 X91.345 Y128.484 E4.26535
G1 X90.728 Y128.178 E4.28826
G1 X89.916 Y127.76 E4.31864
G1 X89.101 Y127.295 E4.34985
G1 X88.581 Y126.947 E4.37066
G1 X88.293 Y126.742 E4.38241
G1 X88.051 Y126.564 E4.39241
G1 X87.4 Y126.072 E4.41955
G1 X86.822 Y125.623 E4.44389
G1 X86.106 Y125.017 E4.47509
G1 X85.632 Y124.551 E4.4972
G1 X85.373 Y124.281 E4.50964
G1 X85.183 Y124.078 E4.51889
G1 X84.616 Y123.455 E4.54691
G1 X84.195 Y122.979 E4.56804
G1 X83.885 Y122.613 E4.584
G1 X83.207 Y121.689 E4.62211
G1 X83.019 Y121.403 E4.6335
G1 X82.863 Y121.158 E4.64316
G1 X82.443 Y120.479 E4.66971
G1 X82.057 Y119.835 E4.69468
G1 X81.61 Y119.011 E4.72586
G1 X81.346 Y118.431 E4.74706
G1 X81.209 Y118.104 E4.75885
G1 X81.097 Y117.825 E4.76885
G1 X80.848 Y117.182 E4.79178
G1 X80.548 Y116.371 E4.82054
G1 X80.261 Y115.478 E4.85174
G1 X80.127 Y114.936 E4.87031
G1 X80.054 Y114.605 E4.88159
G1 X79.983 Y114.253 E4.89353
G1 X79.831 Y113.437 E4.92114
G1 X79.71 Y112.736 E4.9448
G1 X79.59 Y111.806 E4.97598
G1 X79.555 Y111.185 E4.99667
G1 X79.545 Y110.841 E5.00812
G1 X79.54 Y110.521 E5.01876
G1 X79.541 Y109.67 E5.04707
G1 X79.552 Y108.96 E5.07068
G1 X79.607 Y108.023 E5.1019
G1 X79.685 Y107.42 E5.12213
G1 X79.736 Y107.096 E5.13304
G1 X79.788 Y106.794 E5.14323
G1 X79.952 Y105.916 E5.17294
G1 X80.085 Y105.26 E5.1952
G1 X80.233 Y104.628 E5.21679
G1 X80.507 Y103.742 E5.24763
G1 X80.635 Y103.382 E5.26034
G1 X80.742 Y103.093 E5.27059
G1 X80.971 Y102.502 E5.29167
G1 X81.3 Y101.686 E5.32093
G1 X81.688 Y100.832 E5.35213
G1 X81.961 Y100.327 E5.37123
G1 X82.095 Y100.094 E5.38017
G1 X82.234 Y99.86 E5.38922
G1 X82.381 Y99.619 E5.39861
G1 X82.762 Y99.006 E5.42261
G1 X83.117 Y98.449 E5.44458
G1 X83.564 Y97.8 E5.47079
G1 X84.065 Y97.171 E5.49754
G1 X84.29 Y96.909 E5.50902
G1 X84.504 Y96.668 E5.51974
G1 X85.067 Y96.051 E5.54752
G1 X85.539 Y95.547 E5.57049
G1 X86.209 Y94.89 E5.6017
G0 F6000 X86.489 Y95.176
G1 F1200 X86.905 Y94.822 E5.61987
G1 X87.171 Y94.607 E5.63125
G1 X87.457 Y94.384 E5.64331
G1 X88.135 Y93.874 E5.67153
G1 X88.701 Y93.46 E5.69485
G1 X89.467 Y92.95 E5.72546
G1 X89.947 Y92.676 E5.74384
G1 X90.247 Y92.515 E5.75516
G1 X90.537 Y92.365 E5.76602
G1 X91.28 Y91.996 E5.79362
G1 X91.917 Y91.69 E5.81712
G1 X92.764 Y91.328 E5.84776
G1 X93.307 Y91.139 E5.86688
G1 X93.626 Y91.038 E5.87801
G1 X93.914 Y90.952 E5.888
G1 X94.593 Y90.758 E5.91149
G1 X95.43 Y90.532 E5.94033
G1 X96.328 Y90.332 E5.97093
G1 X96.889 Y90.248 E5.98979
G1 X97.199 Y90.21 E6.00018
G1 X97.513 Y90.176 E6.01069
G1 X98.27 Y90.106 E6.03597
G1 X98.96 Y90.051 E6.05899
G1 X99.601 Y90.02 E6.08034
G1 X100.601 Y90.002 E6.1136
G1 X100.792 Y90 E6.11996
G1 X119.551 Y90.001 E6.74388
G1 X120.156 Y90.01 E6.76401
G1 X120.777 Y90.038 E6.78468
G1 X121.768 Y90.111 E6.81773
G1 X121.991 Y90.129 E6.82518
G1 X122.296 Y90.159 E6.83537
G1 X122.984 Y90.234 E6.85839
G1 X123.894 Y90.374 E6.88901
G1 X124.442 Y90.498 E6.9077
G1 X124.773 Y90.582 E6.91906
G1 X125.066 Y90.66 E6.92914
G1 X125.713 Y90.844 E6.95151
G1 X126.516 Y91.083 E6.97938
G1 X127.386 Y91.384 E7.01
G1 X127.927 Y91.616 E7.02958
G1 X128.198 Y91.741 E7.0395
G1 X128.481 Y91.876 E7.04993
G1 X129.124 Y92.196 E7.07382
G1 X129.834 Y92.562 E7.10039
G1 X130.633 Y93.02 E7.13102
G1 X131.166 Y93.38 E7.15241
G1 X132.079 Y94.038 E7.18984
G1 X132.392 Y94.272 E7.20284
G1 X132.938 Y94.697 E7.22585
G1 X133.639 Y95.294 E7.25648
G1 X134.03 Y95.676 E7.27466
G1 X134.234 Y95.886 E7.2844
G1 X134.383 Y96.042 E7.29157
G1 X134.567 Y96.241 E7.30059
G1 X134.983 Y96.698 E7.32114
G1 X135.505 Y97.287 E7.34732
G1 X135.757 Y97.583 E7.36025
G1 X136.429 Y98.486 E7.39768
G1 X136.593 Y98.733 E7.40755
G1 X136.772 Y99.013 E7.4186
G1 X137.249 Y99.785 E7.44878
G1 X137.605 Y100.38 E7.47184
G1 X138.043 Y101.189 E7.50244
G1 X138.283 Y101.72 E7.52182
G1 X138.411 Y102.025 E7.53282
G1 X138.521 Y102.298 E7.54261
G1 X138.815 Y103.059 E7.56975
G1 X139.069 Y103.744 E7.59405
G1 X139.351 Y104.62 E7.62466
G1 X139.476 Y105.122 E7.64186
G1 X139.538 Y105.4 E7.65134
G1 X139.607 Y105.738 E7.66281
G1 X139.771 Y106.609 E7.69229
G1 X139.894 Y107.318 E7.71622
G1 X140.012 Y108.231 E7.74684
G1 X140.045 Y108.813 E7.76623
G1 X140.055 Y109.147 E7.77734
G1 X140.06 Y109.464 E7.78789
G1 X140.059 Y110.326 E7.81656
G1 X140.048 Y111.036 E7.84018
G1 X139.994 Y111.955 E7.87079
G1 X139.916 Y112.549 E7.89072
G1 X139.858 Y112.911 E7.90291
G1 X139.81 Y113.185 E7.91217
G1 X139.663 Y113.965 E7.93857
G1 X139.52 Y114.672 E7.96256
G1 X139.298 Y115.566 E7.99319
G1 X139.122 Y116.109 E8.01218
G1 X139.014 Y116.414 E8.02294
G1 X138.911 Y116.692 E8.0328
G1 X138.614 Y117.459 E8.06016
G1 X138.336 Y118.149 E8.0849
G1 X137.955 Y118.987 E8.11552
G1 X137.686 Y119.485 E8.13434
G1 X137.551 Y119.719 E8.14333
G1 X137.391 Y119.986 E8.15368
G1 X136.921 Y120.747 E8.18343
G1 X136.55 Y121.33 E8.20641
G1 X136.114 Y121.963 E8.23198
G1 X135.618 Y122.584 E8.25841
G1 X135.38 Y122.86 E8.27053
G1 X135.19 Y123.075 E8.28008
G1 X134.742 Y123.567 E8.30221
G1 X134.169 Y124.18 E8.33012
G1 X133.511 Y124.824 E8.36074
G1 X133.076 Y125.193 E8.37971
G1 X132.81 Y125.407 E8.39107
G1 X132.558 Y125.604 E8.40171
G1 X132.013 Y126.016 E8.42443
G1 X131.877 Y126.117 E8.43006
G1 X131.297 Y126.541 E8.45396
G1 X130.531 Y127.052 E8.48459
G1 X130.068 Y127.316 E8.50231
G1 X129.784 Y127.469 E8.51304
G1 X129.485 Y127.624 E8.52424
G1 X128.715 Y128.007 E8.55285
G1 X128.077 Y128.313 E8.57638
G1 X127.23 Y128.674 E8.60701
G1 X126.693 Y128.861 E8.62592
G1 X126.374 Y128.962 E8.63705
G1 X126.086 Y129.048 E8.64704
G1 X125.407 Y129.242 E8.67053
G1 X124.57 Y129.468 E8.69937
G1 X123.672 Y129.668 E8.72997
G1 X123.111 Y129.752 E8.74883
G1 X122.801 Y129.79 E8.75922
G1 X122.487 Y129.824 E8.76973
G1 X121.73 Y129.894 E8.79501
G1 X121.04 Y129.949 E8.81803
G1 X120.399 Y129.98 E8.83938
G1 X119.399 Y129.998 E8.87264
G1 X119.208 Y130 E8.879
G1 X100.446 Y129.999 E9.50302
G1 X99.842 Y129.99 E9.52311
G1 X99.219 Y129.962 E9.54386
G1 X98.217 Y129.888 E9.57727
G1 X97.745 Y129.845 E9.59304
G1 X97.04 Y129.769 E9.61662
G1 X96.13 Y129.631 E9.64724
G1 X95.583 Y129.508 E9.66588
G1 X95.254 Y129.425 E9.67717
G1 X94.951 Y129.344 E9.6876
G1 X94.161 Y129.119 E9.71492
G1 X93.489 Y128.919 E9.73824
G1 X92.619 Y128.618 E9.76886
G1 X92.062 Y128.379 E9.78902
G1 X91.781 Y128.249 E9.79932
G1 X91.522 Y128.125 E9.80887
G1 X90.754 Y127.743 E9.8374
G1 X90.099 Y127.405 E9.86191
G1 X89.3 Y126.947 E9.89254
G1 X88.813 Y126.621 E9.91203
G1 X88.525 Y126.416 E9.92379
G1 X88.291 Y126.244 E9.93345
G1 X87.645 Y125.756 E9.96038
G1 X87.067 Y125.307 E9.98472
G1 X86.365 Y124.711 E10.01535
G1 X85.92 Y124.274 E10.03609
G1 X85.661 Y124.004 E10.04854
G1 X85.478 Y123.808 E10.05746
G1 X84.916 Y123.19 E10.08524
G1 X84.495 Y122.714 E10.10638
G1 X84.195 Y122.359 E10.12183
G1 X83.541 Y121.47 E10.15854
G1 X83.353 Y121.184 E10.16993
G1 X83.202 Y120.947 E10.17927
G1 X82.786 Y120.274 E10.20559
G1 X82.4 Y119.63 E10.23056
G1 X81.962 Y118.82 E10.26119
G1 X81.715 Y118.276 E10.28106
G1 X81.578 Y117.949 E10.29285
G1 X81.47 Y117.681 E10.30246
G1 X81.221 Y117.038 E10.32539
G1 X80.923 Y116.233 E10.35394
G1 X80.643 Y115.356 E10.38456
G1 X80.518 Y114.85 E10.4019
G1 X80.445 Y114.519 E10.41317
G1 X80.376 Y114.18 E10.42468
G1 X80.225 Y113.369 E10.45212
G1 X80.104 Y112.668 E10.47578
G1 X79.987 Y111.755 E10.50639
G1 X79.954 Y111.173 E10.52578
G1 X79.944 Y110.829 E10.53723
G1 X79.94 Y110.521 E10.54747
G1 X79.941 Y109.676 E10.57558
G1 X79.952 Y108.966 E10.59919
G1 X80.006 Y108.047 E10.62981
G1 X80.08 Y107.482 E10.64877
G1 X80.131 Y107.158 E10.65967
G1 X80.181 Y106.867 E10.6695
G1 X80.344 Y105.996 E10.69897
G1 X80.477 Y105.34 E10.72123
G1 X80.62 Y104.729 E10.7421
G1 X80.884 Y103.876 E10.7718
G1 X81.012 Y103.516 E10.78451
G1 X81.115 Y103.237 E10.7944
G1 X81.344 Y102.646 E10.81548
G1 X81.671 Y101.836 E10.84453
G1 X82.052 Y100.998 E10.87515
G1 X82.308 Y100.526 E10.89301
G1 X82.442 Y100.293 E10.90195
G1 X82.575 Y100.068 E10.91064
G1 X83.027 Y99.336 E10.93926
G1 X83.454 Y98.664 E10.96574
G1 X83.886 Y98.037 E10.99106
G1 X84.368 Y97.432 E11.01679
G1 X84.593 Y97.17 E11.02828
G1 X84.799 Y96.937 E11.03862
G1 X85.359 Y96.324 E11.06624
G1 X85.831 Y95.82 E11.0892
G1 X86.489 Y95.176 E11.11983
G0 F6000 X86.769 Y95.463
G1 F1200 X87.156 Y95.133 E11.13674
G1 X87.422 Y94.918 E11.14812
G1 X87.698 Y94.703 E11.15975
G1 X88.371 Y94.197 E11.18776
G1 X88.937 Y93.783 E11.21108
G1 X89.689 Y93.283 E11.24112
G1 X90.136 Y93.028 E11.25824
G1 X90.436 Y92.867 E11.26956
G1 X90.715 Y92.723 E11.28
G1 X91.453 Y92.357 E11.3074
G1 X92.09 Y92.051 E11.33091
G1 X92.921 Y91.696 E11.36096
G1 X93.428 Y91.521 E11.3788
G1 X93.747 Y91.42 E11.38993
G1 X94.024 Y91.336 E11.39956
G1 X94.703 Y91.142 E11.42304
G1 X95.534 Y90.918 E11.45167
G1 X96.415 Y90.723 E11.48168
G1 X96.938 Y90.645 E11.49927
G1 X97.248 Y90.607 E11.50966
G1 X97.55 Y90.574 E11.51976
G1 X98.445 Y90.492 E11.54965
G1 X98.991 Y90.449 E11.56787
G1 X99.608 Y90.42 E11.58841
G1 X100.608 Y90.402 E11.62168
G1 X100.792 Y90.4 E11.6278
G1 X119.545 Y90.401 E12.25153
G1 X120.15 Y90.41 E12.27165
G1 X120.747 Y90.437 E12.29153
G1 X121.738 Y90.51 E12.32458
G1 X121.953 Y90.528 E12.33175
G1 X122.252 Y90.557 E12.34175
G1 X122.94 Y90.632 E12.36476
G1 X123.833 Y90.77 E12.39482
G1 X124.344 Y90.885 E12.41224
G1 X124.675 Y90.969 E12.4236
G1 X124.956 Y91.045 E12.43328
G1 X125.728 Y91.265 E12.45998
G1 X126.402 Y91.466 E12.48337
G1 X127.255 Y91.763 E12.51341
G1 X127.759 Y91.979 E12.53165
G1 X128.03 Y92.104 E12.54158
G1 X128.303 Y92.234 E12.55163
G1 X129.084 Y92.624 E12.58067
G1 X129.651 Y92.917 E12.6019
G1 X130.434 Y93.367 E12.63193
G1 X130.932 Y93.704 E12.65193
G1 X131.845 Y94.362 E12.68936
G1 X132.146 Y94.588 E12.70188
G1 X132.692 Y95.013 E12.7249
G1 X133.38 Y95.599 E12.75495
G1 X133.743 Y95.955 E12.77186
G1 X133.947 Y96.165 E12.7816
G1 X134.187 Y96.419 E12.79322
G1 X134.687 Y96.967 E12.8179
G1 X135.205 Y97.551 E12.84386
G1 X135.45 Y97.838 E12.85641
G1 X136.095 Y98.707 E12.89241
G1 X136.259 Y98.954 E12.90227
G1 X136.432 Y99.223 E12.91291
G1 X136.906 Y99.99 E12.94289
G1 X137.262 Y100.585 E12.96596
G1 X137.691 Y101.38 E12.996
G1 X137.914 Y101.875 E13.01406
G1 X138.042 Y102.18 E13.02506
G1 X138.148 Y102.443 E13.03449
G1 X138.44 Y103.198 E13.06142
G1 X138.694 Y103.883 E13.08572
G1 X138.97 Y104.743 E13.11576
G1 X139.085 Y105.209 E13.13172
G1 X139.147 Y105.487 E13.14119
G1 X139.214 Y105.812 E13.15223
G1 X139.377 Y106.678 E13.18154
G1 X139.5 Y107.387 E13.20547
G1 X139.615 Y108.282 E13.23549
G1 X139.645 Y108.825 E13.25357
G1 X139.655 Y109.159 E13.26469
G1 X139.66 Y109.464 E13.27483
G1 X139.659 Y110.32 E13.3033
G1 X139.648 Y111.03 E13.32692
G1 X139.594 Y111.932 E13.35698
G1 X139.521 Y112.486 E13.37556
G1 X139.463 Y112.848 E13.38775
G1 X139.417 Y113.112 E13.39667
G1 X139.271 Y113.886 E13.42287
G1 X139.128 Y114.593 E13.44686
G1 X138.909 Y115.47 E13.47692
G1 X138.745 Y115.976 E13.49461
G1 X138.637 Y116.281 E13.50537
G1 X138.538 Y116.548 E13.51485
G1 X138.243 Y117.31 E13.54202
G1 X137.965 Y118 E13.56676
G1 X137.591 Y118.822 E13.5968
