;FLAVOR:Marlin
;TIME:8349
;Filament used: 4.59534m
;Layer height: 0.2
;MINX:81.791
;MINY:78.5
;MINZ:0.2
;MAXX:138.229
;MAXY:141.5
;MAXZ:72
;Generated with Cura_SteamEngine 4.7.1
M140 S60
M105
M190 S60
M104 S200
M105
M109 S200
M82 ;absolute extrusion mode
; Ender 3 Custom Start G-code
G92 E0 ; Reset Extruder
G28 ; Home all axes
G1 Z2.0 F3000 ; Move Z Axis up little to prevent scratching of Heat Bed
G1 X0.1 Y20 Z0.3 F5000.0 ; Move to start position
G1 X0.1 Y200.0 Z0.3 F1500.0 E15 ; Draw the first line
G1 X0.4 Y200.0 Z0.3 F5000.0 ; Move to side a little
G1 X0.4 Y20 Z0.3 F1500.0 E30 ; Draw the second line
G92 E0 ; Reset Extruder
G1 Z2.0 F3000 ; Move Z Axis up little to prevent scratching of Heat Bed
G1 X5 Y20 Z0.3 F5000.0 ; Move over to prevent blob squish
G92 E0
G92 E0
G1 F1500 E-6.5
;LAYER_COUNT:360
;LAYER:0
M107
G0 F6000 X88.531 Y104.643 Z0.2
;TYPE:SKIRT
G1 F1500 E0
G1 F1200 X111.03 Y82.144 E1.05828
G1 X111.56 Y81.628 E1.08289
G1 X112.259 Y81.003 E1.11407
G1 X113.009 Y80.44 E1.14526
G1 X113.804 Y79.943 E1.17645
G1 X114.639 Y79.515 E1.20766
G1 X115.507 Y79.16 E1.23885
G1 X116.402 Y78.881 E1.27003
G1 X117.318 Y78.678 E1.30123
G1 X118.247 Y78.554 E1.33241
G1 X118.79 Y78.519 E1.3505
G1 X118.939 Y78.513 E1.35546
G1 X119.274 Y78.505 E1.36661
G1 X119.79 Y78.5 E1.38377
G1 X126.68 Y78.501 E1.61293
G1 X127.378 Y78.511 E1.63615
G1 X128.314 Y78.565 E1.66734
G1 X129.242 Y78.697 E1.69851
G1 X130.156 Y78.909 E1.72972
G1 X131.048 Y79.198 E1.76091
G1 X131.913 Y79.561 E1.79211
G1 X132.743 Y79.997 E1.82329
G1 X133.534 Y80.502 E1.8545
G1 X134.278 Y81.073 E1.8857
G1 X134.971 Y81.705 E1.91689
G1 X135.608 Y82.393 E1.94808
G1 X136.183 Y83.134 E1.97927
G1 X136.694 Y83.92 E2.01045
G1 X137.136 Y84.748 E2.04167
G1 X137.505 Y85.61 E2.07286
G1 X137.8 Y86.5 E2.10404
G1 X138.018 Y87.412 E2.13523
G1 X138.158 Y88.34 E2.16644
G1 X138.216 Y89.201 E2.19515
G1 X138.225 Y89.521 E2.20579
G1 X138.229 Y89.83 E2.21607
G1 X138.228 Y129.9 E3.54881
G1 X138.219 Y130.627 E3.57299
G1 X138.168 Y131.564 E3.6042
G1 X138.036 Y132.492 E3.63537
G1 X137.827 Y133.406 E3.66656
G1 X137.54 Y134.299 E3.69776
G1 X137.178 Y135.165 E3.72897
G1 X136.744 Y135.996 E3.76016
G1 X136.24 Y136.787 E3.79135
G1 X135.671 Y137.532 E3.82253
G1 X135.04 Y138.227 E3.85375
G1 X134.353 Y138.865 E3.88494
G1 X133.614 Y139.442 E3.91612
G1 X132.828 Y139.954 E3.94732
G1 X132.002 Y140.397 E3.97849
G1 X131.14 Y140.769 E4.00972
G1 X130.251 Y141.065 E4.04088
G1 X129.339 Y141.285 E4.07209
G1 X128.412 Y141.426 E4.10327
G1 X127.528 Y141.487 E4.13275
G1 X127.207 Y141.496 E4.14343
G1 X126.899 Y141.5 E4.15367
G1 X99.992 Y141.499 E5.0486
G1 X99.291 Y141.489 E5.07192
G1 X98.355 Y141.436 E5.1031
G1 X97.426 Y141.303 E5.13432
G1 X96.513 Y141.091 E5.16549
G1 X95.62 Y140.803 E5.1967
G1 X94.756 Y140.439 E5.22788
G1 X93.925 Y140.003 E5.25909
G1 X93.135 Y139.498 E5.29028
G1 X92.391 Y138.928 E5.32145
G1 X91.994 Y138.579 E5.33903
G1 X91.841 Y138.438 E5.34595
G1 X91.598 Y138.207 E5.3571
G1 X91.322 Y137.936 E5.36997
G1 X88.115 Y134.728 E5.52084
G1 X87.646 Y134.246 E5.54321
G1 X87.209 Y133.77 E5.5647
G1 X87.03 Y133.563 E5.5738
G1 X86.7 Y133.167 E5.59095
G1 X86.185 Y132.533 E5.61811
G1 X85.752 Y131.985 E5.64134
G1 X85.203 Y131.225 E5.67253
G1 X84.857 Y130.665 E5.69442
G1 X84.633 Y130.277 E5.70932
G1 X84.461 Y129.968 E5.72108
G1 X84.112 Y129.316 E5.74568
G1 X84.011 Y129.122 E5.75296
G1 X83.704 Y128.52 E5.77543
G1 X83.314 Y127.667 E5.80663
G1 X83.017 Y126.845 E5.8357
G1 X82.673 Y125.757 E5.87365
G1 X82.582 Y125.454 E5.88417
G1 X82.401 Y124.819 E5.90613
G1 X82.116 Y123.532 E5.94998
G1 X82.064 Y123.205 E5.96099
G1 X82.007 Y122.798 E5.97466
G1 X81.972 Y122.503 E5.98454
G1 X81.938 Y122.167 E5.99577
G1 X81.878 Y121.529 E6.01708
G1 X81.82 Y120.822 E6.04068
G1 X81.791 Y119.5 E6.08466
G1 X81.796 Y119.37 E6.08899
G1 X81.826 Y118.874 E6.10551
G1 X81.894 Y118.063 E6.13258
G1 X81.942 Y117.582 E6.14866
G1 X82.024 Y116.855 E6.17299
G1 X82.24 Y115.601 E6.21532
G1 X82.266 Y115.489 E6.21914
G1 X82.407 Y114.945 E6.23783
G1 X82.628 Y114.174 E6.26451
G1 X82.73 Y113.834 E6.27631
G1 X82.942 Y113.166 E6.29962
G1 X83.059 Y112.817 E6.31187
G1 X83.162 Y112.528 E6.32207
G1 X83.627 Y111.421 E6.36201
G1 X83.708 Y111.254 E6.36818
G1 X83.864 Y110.944 E6.37972
G1 X84.043 Y110.603 E6.39253
G1 X84.403 Y109.932 E6.41786
G1 X84.734 Y109.331 E6.44068
G1 X85.457 Y108.191 E6.48558
G1 X85.491 Y108.144 E6.48751
G1 X85.801 Y107.735 E6.50458
G1 X86.26 Y107.16 E6.52905
G1 X86.576 Y106.774 E6.54564
G1 X87.012 Y106.256 E6.56816
G1 X87.475 Y105.741 E6.59119
G1 X88.366 Y104.811 E6.63403
G1 X88.531 Y104.643 E6.64186
G0 F6000 X88.814 Y104.926
G1 F1200 X111.309 Y82.431 E7.69996
G1 X111.839 Y81.915 E7.72456
G1 X112.526 Y81.302 E7.75518
G1 X113.263 Y80.751 E7.78579
G1 X114.046 Y80.266 E7.81642
G1 X114.867 Y79.851 E7.84702
G1 X115.722 Y79.508 E7.87766
G1 X116.603 Y79.241 E7.90828
G1 X117.504 Y79.052 E7.9389
G1 X118.807 Y78.919 E7.98246
G1 X118.956 Y78.913 E7.98742
G1 X119.278 Y78.905 E7.99813
G1 X119.79 Y78.9 E8.01516
G1 X126.522 Y78.9 E8.23907
G1 X127.372 Y78.911 E8.26734
G1 X128.291 Y78.964 E8.29796
G1 X129.202 Y79.097 E8.32858
G1 X130.098 Y79.308 E8.3592
G1 X130.972 Y79.596 E8.38981
G1 X131.819 Y79.959 E8.42045
G1 X132.63 Y80.394 E8.45106
G1 X133.4 Y80.898 E8.48167
G1 X134.124 Y81.467 E8.5123
G1 X134.796 Y82.097 E8.54294
G1 X135.411 Y82.782 E8.57355
G1 X135.964 Y83.518 E8.60417
G1 X136.451 Y84.299 E8.63479
G1 X136.868 Y85.12 E8.66541
G1 X137.213 Y85.974 E8.69605
G1 X137.482 Y86.854 E8.72665
G1 X137.674 Y87.755 E8.75729
G1 X137.787 Y88.668 E8.78789
G1 X137.816 Y89.212 E8.80601
G1 X137.825 Y89.532 E8.81666
G1 X137.829 Y89.83 E8.82657
G1 X137.828 Y129.895 E10.15914
G1 X137.819 Y130.622 E10.18332
G1 X137.768 Y131.541 E10.21393
G1 X137.637 Y132.453 E10.24458
G1 X137.427 Y133.349 E10.27519
G1 X137.141 Y134.224 E10.3058
G1 X136.78 Y135.071 E10.33643
G1 X136.346 Y135.883 E10.36705
G1 X135.844 Y136.655 E10.39768
G1 X135.276 Y137.38 E10.42831
G1 X134.648 Y138.053 E10.45893
G1 X133.964 Y138.669 E10.48954
G1 X133.229 Y139.223 E10.52016
G1 X132.449 Y139.712 E10.55078
G1 X131.629 Y140.131 E10.5814
G1 X130.776 Y140.477 E10.61202
G1 X129.896 Y140.748 E10.64264
G1 X128.996 Y140.941 E10.67326
G1 X128.082 Y141.056 E10.7039
G1 X127.517 Y141.087 E10.72272
G1 X127.196 Y141.096 E10.7334
G1 X126.899 Y141.1 E10.74328
G1 X99.998 Y141.099 E11.63801
G1 X99.297 Y141.089 E11.66133
G1 X98.378 Y141.036 E11.69194
G1 X97.467 Y140.903 E11.72257
G1 X96.571 Y140.692 E11.75318
G1 X95.696 Y140.404 E11.78382
G1 X94.85 Y140.041 E11.81444
G1 X94.039 Y139.606 E11.84505
G1 X93.268 Y139.102 E11.87568
G1 X92.265 Y138.285 E11.91871
G1 X92.112 Y138.144 E11.92563
G1 X91.878 Y137.922 E11.93636
G1 X91.683 Y137.731 E11.94544
G1 X88.402 Y134.449 E12.09979
G1 X87.933 Y133.967 E12.12216
G1 X87.512 Y133.508 E12.14287
G1 X87.333 Y133.301 E12.15198
G1 X87.194 Y133.137 E12.15913
G1 X87.01 Y132.915 E12.16872
G1 X86.499 Y132.285 E12.1957
G1 X86.066 Y131.737 E12.21893
G1 X85.527 Y130.99 E12.24956
G1 X85.203 Y130.465 E12.27008
G1 X84.979 Y130.077 E12.28498
G1 X84.814 Y129.779 E12.29631
G1 X84.465 Y129.127 E12.32091
G1 X84.367 Y128.941 E12.3279
G1 X84.06 Y128.339 E12.35038
G1 X83.678 Y127.501 E12.38101
G1 X83.398 Y126.724 E12.40848
G1 X83.055 Y125.64 E12.4463
G1 X82.967 Y125.345 E12.45653
G1 X82.786 Y124.71 E12.4785
G1 X82.512 Y123.469 E12.52077
G1 X82.46 Y123.142 E12.53178
G1 X82.419 Y122.86 E12.54126
G1 X82.37 Y122.461 E12.55463
G1 X82.336 Y122.129 E12.56573
G1 X82.276 Y121.497 E12.58684
G1 X82.218 Y120.79 E12.61044
G1 X82.191 Y119.516 E12.65282
G1 X82.196 Y119.386 E12.65715
G1 X82.225 Y118.907 E12.67311
G1 X82.293 Y118.096 E12.70018
G1 X82.327 Y117.742 E12.712
G1 X82.422 Y116.9 E12.74019
G1 X82.63 Y115.691 E12.78099
G1 X82.656 Y115.579 E12.78481
G1 X82.791 Y115.055 E12.80281
G1 X83.012 Y114.284 E12.82949
G1 X83.158 Y113.804 E12.84617
G1 X83.323 Y113.287 E12.86422
G1 X83.436 Y112.951 E12.87601
G1 X83.539 Y112.662 E12.88622
G1 X83.987 Y111.595 E12.92471
G1 X84.068 Y111.428 E12.93088
G1 X84.218 Y111.13 E12.94198
G1 X84.396 Y110.792 E12.95468
G1 X84.753 Y110.125 E12.97985
G1 X85.084 Y109.524 E13.00267
G1 X85.781 Y108.425 E13.04595
G1 X85.815 Y108.378 E13.04788
G1 X86.114 Y107.985 E13.0643
G1 X86.57 Y107.413 E13.08863
G1 X86.987 Y106.905 E13.11049
G1 X87.317 Y106.514 E13.12751
G1 X87.764 Y106.018 E13.14972
G1 X88.655 Y105.088 E13.19256
G1 X88.814 Y104.926 E13.20011
G0 F6000 X89.096 Y105.209
G1 F1200 X111.49 Y82.814 E14.25347
G1 X112.118 Y82.202 E14.28264
G1 X112.792 Y81.601 E14.31268
G1 X113.517 Y81.062 E14.34272
G1 X114.286 Y80.59 E14.37273
G1 X115.095 Y80.187 E14.40279
G1 X115.936 Y79.858 E14.43283
G1 X116.802 Y79.604 E14.46285
G1 X117.688 Y79.428 E14.49289
G1 X118.823 Y79.318 E14.53082
G1 X118.972 Y79.312 E14.53578
G1 X119.282 Y79.304 E14.54609
G1 X119.69 Y79.3 E14.55966
G1 X126.522 Y79.3 E14.7869
G1 X127.366 Y79.311 E14.81497
G1 X128.268 Y79.364 E14.84502
G1 X129.161 Y79.496 E14.87505
G1 X130.039 Y79.707 E14.90508
G1 X130.895 Y79.995 E14.93512
G1 X131.722 Y80.357 E14.96515
G1 X132.514 Y80.792 E14.9952
G1 X133.265 Y81.294 E15.02524
G1 X133.968 Y81.861 E15.05528
G1 X134.618 Y82.488 E15.08532
G1 X135.21 Y83.17 E15.11536
G1 X135.74 Y83.901 E15.14539
G1 X136.202 Y84.677 E15.17543
G1 X136.595 Y85.49 E15.20546
G1 X136.913 Y86.335 E15.23549
G1 X137.156 Y87.205 E15.26553
G1 X137.321 Y88.093 E15.29557
G1 X137.416 Y89.223 E15.33329
G1 X137.425 Y89.543 E15.34394
G1 X137.429 Y89.83 E15.35349
G1 X137.428 Y129.89 E16.68589
G1 X137.419 Y130.617 E16.71007
G1 X137.368 Y131.519 E16.74012
G1 X137.237 Y132.413 E16.77017
G1 X137.028 Y133.291 E16.80019
G1 X136.742 Y134.148 E16.83024
G1 X136.381 Y134.976 E16.86028
G1 X135.949 Y135.768 E16.89029
G1 X135.448 Y136.52 E16.92034
G1 X134.882 Y137.224 E16.95038
G1 X134.257 Y137.875 E16.9804
G1 X133.576 Y138.469 E17.01046
G1 X132.845 Y139 E17.04051
G1 X132.071 Y139.464 E17.07052
G1 X131.258 Y139.858 E17.10057
G1 X130.414 Y140.178 E17.13059
G1 X129.544 Y140.423 E17.16065
G1 X128.657 Y140.589 E17.19067
G1 X127.506 Y140.687 E17.22909
G1 X127.185 Y140.696 E17.23977
G1 X126.899 Y140.7 E17.24928
G1 X100.004 Y140.699 E18.14381
G1 X99.303 Y140.689 E18.16713
G1 X98.401 Y140.636 E18.19718
G1 X97.508 Y140.504 E18.22721
G1 X96.629 Y140.293 E18.25727
G1 X95.773 Y140.005 E18.28731
G1 X94.946 Y139.643 E18.31734
G1 X94.154 Y139.209 E18.34738
G1 X93.404 Y138.706 E18.37741
G1 X92.536 Y137.991 E18.41482
G1 X92.383 Y137.85 E18.42174
G1 X92.158 Y137.636 E18.43206
G1 X91.963 Y137.445 E18.44114
G1 X88.689 Y134.17 E18.59516
G1 X88.22 Y133.688 E18.61753
G1 X87.815 Y133.247 E18.63745
G1 X87.636 Y133.04 E18.64655
G1 X87.501 Y132.881 E18.65349
G1 X87.32 Y132.663 E18.66291
G1 X86.902 Y132.149 E18.68495
G1 X86.38 Y131.489 E18.71293
G1 X85.852 Y130.756 E18.74298
G1 X85.549 Y130.265 E18.76217
G1 X85.325 Y129.877 E18.77707
G1 X85.166 Y129.591 E18.78795
G1 X84.817 Y128.939 E18.81255
G1 X84.723 Y128.759 E18.81931
G1 X84.416 Y128.157 E18.84178
G1 X84.042 Y127.335 E18.87182
G1 X83.779 Y126.604 E18.89766
G1 X83.438 Y125.524 E18.93533
G1 X83.352 Y125.235 E18.94535
G1 X83.171 Y124.6 E18.96732
G1 X82.907 Y123.406 E19.00799
G1 X82.855 Y123.079 E19.019
G1 X82.815 Y122.808 E19.02811
G1 X82.8 Y122.694 E19.03194
G1 X82.768 Y122.42 E19.04111
G1 X82.734 Y122.091 E19.05211
G1 X82.675 Y121.464 E19.07306
G1 X82.617 Y120.757 E19.09665
G1 X82.591 Y119.531 E19.13744
G1 X82.596 Y119.401 E19.14176
G1 X82.624 Y118.941 E19.15709
G1 X82.708 Y117.949 E19.1902
G1 X82.737 Y117.672 E19.19947
G1 X82.819 Y116.945 E19.2238
G1 X83.019 Y115.781 E19.26308
G1 X83.045 Y115.669 E19.26691
G1 X83.176 Y115.165 E19.28423
G1 X83.441 Y114.244 E19.3161
G1 X83.539 Y113.926 E19.32717
G1 X83.704 Y113.409 E19.34522
G1 X83.813 Y113.086 E19.35656
G1 X83.916 Y112.797 E19.36676
G1 X84.347 Y111.77 E19.40381
G1 X84.428 Y111.603 E19.40998
G1 X84.572 Y111.316 E19.42066
G1 X84.749 Y110.981 E19.43326
G1 X85.103 Y110.318 E19.45826
G1 X85.434 Y109.717 E19.48108
G1 X86.105 Y108.66 E19.52272
G1 X86.139 Y108.613 E19.52465
G1 X86.426 Y108.234 E19.54046
G1 X86.879 Y107.667 E19.5646
G1 X87.293 Y107.163 E19.5863
G1 X87.623 Y106.772 E19.60331
G1 X88.053 Y106.295 E19.62467
G1 X88.944 Y105.365 E19.66751
G1 X89.096 Y105.209 E19.67475
G1 F1500 E13.17475
;MESH:DepositoDeBateriasInferiorLateral.stl
G0 F6000 X95.837 Y111.952
G0 X96.59 Y112.704
G0 X96.116 Y113.703
G0 X95.011 Y115.051
G0 X94.2 Y116.57
G0 X93.707 Y118.213
G0 X93.546 Y119.908
G0 X93.712 Y121.592
G0 X94.202 Y123.213
G0 X94.998 Y124.717
G0 X96.092 Y126.061
G0 X99.761 Y129.726
G0 X126.629 Y129.9
;TYPE:WALL-INNER
G1 F1500 E19.67475
G1 F1200 X99.69 Y129.9 E20.57075
G1 X95.962 Y126.172 E20.7461
G1 X94.858 Y124.814 E20.80431
G1 X94.796 Y124.703 E20.80854
G1 X94.045 Y123.283 E20.86197
G1 X94.004 Y123.161 E20.86625
G1 X93.545 Y121.627 E20.91951
G1 X93.526 Y121.497 E20.92388
G1 X93.374 Y119.911 E20.97687
G1 X93.38 Y119.772 E20.9815
G1 X93.539 Y118.183 E21.03461
G1 X93.56 Y118.091 E21.03775
G1 X94.041 Y116.505 E21.09287
G1 X94.868 Y114.957 E21.15125
G1 X95.988 Y113.59 E21.21002
G1 X119.477 Y90.1 E22.3149
G1 X126.629 Y90.1 E22.55277
G1 X126.629 Y129.9 E23.87653
G0 F6000 X127.029 Y130.3
;TYPE:WALL-OUTER
G1 F1200 X99.524 Y130.3 E24.79135
G1 X95.669 Y126.445 E24.97267
G1 X94.523 Y125.036 E25.03308
G1 X94.446 Y124.897 E25.03837
G1 X93.677 Y123.443 E25.09307
G1 X93.625 Y123.289 E25.09848
G1 X93.153 Y121.712 E25.15323
G1 X93.13 Y121.555 E25.15851
G1 X92.973 Y119.918 E25.21321
G1 X92.98 Y119.755 E25.21863
G1 X93.143 Y118.119 E25.27331
G1 X93.177 Y117.975 E25.27824
G1 X93.657 Y116.391 E25.33329
G1 X93.677 Y116.338 E25.33517
G1 X94.532 Y114.737 E25.39554
G1 X95.697 Y113.315 E25.45668
G1 X119.311 Y89.7 E26.56743
G1 X127.029 Y89.7 E26.82413
G1 X127.029 Y130.3 E28.1745
G0 F6000 X126.759 Y130.03
G0 X126.519 Y129.51
G0 X126.239 Y129.51
;TYPE:SKIN
G1 F1200 X99.85 Y129.51 E29.0522
G1 X96.256 Y125.916 E29.22125
G1 X95.186 Y124.6 E29.27766
G1 X95.137 Y124.512 E29.28101
G1 X94.405 Y123.128 E29.33308
G1 X94.374 Y123.036 E29.33631
G1 X93.927 Y121.542 E29.38818
G1 X93.912 Y121.44 E29.39161
G1 X93.765 Y119.905 E29.4429
G1 X93.77 Y119.788 E29.44679
G1 X93.925 Y118.244 E29.4984
G1 X93.937 Y118.191 E29.50021
G1 X94.402 Y116.656 E29.55356
G1 X95.194 Y115.175 E29.60942
G1 X96.285 Y113.843 E29.66668
G1 X119.637 Y90.49 E30.76511
G1 X126.239 Y90.49 E30.9847
G1 X126.239 Y129.51 E32.28251
G1 F1500 E25.78251
G0 F6000 X126.519 Y129.51
G0 X126.447 Y129.718
G0 X99.761 Y129.726
G0 X95.955 Y125.989
G0 X96.296 Y125.712
G1 F1500 E32.28251
G1 F1200 X99.933 Y129.348 E32.45356
G0 F6000 X100.498 Y129.348
G1 F1200 X94.931 Y123.781 E32.71541
G0 F6000 X94.542 Y123.985
G0 X94.03 Y122.861
G0 X94.451 Y122.736
G1 F1200 X101.064 Y129.348 E33.02644
G0 F6000 X101.63 Y129.348
G1 F1200 X94.21 Y121.929 E33.37543
G0 F6000 X94.049 Y121.202
G1 F1200 X102.196 Y129.348 E33.75862
G0 F6000 X102.761 Y129.348
G1 F1200 X93.99 Y120.577 E34.17118
G0 F6000 X93.929 Y119.951
G1 F1200 X103.327 Y129.348 E34.61321
G0 F6000 X103.893 Y129.348
G1 F1200 X93.966 Y119.422 E35.08012
G0 F6000 X94.018 Y118.908
G1 F1200 X104.458 Y129.348 E35.57119
G0 F6000 X105.024 Y129.348
G1 F1200 X94.069 Y118.394 E36.08645
G0 F6000 X94.179 Y117.938
G1 F1200 X105.59 Y129.348 E36.62317
G0 F6000 X106.155 Y129.348
G1 F1200 X94.311 Y117.504 E37.18027
G0 F6000 X94.442 Y117.07
G1 F1200 X106.721 Y129.348 E37.75782
G0 F6000 X107.287 Y129.348
G1 F1200 X94.586 Y116.647 E38.35523
G0 F6000 X94.783 Y116.279
G1 F1200 X107.852 Y129.348 E38.96996
G0 F6000 X108.418 Y129.348
G1 F1200 X94.98 Y115.911 E39.60202
G0 F6000 X95.177 Y115.542
G1 F1200 X108.984 Y129.348 E40.25143
G0 F6000 X109.549 Y129.348
G1 F1200 X95.389 Y115.188 E40.91748
G0 F6000 X95.644 Y114.877
G1 F1200 X110.115 Y129.348 E41.59815
G0 F6000 X110.681 Y129.348
G1 F1200 X95.899 Y114.566 E42.29345
G0 F6000 X96.153 Y114.255
G1 F1200 X111.246 Y129.348 E43.00338
G0 F6000 X111.812 Y129.348
G1 F1200 X96.408 Y113.944 E43.72793
G0 F6000 X96.69 Y113.661
G1 F1200 X112.378 Y129.348 E44.46583
G0 F6000 X112.944 Y129.348
G1 F1200 X96.973 Y113.378 E45.21703
G0 F6000 X97.256 Y113.095
G1 F1200 X113.509 Y129.348 E45.98152
G0 F6000 X114.075 Y129.348
G1 F1200 X97.539 Y112.812 E46.75932
G0 F6000 X97.821 Y112.529
