;FLAVOR:Marlin
;TIME:11323
;Filament used: 5.9704m
;Layer height: 0.2
;MINX:42.023
;MINY:78.5
;MINZ:0.2
;MAXX:177.982
;MAXY:141.5
;MAXZ:36
;Generated with Cura_SteamEngine 4.7.1
M140 S60
M105
M190 S60
M104 S200
M105
M109 S200
M82 ;absolute extrusion mode
; Ender 3 Custom Start G-code
G92 E0 ; Reset Extruder
G28 ; Home all axes
G1 Z2.0 F3000 ; Move Z Axis up little to prevent scratching of Heat Bed
G1 X0.1 Y20 Z0.3 F5000.0 ; Move to start position
G1 X0.1 Y200.0 Z0.3 F1500.0 E15 ; Draw the first line
G1 X0.4 Y200.0 Z0.3 F5000.0 ; Move to side a little
G1 X0.4 Y20 Z0.3 F1500.0 E30 ; Draw the second line
G92 E0 ; Reset Extruder
G1 Z2.0 F3000 ; Move Z Axis up little to prevent scratching of Heat Bed
G1 X5 Y20 Z0.3 F5000.0 ; Move over to prevent blob squish
G92 E0
G92 E0
G1 F1500 E-6.5
;LAYER_COUNT:180
;LAYER:0
M107
G0 F6000 X47.326 Y80.102 Z0.2
;TYPE:SKIRT
G1 F1500 E0
G1 F1200 X48.148 Y79.651 E0.03118
G1 X49.006 Y79.272 E0.06238
G1 X49.892 Y78.967 E0.09355
G1 X50.802 Y78.739 E0.12475
G1 X51.728 Y78.589 E0.15595
G1 X52.865 Y78.513 E0.19385
G1 X53.56 Y78.503 E0.21697
G1 X108 Y78.5 E2.02765
G1 X166.293 Y78.5 E3.96648
G1 X166.452 Y78.501 E3.97177
G1 X167.143 Y78.511 E3.99476
G1 X168.08 Y78.565 E4.02597
G1 X169.008 Y78.698 E4.05716
G1 X169.922 Y78.909 E4.08835
G1 X170.814 Y79.198 E4.11954
G1 X171.678 Y79.562 E4.15072
G1 X172.509 Y79.998 E4.18194
G1 X173.299 Y80.503 E4.21312
G1 X174.043 Y81.074 E4.24431
G1 X174.736 Y81.706 E4.27551
G1 X175.373 Y82.395 E4.30672
G1 X175.948 Y83.135 E4.33789
G1 X176.459 Y83.922 E4.3691
G1 X176.9 Y84.749 E4.40027
G1 X177.27 Y85.611 E4.43147
G1 X177.565 Y86.502 E4.46269
G1 X177.782 Y87.414 E4.49387
G1 X177.922 Y88.341 E4.52505
G1 X177.982 Y89.277 E4.55624
G1 X177.961 Y90.215 E4.58745
G1 X177.861 Y91.147 E4.61863
G1 X177.682 Y92.068 E4.64983
G1 X177.426 Y92.97 E4.68102
G1 X177.093 Y93.847 E4.71222
G1 X176.595 Y94.861 E4.74979
G1 X176.149 Y95.662 E4.78029
G1 X175.982 Y95.952 E4.79142
G1 X174.759 Y98.208 E4.87677
G1 X173.619 Y100.458 E4.96066
G1 X172.549 Y102.731 E5.04422
G1 X171.546 Y105.026 E5.12752
G1 X170.591 Y107.391 E5.21235
G1 X169.728 Y109.713 E5.29474
G1 X168.915 Y112.107 E5.37883
G1 X168.174 Y114.511 E5.4625
G1 X167.495 Y116.961 E5.54706
G1 X166.908 Y119.328 E5.62817
G1 X166.355 Y121.87 E5.7147
G1 X165.899 Y124.298 E5.79687
G1 X165.5 Y126.803 E5.88123
G1 X165.168 Y129.366 E5.96719
G1 X165.017 Y130.773 E6.01426
G1 X164.936 Y131.584 E6.04137
G1 X164.803 Y132.513 E6.07258
G1 X164.591 Y133.426 E6.10375
G1 X164.303 Y134.319 E6.13496
G1 X163.939 Y135.183 E6.16614
G1 X163.503 Y136.014 E6.19736
G1 X162.998 Y136.804 E6.22854
G1 X162.428 Y137.548 E6.25972
G1 X161.796 Y138.241 E6.29091
G1 X161.107 Y138.878 E6.32212
G1 X160.367 Y139.454 E6.35331
G1 X159.58 Y139.965 E6.38452
G1 X158.753 Y140.406 E6.41569
G1 X157.891 Y140.776 E6.44689
G1 X157.001 Y141.071 E6.47808
G1 X156.088 Y141.289 E6.5093
G1 X155.161 Y141.428 E6.54047
G1 X154.299 Y141.487 E6.56921
G1 X153.979 Y141.496 E6.57986
G1 X153.67 Y141.5 E6.59014
G1 X66.707 Y141.5 E9.48254
G1 X66.549 Y141.499 E9.48779
G1 X65.851 Y141.489 E9.51101
G1 X64.915 Y141.435 E9.54219
G1 X63.987 Y141.303 E9.57337
G1 X63.073 Y141.091 E9.60458
G1 X62.181 Y140.802 E9.63576
G1 X61.316 Y140.439 E9.66696
G1 X60.486 Y140.003 E9.69815
G1 X59.695 Y139.498 E9.72936
G1 X58.951 Y138.927 E9.76055
G1 X58.258 Y138.295 E9.79175
G1 X57.621 Y137.607 E9.82293
G1 X57.046 Y136.866 E9.85413
G1 X56.535 Y136.08 E9.88531
G1 X56.093 Y135.252 E9.91653
G1 X55.724 Y134.39 E9.94771
G1 X55.429 Y133.5 E9.9789
G1 X55.211 Y132.588 E10.01009
G1 X55.079 Y131.733 E10.03886
G1 X55.015 Y131.159 E10.05807
G1 X54.837 Y129.389 E10.11724
G1 X54.51 Y126.854 E10.20225
G1 X54.123 Y124.401 E10.28485
G1 X53.66 Y121.928 E10.36853
G1 X53.119 Y119.425 E10.4537
G1 X52.528 Y117.034 E10.53562
G1 X51.855 Y114.596 E10.61974
G1 X51.11 Y112.171 E10.70412
G1 X50.308 Y109.802 E10.7873
G1 X49.443 Y107.467 E10.87012
G1 X48.493 Y105.106 E10.95477
G1 X47.484 Y102.793 E11.0387
G1 X46.409 Y100.507 E11.12272
G1 X45.287 Y98.284 E11.20554
G1 X44.079 Y96.053 E11.28993
G1 X43.942 Y95.813 E11.29912
G1 X43.416 Y94.87 E11.33503
G1 X42.995 Y94.033 E11.36619
G1 X42.646 Y93.162 E11.3974
G1 X42.373 Y92.265 E11.42859
G1 X42.177 Y91.348 E11.45978
G1 X42.06 Y90.417 E11.49098
G1 X42.023 Y89.48 E11.52217
G1 X42.066 Y88.543 E11.55337
G1 X42.188 Y87.613 E11.58457
G1 X42.389 Y86.697 E11.61576
G1 X42.668 Y85.802 E11.64694
G1 X43.021 Y84.933 E11.67814
G1 X43.448 Y84.098 E11.70933
G1 X43.944 Y83.302 E11.74052
G1 X44.506 Y82.551 E11.77172
G1 X45.13 Y81.851 E11.80291
G1 X45.811 Y81.206 E11.83411
G1 X46.545 Y80.622 E11.86531
G1 X47.326 Y80.102 E11.89651
G0 F6000 X47.795 Y80.291
G1 F1200 X48.615 Y79.872 E11.92714
G1 X49.468 Y79.526 E11.95776
G1 X50.348 Y79.255 E11.98838
G1 X51.248 Y79.062 E12.019
G1 X52.162 Y78.947 E12.04964
G1 X52.87 Y78.913 E12.07321
G1 X53.718 Y78.902 E12.10142
G1 X108 Y78.9 E13.90684
G1 X166.293 Y78.9 E15.84568
G1 X167.137 Y78.911 E15.87375
G1 X168.056 Y78.964 E15.90437
G1 X168.968 Y79.097 E15.93502
G1 X169.864 Y79.309 E15.96565
G1 X170.738 Y79.597 E15.99625
G1 X171.584 Y79.96 E16.02687
G1 X172.395 Y80.395 E16.05748
G1 X173.166 Y80.899 E16.08812
G1 X173.89 Y81.468 E16.11874
G1 X174.561 Y82.098 E16.14936
G1 X175.176 Y82.783 E16.17998
G1 X175.729 Y83.519 E16.2106
G1 X176.216 Y84.301 E16.24124
G1 X176.633 Y85.121 E16.27183
G1 X176.977 Y85.975 E16.30246
G1 X177.246 Y86.856 E16.33309
G1 X177.438 Y87.756 E16.3637
G1 X177.551 Y88.67 E16.39433
G1 X177.584 Y89.59 E16.42495
G1 X177.537 Y90.509 E16.45556
G1 X177.41 Y91.421 E16.48618
G1 X177.205 Y92.319 E16.51682
G1 X176.923 Y93.195 E16.54743
G1 X176.566 Y94.044 E16.57806
G1 X176.245 Y94.667 E16.60137
G1 X175.799 Y95.468 E16.63186
G1 X175.61 Y95.797 E16.64448
G1 X174.408 Y98.015 E16.72839
G1 X173.265 Y100.272 E16.81253
G1 X172.192 Y102.55 E16.89629
G1 X171.173 Y104.883 E16.98096
G1 X170.216 Y107.25 E17.06588
G1 X169.353 Y109.574 E17.14833
G1 X168.53 Y111.998 E17.23348
G1 X167.782 Y114.424 E17.31791
G1 X167.116 Y116.829 E17.40091
G1 X166.516 Y119.249 E17.48384
G1 X165.965 Y121.783 E17.57009
G1 X165.504 Y124.232 E17.65298
G1 X165.102 Y126.76 E17.73811
G1 X164.771 Y129.315 E17.8238
G1 X164.619 Y130.733 E17.87124
G1 X164.538 Y131.544 E17.89834
G1 X164.406 Y132.456 E17.92899
G1 X164.197 Y133.352 E17.95959
G1 X163.91 Y134.227 E17.99022
G1 X163.548 Y135.074 E18.02086
G1 X163.115 Y135.886 E18.05147
G1 X162.612 Y136.657 E18.08208
G1 X162.044 Y137.382 E18.11272
G1 X161.416 Y138.055 E18.14333
G1 X160.732 Y138.671 E18.17395
G1 X159.997 Y139.225 E18.20456
G1 X159.216 Y139.713 E18.23519
G1 X158.396 Y140.132 E18.26582
G1 X157.543 Y140.478 E18.29644
G1 X156.663 Y140.748 E18.32705
G1 X155.763 Y140.942 E18.35767
G1 X154.849 Y141.056 E18.38831
G1 X154.288 Y141.087 E18.407
G1 X153.968 Y141.096 E18.41764
G1 X153.67 Y141.1 E18.42756
G1 X66.707 Y141.1 E21.31996
G1 X65.857 Y141.089 E21.34823
G1 X64.938 Y141.036 E21.37885
G1 X64.027 Y140.903 E21.40947
G1 X63.131 Y140.692 E21.44008
G1 X62.257 Y140.404 E21.47069
G1 X61.41 Y140.041 E21.50134
G1 X60.599 Y139.606 E21.53195
G1 X59.829 Y139.102 E21.56256
G1 X59.105 Y138.533 E21.59319
G1 X58.433 Y137.903 E21.62382
G1 X57.818 Y137.218 E21.65444
G1 X57.265 Y136.482 E21.68506
G1 X56.778 Y135.701 E21.71567
G1 X56.361 Y134.88 E21.7463
G1 X56.016 Y134.026 E21.77693
G1 X55.747 Y133.146 E21.80754
G1 X55.555 Y132.245 E21.83818
G1 X55.477 Y131.687 E21.85692
G1 X55.413 Y131.119 E21.87593
G1 X55.234 Y129.335 E21.93557
G1 X54.908 Y126.813 E22.02015
G1 X54.518 Y124.337 E22.10351
G1 X54.049 Y121.834 E22.18821
G1 X53.512 Y119.35 E22.27274
G1 X52.908 Y116.903 E22.35657
G1 X52.24 Y114.486 E22.43997
G1 X51.495 Y112.064 E22.52425
G1 X50.686 Y109.671 E22.60827
G1 X49.81 Y107.307 E22.69212
G1 X48.859 Y104.945 E22.77681
G1 X47.855 Y102.641 E22.8604
G1 X46.77 Y100.335 E22.94516
G1 X45.631 Y98.078 E23.02925
G1 X44.444 Y95.885 E23.11219
G1 X44.292 Y95.619 E23.12238
G1 X43.766 Y94.676 E23.15829
G1 X43.353 Y93.853 E23.18892
G1 X43.012 Y92.997 E23.21957
G1 X42.748 Y92.116 E23.25015
G1 X42.561 Y91.214 E23.28079
G1 X42.452 Y90.3 E23.31141
G1 X42.424 Y89.38 E23.34202
G1 X42.475 Y88.461 E23.37264
G1 X42.606 Y87.549 E23.40328
G1 X42.816 Y86.653 E23.43389
G1 X43.103 Y85.778 E23.46452
G1 X43.464 Y84.931 E23.49514
G1 X43.898 Y84.119 E23.52576
G1 X44.4 Y83.347 E23.55639
G1 X44.967 Y82.622 E23.587
G1 X45.596 Y81.949 E23.61764
G1 X46.28 Y81.333 E23.64826
G1 X47.015 Y80.779 E23.67887
G1 X47.795 Y80.291 E23.70947
G0 F6000 X47.485 Y80.946
G1 F1200 X48.264 Y80.49 E23.73949
G1 X49.081 Y80.105 E23.76953
G1 X49.929 Y79.793 E23.79959
G1 X50.8 Y79.557 E23.8296
G1 X51.69 Y79.4 E23.85966
G1 X52.876 Y79.313 E23.89921
G1 X53.718 Y79.302 E23.92722
G1 X108 Y79.3 E25.73265
G1 X166.293 Y79.3 E27.67148
G1 X167.132 Y79.311 E27.69939
G1 X168.033 Y79.364 E27.72941
G1 X168.926 Y79.497 E27.75943
G1 X169.805 Y79.708 E27.7895
G1 X170.661 Y79.996 E27.81954
G1 X171.488 Y80.358 E27.84957
G1 X172.28 Y80.792 E27.8796
G1 X173.03 Y81.295 E27.90964
G1 X173.733 Y81.862 E27.93968
G1 X174.383 Y82.489 E27.96972
G1 X174.975 Y83.171 E27.99975
G1 X175.504 Y83.903 E28.02979
G1 X175.967 Y84.678 E28.05982
G1 X176.359 Y85.492 E28.08987
G1 X176.678 Y86.337 E28.11991
G1 X176.921 Y87.207 E28.14995
G1 X177.085 Y88.094 E28.17995
G1 X177.171 Y88.994 E28.21002
G1 X177.177 Y89.897 E28.24006
G1 X177.103 Y90.797 E28.27009
G1 X176.949 Y91.687 E28.30014
G1 X176.717 Y92.56 E28.33018
G1 X176.41 Y93.409 E28.36021
G1 X175.896 Y94.472 E28.39948
G1 X175.45 Y95.273 E28.42997
G1 X175.255 Y95.613 E28.44301
G1 X174.049 Y97.837 E28.52715
G1 X172.904 Y100.1 E28.61151
G1 X171.822 Y102.397 E28.69596
G1 X170.811 Y104.708 E28.77986
G1 X169.846 Y107.098 E28.86558
G1 X168.971 Y109.454 E28.94917
G1 X168.156 Y111.856 E29.03354
G1 X167.401 Y114.304 E29.11874
G1 X166.728 Y116.731 E29.20251
G1 X166.125 Y119.165 E29.28591
G1 X165.574 Y121.696 E29.37207
G1 X165.109 Y124.167 E29.4557
G1 X164.705 Y126.712 E29.5414
G1 X164.378 Y129.226 E29.62572
G1 X164.221 Y130.694 E29.67483
G1 X164.14 Y131.505 E29.70193
G1 X164.01 Y132.398 E29.73195
G1 X163.802 Y133.277 E29.76199
G1 X163.517 Y134.134 E29.79203
G1 X163.158 Y134.963 E29.82208
G1 X162.726 Y135.756 E29.85211
G1 X162.226 Y136.508 E29.88215
G1 X161.662 Y137.213 E29.91218
G1 X161.037 Y137.865 E29.94222
G1 X160.357 Y138.46 E29.97227
G1 X159.627 Y138.992 E30.00231
G1 X158.853 Y139.457 E30.03235
G1 X158.041 Y139.852 E30.06238
G1 X157.197 Y140.174 E30.09242
G1 X156.328 Y140.419 E30.12245
G1 X155.441 Y140.587 E30.15248
G1 X154.277 Y140.687 E30.19134
G1 X153.957 Y140.696 E30.20198
G1 X153.67 Y140.7 E30.21153
G1 X66.707 Y140.7 E33.10393
G1 X65.863 Y140.689 E33.13201
G1 X64.961 Y140.636 E33.16206
G1 X64.068 Y140.504 E33.19208
G1 X63.19 Y140.293 E33.22212
G1 X62.334 Y140.005 E33.25216
G1 X61.507 Y139.643 E33.28218
G1 X60.715 Y139.208 E33.31223
G1 X59.964 Y138.706 E33.34228
G1 X59.261 Y138.139 E33.37232
G1 X58.611 Y137.512 E33.40236
G1 X58.019 Y136.83 E33.43239
G1 X57.489 Y136.099 E33.46243
G1 X57.027 Y135.323 E33.49246
G1 X56.634 Y134.51 E33.5225
G1 X56.316 Y133.665 E33.55253
G1 X56.073 Y132.795 E33.58257
G1 X55.874 Y131.642 E33.62149
G1 X55.811 Y131.079 E33.64033
G1 X55.63 Y129.28 E33.70047
G1 X55.306 Y126.765 E33.78481
G1 X54.912 Y124.272 E33.86875
G1 X54.441 Y121.755 E33.95392
G1 X53.903 Y119.267 E34.03859
G1 X53.298 Y116.815 E34.12258
G1 X52.619 Y114.358 E34.20737
G1 X51.874 Y111.933 E34.29174
G1 X51.065 Y109.541 E34.37573
G1 X50.176 Y107.143 E34.46079
G1 X49.234 Y104.802 E34.54472
G1 X48.219 Y102.476 E34.62913
G1 X47.139 Y100.177 E34.71361
G1 X45.982 Y97.887 E34.79895
G1 X44.784 Y95.673 E34.88267
G1 X44.641 Y95.424 E34.89222
G1 X44.115 Y94.481 E34.92814
G1 X43.71 Y93.673 E34.9582
G1 X43.379 Y92.833 E34.98823
G1 X43.123 Y91.967 E35.01826
G1 X42.945 Y91.082 E35.04829
G1 X42.845 Y90.184 E35.07834
G1 X42.826 Y89.281 E35.10838
G1 X42.886 Y88.38 E35.13841
G1 X43.026 Y87.488 E35.16845
G1 X43.244 Y86.612 E35.19847
G1 X43.539 Y85.758 E35.22852
G1 X43.908 Y84.934 E35.25855
G1 X44.349 Y84.146 E35.28858
G1 X44.857 Y83.399 E35.31863
G1 X45.43 Y82.701 E35.34867
G1 X46.062 Y82.056 E35.3787
G1 X46.749 Y81.47 E35.40873
G1 X47.485 Y80.946 E35.43878
G1 F1500 E28.93878
;MESH:DepositoDeBateriasInferiorPartido.stl
G0 F6000 X57.665 Y88.837
G0 X57.666 Y89.922
G0 X61.613 Y91.769
G0 X64.929 Y95.613
G0 X66.567 Y100.116
G0 X66.782 Y129.718
G0 X153.4 Y129.9
;TYPE:WALL-INNER
G1 F1500 E35.43878
G1 F1200 X66.6 Y129.9 E38.32576
G1 X66.6 Y102.474 E39.23796
G1 X66.398 Y100.146 E39.31568
G1 X65.785 Y97.855 E39.39456
G1 X64.78 Y95.699 E39.47367
G1 X63.421 Y93.757 E39.55251
G1 X61.743 Y92.079 E39.63144
G1 X59.801 Y90.72 E39.71027
G1 X59.291 Y90.482 E39.72899
G1 X58.475 Y90.102 E39.75893
G1 X59.375 Y90.102 E39.77426
G1 X108 Y90.1 E41.39153
G1 X160.629 Y90.1 E43.14198
G1 X160.63 Y90.1 E43.14201
G1 X161.529 Y90.1 E43.17191
G1 X160.714 Y90.48 E43.18722
G1 X160.199 Y90.72 E43.20612
G1 X158.257 Y92.079 E43.28496
G1 X156.579 Y93.757 E43.36389
G1 X155.22 Y95.699 E43.44272
G1 X154.218 Y97.848 E43.52158
G1 X153.626 Y100.061 E43.59778
G1 X153.604 Y100.134 E43.60031
G1 X153.4 Y102.474 E43.67844
G1 X153.4 Y129.9 E44.59063
G0 F6000 X153.8 Y130.3
;TYPE:WALL-OUTER
G1 F1200 X66.2 Y130.3 E47.50422
G1 X66.2 Y102.491 E48.42915
G1 X66.003 Y100.215 E48.50513
G1 X65.408 Y97.992 E48.58167
G1 X64.432 Y95.9 E48.65845
G1 X63.113 Y94.015 E48.73497
G1 X61.485 Y92.387 E48.81155
G1 X59.6 Y91.068 E48.88807
G1 X57.515 Y90.095 E48.96459
G1 X56.042 Y89.702 E49.0153
G1 X108 Y89.7 E50.74343
G1 X163.959 Y89.7 E52.60463
G1 X162.492 Y90.092 E52.65514
G1 X160.4 Y91.068 E52.73192
G1 X158.515 Y92.387 E52.80844
G1 X156.887 Y94.015 E52.88502
G1 X155.568 Y95.9 E52.96154
G1 X154.595 Y97.985 E53.03806
G1 X154.009 Y100.177 E53.11353
G1 X153.999 Y100.21 E53.11468
G1 X153.8 Y102.491 E53.19083
G1 X153.8 Y130.3 E54.11576
G0 F6000 X153.53 Y130.03
G0 X153.29 Y129.51
G0 X153.01 Y129.51
;TYPE:SKIN
G1 F1200 X66.99 Y129.51 E56.9768
G1 X66.99 Y102.457 E57.87658
G1 X66.784 Y100.078 E57.95601
G1 X66.153 Y97.721 E58.03716
G1 X65.119 Y95.504 E58.11852
G1 X63.721 Y93.505 E58.19966
G1 X61.995 Y91.779 E58.28084
G1 X60.155 Y90.492 E58.35553
G1 X108 Y90.49 E59.94686
G1 X159.848 Y90.49 E61.67133
G1 X158.005 Y91.779 E61.74613
G1 X156.279 Y93.505 E61.82732
G1 X154.881 Y95.504 E61.90845
G1 X153.85 Y97.714 E61.98956
G1 X153.253 Y99.948 E62.06647
G1 X153.219 Y100.06 E62.07036
G1 X153.01 Y102.457 E62.15039
G1 X153.01 Y129.51 E63.05018
G1 F1500 E56.55018
G0 F6000 X153.29 Y129.51
G0 X153.561 Y102.481
G0 X153.78 Y100.109
G0 X154.369 Y97.903
G0 X155.36 Y95.78
G0 X156.568 Y94.053
G0 X159.449 Y91.11
G0 X159.196 Y90.748
G1 F1500 E63.05018
G1 F1200 X159.098 Y90.65 E63.05479
G0 F6000 X158.864 Y90.982
G1 F1200 X158.532 Y90.65 E63.0704
G0 F6000 X158.531 Y91.214
G1 F1200 X157.966 Y90.65 E63.09696
G0 F6000 X157.401 Y90.65
G1 F1200 X158.198 Y91.447 E63.13444
G0 F6000 X157.87 Y91.685
G1 F1200 X156.835 Y90.65 E63.18313
G0 F6000 X156.269 Y90.65
G1 F1200 X157.587 Y91.968 E63.24512
G0 F6000 X157.305 Y92.251
G1 F1200 X155.704 Y90.65 E63.32043
G0 F6000 X155.138 Y90.65
G1 F1200 X157.022 Y92.534 E63.40905
G0 F6000 X156.739 Y92.816
G1 F1200 X154.572 Y90.65 E63.51095
G0 F6000 X154.007 Y90.65
G1 F1200 X156.456 Y93.099 E63.62615
G0 F6000 X156.173 Y93.382
G1 F1200 X153.441 Y90.65 E63.75465
G0 F6000 X152.875 Y90.65
G1 F1200 X155.938 Y93.712 E63.8987
G0 F6000 X155.705 Y94.045
G1 F1200 X152.31 Y90.65 E64.05839
G0 F6000 X151.744 Y90.65
G1 F1200 X155.472 Y94.378 E64.23375
G0 F6000 X155.239 Y94.711
G1 F1200 X151.178 Y90.65 E64.42476
G0 F6000 X150.613 Y90.65
G1 F1200 X155.006 Y95.044 E64.63142
G0 F6000 X154.774 Y95.377
G1 F1200 X150.047 Y90.65 E64.85376
G0 F6000 X149.481 Y90.65
G1 F1200 X154.586 Y95.754 E65.09386
G0 F6000 X154.405 Y96.14
G1 F1200 X148.915 Y90.65 E65.3521
G0 F6000 X148.35 Y90.65
G1 F1200 X154.226 Y96.526 E65.62848
G0 F6000 X154.046 Y96.911
G1 F1200 X147.784 Y90.65 E65.92301
G0 F6000 X147.218 Y90.65
G1 F1200 X153.866 Y97.297 E66.23568
G0 F6000 X153.69 Y97.687
G1 F1200 X146.653 Y90.65 E66.56668
G0 F6000 X146.087 Y90.65
G1 F1200 X153.571 Y98.134 E66.91871
G0 F6000 X153.452 Y98.58
G1 F1200 X145.521 Y90.65 E67.29173
G0 F6000 X144.956 Y90.65
