;FLAVOR:Marlin
;TIME:25393
;Filament used: 15.3588m
;Layer height: 0.2
;MINX:21.556
;MINY:42
;MINZ:0.2
;MAXX:198.438
;MAXY:178
;MAXZ:41
;Generated with Cura_SteamEngine 4.7.1
M140 S60
M105
M190 S60
M104 S200
M105
M109 S200
M82 ;absolute extrusion mode
; Ender 3 Custom Start G-code
G92 E0 ; Reset Extruder
G28 ; Home all axes
G1 Z2.0 F3000 ; Move Z Axis up little to prevent scratching of Heat Bed
G1 X0.1 Y20 Z0.3 F5000.0 ; Move to start position
G1 X0.1 Y200.0 Z0.3 F1500.0 E15 ; Draw the first line
G1 X0.4 Y200.0 Z0.3 F5000.0 ; Move to side a little
G1 X0.4 Y20 Z0.3 F1500.0 E30 ; Draw the second line
G92 E0 ; Reset Extruder
G1 Z2.0 F3000 ; Move Z Axis up little to prevent scratching of Heat Bed
G1 X5 Y20 Z0.3 F5000.0 ; Move over to prevent blob squish
G92 E0
G92 E0
G1 F1500 E-6.5
;LAYER_COUNT:205
;LAYER:0
M107
G0 F6000 X44.325 Y45.703 Z0.2
;TYPE:SKIRT
G1 F1500 E0
G1 F1200 X44.944 Y45.103 E0.02867
G1 X45.645 Y44.48 E0.05986
G1 X46.397 Y43.92 E0.09105
G1 X47.194 Y43.425 E0.12225
G1 X48.03 Y43 E0.15345
G1 X48.899 Y42.648 E0.18463
G1 X49.795 Y42.371 E0.21582
G1 X50.712 Y42.172 E0.24703
G1 X51.642 Y42.051 E0.27823
G1 X52.22 Y42.016 E0.29749
G1 X52.368 Y42.011 E0.30241
G1 X52.605 Y42.006 E0.3103
G1 X53.148 Y42 E0.32836
G1 X166.707 Y42 E4.10534
G1 X166.864 Y42.001 E4.11057
G1 X167.566 Y42.011 E4.13392
G1 X168.502 Y42.064 E4.1651
G1 X169.43 Y42.197 E4.19628
G1 X170.344 Y42.409 E4.22749
G1 X171.237 Y42.697 E4.25869
G1 X172.101 Y43.061 E4.28988
G1 X172.932 Y43.497 E4.32109
G1 X173.722 Y44.002 E4.35227
G1 X174.466 Y44.572 E4.38345
G1 X174.89 Y44.945 E4.40223
G1 X175.042 Y45.086 E4.40913
G1 X175.243 Y45.277 E4.41835
G1 X175.503 Y45.532 E4.43046
G1 X185.296 Y55.324 E4.89107
G1 X186.382 Y56.441 E4.94289
G1 X187.256 Y57.365 E4.98519
G1 X189.031 Y59.142 E5.06873
G1 X189.388 Y59.482 E5.08512
G1 X190.06 Y60.14 E5.1164
G1 X190.324 Y60.408 E5.12892
G1 X190.477 Y60.569 E5.1363
G1 X192.033 Y62.239 E5.21222
G1 X192.365 Y62.583 E5.22812
G1 X192.517 Y62.743 E5.23546
G1 X192.727 Y62.969 E5.24572
G1 X193.16 Y63.464 E5.2676
G1 X193.202 Y63.515 E5.2698
G1 X193.654 Y64.103 E5.29446
G1 X194.651 Y65.495 E5.35141
G1 X195.038 Y66.049 E5.37389
G1 X195.548 Y66.852 E5.40553
G1 X195.978 Y67.599 E5.43419
G1 X196.82 Y69.026 E5.4893
G1 X197.261 Y69.853 E5.52048
G1 X197.631 Y70.715 E5.55168
G1 X197.985 Y71.823 E5.59036
G1 X198.074 Y72.162 E5.60202
G1 X198.274 Y73.078 E5.6332
G1 X198.394 Y74.008 E5.66439
G1 X198.435 Y74.854 E5.69256
G1 X198.438 Y75.282 E5.7068
G1 X198.437 Y139.574 E7.84516
G1 X198.437 Y144.711 E8.01602
G1 X198.426 Y145.426 E8.0398
G1 X198.371 Y146.363 E8.07102
G1 X198.237 Y147.291 E8.10221
G1 X198.025 Y148.204 E8.13338
G1 X197.735 Y149.096 E8.16458
G1 X197.371 Y149.96 E8.19576
G1 X197.109 Y150.479 E8.2151
G1 X196.637 Y151.354 E8.24816
G1 X196.083 Y152.415 E8.28797
G1 X195.673 Y153.174 E8.31667
G1 X195.191 Y153.978 E8.34784
G1 X194.496 Y154.922 E8.38683
G1 X194.306 Y155.15 E8.3967
G1 X192.555 Y157.195 E8.48625
G1 X192.035 Y157.82 E8.51329
G1 X191.185 Y158.732 E8.55475
G1 X190.373 Y159.509 E8.59213
G1 X190.106 Y159.759 E8.6043
G1 X188.312 Y161.524 E8.688
G1 X186.407 Y163.512 E8.77958
G1 X185.914 Y164.042 E8.80366
G1 X185.714 Y164.251 E8.81328
G1 X185.445 Y164.525 E8.82605
G1 X175.681 Y174.289 E9.28532
G1 X175.066 Y174.887 E9.31385
G1 X174.366 Y175.511 E9.34504
G1 X173.615 Y176.072 E9.37622
G1 X172.818 Y176.568 E9.40744
G1 X171.983 Y176.994 E9.43862
G1 X171.114 Y177.347 E9.46981
G1 X170.218 Y177.625 E9.50102
G1 X169.302 Y177.826 E9.53221
G1 X168.372 Y177.948 E9.56341
G1 X167.78 Y177.984 E9.58313
G1 X167.632 Y177.989 E9.58806
G1 X167.395 Y177.994 E9.59594
G1 X166.852 Y178 E9.614
G1 X53.293 Y178 E13.39099
G1 X53.136 Y177.999 E13.39621
G1 X52.434 Y177.989 E13.41956
G1 X51.498 Y177.936 E13.45074
G1 X50.57 Y177.803 E13.48193
G1 X49.656 Y177.591 E13.51313
G1 X48.763 Y177.303 E13.54434
G1 X47.899 Y176.939 E13.57552
G1 X47.068 Y176.503 E13.60674
G1 X46.278 Y175.998 E13.63792
G1 X45.534 Y175.428 E13.66909
G1 X45.11 Y175.055 E13.68788
G1 X44.958 Y174.914 E13.69477
G1 X44.742 Y174.707 E13.70472
G1 X44.466 Y174.437 E13.71756
G1 X34.704 Y164.676 E14.17672
G1 X33.434 Y163.37 E14.2373
G1 X32.439 Y162.322 E14.28537
G1 X31.769 Y161.636 E14.31726
G1 X29.777 Y159.652 E14.41077
G1 X29.388 Y159.276 E14.42877
G1 X29.166 Y159.055 E14.43918
G1 X28.214 Y158.081 E14.48448
G1 X27.453 Y157.309 E14.52054
G1 X26.878 Y156.678 E14.54893
G1 X25.958 Y155.587 E14.5964
G1 X25.792 Y155.386 E14.60507
G1 X25.612 Y155.162 E14.61463
G1 X25.057 Y154.407 E14.64579
G1 X24.434 Y153.359 E14.68634
G1 X23.976 Y152.482 E14.71925
G1 X23.565 Y151.726 E14.74787
G1 X23.464 Y151.521 E14.75547
G1 X22.863 Y150.391 E14.79804
G1 X22.458 Y149.545 E14.82924
G1 X22.126 Y148.668 E14.86043
G1 X21.871 Y147.766 E14.8916
G1 X21.693 Y146.845 E14.9228
G1 X21.579 Y145.599 E14.96442
G1 X21.574 Y145.453 E14.96928
G1 X21.569 Y145.202 E14.97763
G1 X21.563 Y144.64 E14.99632
G1 X21.556 Y114.212 E16.00836
G1 X21.563 Y75.301 E17.30254
G1 X21.573 Y74.603 E17.32576
G1 X21.627 Y73.667 E17.35695
G1 X21.759 Y72.739 E17.38812
G1 X21.971 Y71.825 E17.41933
G1 X22.26 Y70.933 E17.45052
G1 X22.623 Y70.068 E17.48172
G1 X23.046 Y69.26 E17.51205
G1 X23.75 Y68.041 E17.55887
G1 X23.799 Y67.947 E17.5624
G1 X24.05 Y67.521 E17.57884
G1 X24.433 Y66.85 E17.60454
G1 X25.097 Y65.823 E17.64521
G1 X26.42 Y64.006 E17.71997
G1 X27.312 Y62.931 E17.76643
G1 X28.067 Y62.131 E17.80302
G1 X28.205 Y61.99 E17.80958
G1 X28.732 Y61.428 E17.8352
G1 X29.581 Y60.513 E17.87672
G1 X30.02 Y60.065 E17.89758
G1 X30.51 Y59.594 E17.92019
G1 X32.316 Y57.807 E18.00469
G1 X34.137 Y55.903 E18.09232
G1 X34.617 Y55.412 E18.11516
G1 X44.325 Y45.703 E18.57181
G0 F6000 X44.608 Y45.986
G1 F1200 X45.222 Y45.391 E18.60025
G1 X45.911 Y44.78 E18.63088
G1 X46.65 Y44.231 E18.6615
G1 X47.434 Y43.749 E18.69211
G1 X48.257 Y43.336 E18.72274
G1 X49.113 Y42.997 E18.75336
G1 X49.995 Y42.733 E18.78398
G1 X50.897 Y42.546 E18.81462
G1 X52.233 Y42.416 E18.85926
G1 X52.381 Y42.411 E18.86419
G1 X52.609 Y42.406 E18.87177
G1 X53.148 Y42.4 E18.8897
G1 X166.707 Y42.4 E22.66669
G1 X167.56 Y42.411 E22.69506
G1 X168.479 Y42.464 E22.72568
G1 X169.39 Y42.597 E22.7563
G1 X170.286 Y42.808 E22.78692
G1 X171.161 Y43.096 E22.81756
G1 X172.007 Y43.459 E22.84818
G1 X172.818 Y43.894 E22.87878
G1 X173.589 Y44.398 E22.90942
G1 X174.618 Y45.239 E22.95362
G1 X174.77 Y45.38 E22.96052
G1 X174.963 Y45.564 E22.96939
G1 X175.22 Y45.815 E22.98134
G1 X185.013 Y55.607 E23.44194
G1 X186.095 Y56.72 E23.49357
G1 X186.196 Y56.825 E23.49842
G1 X186.965 Y57.639 E23.53566
G1 X188.756 Y59.431 E23.61993
G1 X189.108 Y59.768 E23.63614
G1 X189.78 Y60.426 E23.66742
G1 X190.034 Y60.684 E23.67946
G1 X190.184 Y60.842 E23.68671
G1 X191.461 Y62.212 E23.749
G1 X191.734 Y62.505 E23.76232
G1 X192.078 Y62.861 E23.77878
G1 X192.434 Y63.242 E23.79613
G1 X192.851 Y63.719 E23.8172
G1 X192.893 Y63.77 E23.8194
G1 X193.329 Y64.336 E23.84316
G1 X194.326 Y65.728 E23.90011
G1 X194.71 Y66.278 E23.92242
G1 X195.201 Y67.052 E23.95291
G1 X195.604 Y67.753 E23.9798
G1 X196.475 Y69.229 E24.0368
G1 X196.908 Y70.041 E24.06741
G1 X197.269 Y70.888 E24.09803
G1 X197.599 Y71.924 E24.1342
G1 X197.688 Y72.263 E24.14585
G1 X197.882 Y73.163 E24.17647
G1 X197.999 Y74.076 E24.20709
G1 X198.035 Y74.858 E24.23313
G1 X198.038 Y75.282 E24.24723
G1 X198.037 Y139.574 E26.38559
G1 X198.037 Y144.705 E26.55625
G1 X198.026 Y145.42 E26.58003
G1 X197.972 Y146.339 E26.61065
G1 X197.838 Y147.25 E26.64128
G1 X197.626 Y148.146 E26.6719
G1 X197.337 Y149.02 E26.70252
G1 X196.973 Y149.866 E26.73315
G1 X196.756 Y150.289 E26.74896
G1 X196.316 Y151.104 E26.77977
G1 X195.728 Y152.23 E26.82202
G1 X195.321 Y152.983 E26.85049
G1 X194.848 Y153.773 E26.88111
G1 X194.187 Y154.668 E26.91812
G1 X194.002 Y154.89 E26.92773
G1 X192.262 Y156.922 E27.01671
G1 X191.728 Y157.564 E27.04448
G1 X190.908 Y158.443 E27.08446
G1 X189.985 Y159.325 E27.12692
G1 X189.817 Y159.482 E27.13457
G1 X188.025 Y161.245 E27.21818
G1 X186.138 Y163.213 E27.30887
G1 X185.621 Y163.77 E27.33414
G1 X185.428 Y163.972 E27.34343
G1 X185.241 Y164.163 E27.35232
G1 X175.282 Y174.121 E27.82074
G1 X174.788 Y174.6 E27.84363
G1 X174.1 Y175.212 E27.87425
G1 X173.361 Y175.761 E27.90487
G1 X172.578 Y176.245 E27.93549
G1 X171.755 Y176.658 E27.96612
G1 X170.9 Y176.999 E27.99673
G1 X170.018 Y177.264 E28.02736
G1 X169.117 Y177.452 E28.05798
G1 X167.767 Y177.584 E28.10309
G1 X167.619 Y177.589 E28.10802
G1 X167.391 Y177.594 E28.1156
G1 X166.852 Y177.6 E28.13353
G1 X53.293 Y177.6 E31.91052
G1 X52.44 Y177.589 E31.93889
G1 X51.521 Y177.536 E31.96951
G1 X50.61 Y177.403 E32.00013
G1 X49.714 Y177.192 E32.03075
G1 X48.839 Y176.904 E32.06138
G1 X47.993 Y176.541 E32.092
G1 X47.182 Y176.106 E32.12261
G1 X46.411 Y175.602 E32.15325
G1 X45.382 Y174.761 E32.19745
G1 X45.23 Y174.62 E32.20435
G1 X45.022 Y174.422 E32.2139
G1 X44.749 Y174.154 E32.22662
G1 X34.987 Y164.393 E32.68577
G1 X33.636 Y163.003 E32.75024
G1 X32.732 Y162.051 E32.79391
G1 X32.204 Y161.511 E32.81903
G1 X32.051 Y161.351 E32.82639
G1 X30.126 Y159.433 E32.91677
G1 X29.666 Y158.989 E32.93804
G1 X29.452 Y158.775 E32.9481
G1 X28.499 Y157.8 E32.99345
G1 X27.738 Y157.028 E33.0295
G1 X27.184 Y156.42 E33.05686
G1 X26.264 Y155.329 E33.10433
G1 X26.104 Y155.136 E33.11267
G1 X25.924 Y154.912 E33.12222
G1 X25.379 Y154.17 E33.15284
G1 X24.789 Y153.174 E33.19135
G1 X24.348 Y152.329 E33.22305
G1 X23.916 Y151.535 E33.25311
G1 X23.813 Y151.324 E33.26092
G1 X23.216 Y150.203 E33.30316
G1 X22.819 Y149.373 E33.33377
G1 X22.496 Y148.511 E33.36438
G1 X22.248 Y147.624 E33.39502
G1 X22.079 Y146.719 E33.42564
G1 X21.979 Y145.586 E33.46347
G1 X21.974 Y145.44 E33.46833
G1 X21.969 Y145.197 E33.47641
G1 X21.963 Y144.639 E33.49497
G1 X21.956 Y114.212 E34.50698
G1 X21.963 Y75.307 E35.80096
G1 X21.973 Y74.609 E35.82418
G1 X22.026 Y73.69 E35.8548
G1 X22.159 Y72.779 E35.88542
G1 X22.37 Y71.883 E35.91603
G1 X22.658 Y71.009 E35.94664
G1 X23.021 Y70.162 E35.97729
G1 X23.393 Y69.46 E36.00371
G1 X24.065 Y68.296 E36.04842
G1 X24.143 Y68.15 E36.05392
G1 X24.415 Y67.689 E36.07173
G1 X24.78 Y67.049 E36.09623
G1 X25.42 Y66.059 E36.13544
G1 X26.743 Y64.242 E36.2102
G1 X27.603 Y63.206 E36.25498
G1 X28.358 Y62.406 E36.29157
G1 X28.489 Y62.272 E36.2978
G1 X29.024 Y61.701 E36.32382
G1 X29.874 Y60.785 E36.36539
G1 X30.298 Y60.354 E36.3855
G1 X30.75 Y59.919 E36.40636
G1 X32.604 Y58.086 E36.49307
G1 X34.509 Y56.094 E36.58475
G1 X34.9 Y55.695 E36.60333
G1 X44.608 Y45.986 E37.05999
G0 F6000 X44.891 Y46.269
G1 F1200 X45.013 Y46.149 E37.06568
G1 X45.5 Y45.678 E37.08821
G1 X46.176 Y45.08 E37.11823
G1 X46.903 Y44.543 E37.14829
G1 X47.674 Y44.073 E37.17833
G1 X48.484 Y43.673 E37.20837
G1 X49.326 Y43.347 E37.2384
G1 X50.193 Y43.096 E37.26842
G1 X51.08 Y42.923 E37.29848
G1 X52.247 Y42.816 E37.33746
G1 X52.614 Y42.806 E37.34967
G1 X53.148 Y42.8 E37.36743
G1 X166.707 Y42.8 E41.14442
G1 X167.554 Y42.811 E41.17259
G1 X168.456 Y42.864 E41.20265
G1 X169.349 Y42.996 E41.23267
G1 X170.227 Y43.207 E41.2627
G1 X171.083 Y43.495 E41.29274
G1 X171.911 Y43.857 E41.3228
G1 X172.703 Y44.291 E41.35284
G1 X173.453 Y44.794 E41.38287
G1 X174.346 Y45.532 E41.4214
G1 X174.498 Y45.673 E41.4283
G1 X174.684 Y45.85 E41.43684
G1 X174.937 Y46.098 E41.44862
G1 X184.836 Y55.997 E41.91424
G1 X185.808 Y56.998 E41.96065
G1 X186.673 Y57.914 E42.00255
G1 X188.479 Y59.721 E42.08752
G1 X188.828 Y60.054 E42.10357
G1 X189.5 Y60.712 E42.13485
G1 X189.745 Y60.96 E42.14644
G1 X189.891 Y61.115 E42.15353
G1 X191.045 Y62.355 E42.20987
G1 X191.293 Y62.617 E42.22186
G1 X191.456 Y62.793 E42.22984
G1 X191.79 Y63.139 E42.24584
G1 X191.931 Y63.288 E42.25266
G1 X192.141 Y63.514 E42.26292
G1 X192.543 Y63.973 E42.28322
G1 X192.585 Y64.024 E42.28541
G1 X193.003 Y64.569 E42.30826
G1 X194.076 Y66.067 E42.36954
G1 X194.382 Y66.506 E42.38734
G1 X194.854 Y67.251 E42.41668
G1 X195.26 Y67.956 E42.44373
G1 X196.131 Y69.432 E42.50074
G1 X196.555 Y70.23 E42.53079
G1 X196.907 Y71.061 E42.56081
G1 X197.212 Y72.026 E42.59447
G1 X197.301 Y72.365 E42.60613
G1 X197.491 Y73.248 E42.63617
G1 X197.603 Y74.144 E42.6662
G1 X197.635 Y74.861 E42.69007
G1 X197.638 Y75.282 E42.70407
G1 X197.637 Y139.574 E44.84244
G1 X197.637 Y144.699 E45.01289
G1 X197.626 Y145.414 E45.03668
G1 X197.572 Y146.315 E45.0667
G1 X197.439 Y147.209 E45.09676
G1 X197.227 Y148.087 E45.1268
G1 X196.938 Y148.942 E45.15682
G1 X196.404 Y150.099 E45.1992
G1 X195.923 Y150.992 E45.23294
G1 X195.301 Y152.182 E45.2776
G1 X194.97 Y152.793 E45.30071
G1 X194.505 Y153.567 E45.33074
G1 X193.878 Y154.414 E45.36579
G1 X193.698 Y154.63 E45.37515
G1 X191.918 Y156.709 E45.46618
G1 X191.42 Y157.308 E45.49208
G1 X190.632 Y158.154 E45.53054
G1 X189.713 Y159.032 E45.57281
G1 X189.547 Y159.186 E45.58034
G1 X187.739 Y160.965 E45.66471
G1 X185.839 Y162.948 E45.75605
G1 X185.328 Y163.498 E45.78102
G1 X185.142 Y163.692 E45.78996
G1 X184.955 Y163.883 E45.79885
G1 X175.003 Y173.834 E46.26694
G1 X174.509 Y174.313 E46.28982
G1 X173.834 Y174.912 E46.31984
G1 X173.108 Y175.449 E46.34987
G1 X172.337 Y175.92 E46.37992
G1 X171.528 Y176.321 E46.40995
G1 X170.687 Y176.649 E46.43998
G1 X169.819 Y176.901 E46.47004
G1 X168.933 Y177.075 E46.50007
G1 X167.753 Y177.184 E46.53949
G1 X167.386 Y177.194 E46.5517
G1 X166.852 Y177.2 E46.56946
G1 X53.293 Y177.2 E50.34645
G1 X52.446 Y177.189 E50.37462
G1 X51.544 Y177.136 E50.40467
G1 X50.651 Y177.004 E50.4347
G1 X49.773 Y176.793 E50.46473
G1 X48.917 Y176.505 E50.49477
G1 X48.089 Y176.143 E50.52483
G1 X47.297 Y175.709 E50.55486
G1 X46.547 Y175.206 E50.5849
G1 X45.654 Y174.468 E50.62343
G1 X45.502 Y174.327 E50.63033
G1 X45.302 Y174.136 E50.63952
G1 X45.032 Y173.871 E50.65211
G1 X35.27 Y164.11 E51.11126
G1 X33.926 Y162.727 E51.1754
G1 X33.025 Y161.778 E51.21892
G1 X32.331 Y161.066 E51.25199
G1 X30.369 Y159.112 E51.34409
G1 X29.944 Y158.701 E51.36376
G1 X29.738 Y158.496 E51.37342
G1 X28.784 Y157.52 E51.41882
G1 X28.023 Y156.748 E51.45487
G1 X27.489 Y156.162 E51.48124
G1 X26.569 Y155.071 E51.52871
G1 X26.416 Y154.885 E51.53672
G1 X26.236 Y154.661 E51.54627
G1 X25.702 Y153.933 E51.5763
G1 X25.143 Y152.989 E51.61279
G1 X24.696 Y152.132 E51.64494
G1 X24.267 Y151.344 E51.67478
G1 X24.164 Y151.134 E51.68256
G1 X23.569 Y150.015 E51.72471
G1 X23.18 Y149.2 E51.75475
G1 X22.865 Y148.354 E51.78478
G1 X22.627 Y147.483 E51.81481
G1 X22.466 Y146.594 E51.84486
G1 X22.379 Y145.572 E51.87897
G1 X22.374 Y145.426 E51.88383
G1 X22.369 Y145.193 E51.89158
G1 X22.363 Y144.639 E51.91001
G1 X22.356 Y114.212 E52.92201
G1 X22.363 Y75.313 E54.2158
G1 X22.373 Y74.615 E54.23902
G1 X22.426 Y73.713 E54.26907
G1 X22.558 Y72.82 E54.2991
G1 X22.769 Y71.942 E54.32913
G1 X23.057 Y71.086 E54.35917
G1 X23.419 Y70.259 E54.38919
G1 X23.739 Y69.66 E54.41178
G1 X24.367 Y68.573 E54.45353
G1 X24.488 Y68.353 E54.46189
G1 X24.765 Y67.884 E54.48
G1 X25.128 Y67.247 E54.50439
G1 X25.743 Y66.294 E54.54211
G1 X27.066 Y64.477 E54.61687
G1 X27.894 Y63.48 E54.65997
G1 X28.649 Y62.68 E54.69656
G1 X28.771 Y62.555 E54.70237
G1 X29.315 Y61.975 E54.72882
G1 X30.167 Y61.057 E54.77047
G1 X30.575 Y60.642 E54.78983
G1 X31.026 Y60.209 E54.81062
G1 X32.891 Y58.364 E54.89788
G1 X34.715 Y56.456 E54.98567
G1 X35.183 Y55.978 E55.00792
G1 X44.891 Y46.269 E55.46458
G0 F6000 X34.967 Y72.921
G1 F1200 X35.415 Y74 E55.50344
G1 X34.933 Y74 E55.51947
G1 X34.944 Y73.932 E55.52176
G1 X34.967 Y72.921 E55.5554
G0 F6000 X34.575 Y72.561
G1 F1200 X35.065 Y72.113 E55.57748
G1 X35.852 Y74.009 E55.64576
G1 X35.971 Y74.192 E55.65302
G1 X36.073 Y74.278 E55.65745
G1 X36.256 Y74.4 E55.66477
G1 X34.338 Y74.4 E55.72856
G1 X34.444 Y74.24 E55.73495
G1 X34.53 Y74.04 E55.74219
G1 X34.544 Y73.923 E55.74611
G1 X34.575 Y72.561 E55.79142
G0 F6000 X34.179 Y72.381
G1 F1200 X34.808 Y71.806 E55.81976
G1 X34.831 Y71.78 E55.82092
G1 X35.22 Y71.277 E55.84207
G1 X35.256 Y71.204 E55.84477
G1 X35.341 Y70.864 E55.85643
G1 X35.351 Y70.836 E55.85742
G1 X35.462 Y70.615 E55.86564
G1 X35.473 Y70.588 E55.86661
G1 X36.865 Y69.196 E55.93209
G1 X36.883 Y69.176 E55.93298
G1 X37.156 Y68.816 E55.94801
G1 X37.22 Y68.742 E55.95127
G1 X37.49 Y68.486 E55.96364
G1 X37.508 Y68.466 E55.96454
G1 X37.748 Y68.167 E55.97729
G1 X38.083 Y68.049 E55.9891
G1 X38.175 Y67.981 E55.99291
