;FLAVOR:Marlin
;TIME:30819
;Filament used: 19.4677m
;Layer height: 0.2
;MINX:63
;MINY:43.145
;MINZ:0.2
;MAXX:157
;MAXY:176.855
;MAXZ:41
;Generated with Cura_SteamEngine 4.7.1
M140 S60
M105
M190 S60
M104 S200
M105
M109 S200
M82 ;absolute extrusion mode
; Ender 3 Custom Start G-code
G92 E0 ; Reset Extruder
G28 ; Home all axes
G1 Z2.0 F3000 ; Move Z Axis up little to prevent scratching of Heat Bed
G1 X0.1 Y20 Z0.3 F5000.0 ; Move to start position
G1 X0.1 Y200.0 Z0.3 F1500.0 E15 ; Draw the first line
G1 X0.4 Y200.0 Z0.3 F5000.0 ; Move to side a little
G1 X0.4 Y20 Z0.3 F1500.0 E30 ; Draw the second line
G92 E0 ; Reset Extruder
G1 Z2.0 F3000 ; Move Z Axis up little to prevent scratching of Heat Bed
G1 X5 Y20 Z0.3 F5000.0 ; Move over to prevent blob squish
G92 E0
G92 E0
G1 F1500 E-6.5
;LAYER_COUNT:205
;LAYER:0
M107
G0 F6000 X65.004 Y47.951 Z0.2
;TYPE:SKIRT
G1 F1500 E0
G1 F1200 X65.575 Y47.207 E0.03119
G1 X66.232 Y46.49 E0.06354
G1 X66.344 Y46.378 E0.06881
G1 X67.035 Y45.744 E0.1
G1 X67.777 Y45.17 E0.1312
G1 X68.566 Y44.663 E0.16239
G1 X69.394 Y44.224 E0.19356
G1 X70.258 Y43.857 E0.22478
G1 X71.149 Y43.565 E0.25597
G1 X72.062 Y43.351 E0.28716
G1 X72.99 Y43.214 E0.31836
G1 X73.748 Y43.162 E0.34363
G1 X73.895 Y43.157 E0.34852
G1 X74.135 Y43.152 E0.35651
G1 X74.68 Y43.146 E0.37463
G1 X145.176 Y43.145 E2.71934
G1 X146.035 Y43.156 E2.74791
G1 X146.972 Y43.209 E2.77913
G1 X147.9 Y43.342 E2.81031
G1 X148.814 Y43.554 E2.84152
G1 X149.706 Y43.842 E2.87269
G1 X150.571 Y44.206 E2.90391
G1 X151.401 Y44.642 E2.93509
G1 X152.192 Y45.147 E2.9663
G1 X152.936 Y45.717 E2.99747
G1 X153.692 Y46.412 E3.03163
G1 X153.803 Y46.524 E3.03687
G1 X154.434 Y47.217 E3.06805
G1 X155.004 Y47.962 E3.09925
G1 X155.508 Y48.753 E3.13044
G1 X155.943 Y49.584 E3.16164
G1 X156.306 Y50.449 E3.19284
G1 X156.594 Y51.342 E3.22405
G1 X156.805 Y52.255 E3.25521
G1 X156.937 Y53.184 E3.28642
G1 X156.983 Y53.866 E3.30916
G1 X156.988 Y54.003 E3.31372
G1 X156.994 Y54.258 E3.3222
G1 X157 Y54.781 E3.3396
G1 X156.999 Y62.317 E3.59025
G1 X156.991 Y62.869 E3.60861
G1 X156.991 Y65.485 E3.69562
G1 X156.997 Y65.794 E3.7059
G1 X157 Y66.239 E3.7207
G1 X157 Y153.243 E6.61446
G1 X156.999 Y153.402 E6.61975
G1 X156.991 Y153.954 E6.63811
G1 X156.991 Y156.574 E6.72525
G1 X156.997 Y156.881 E6.73547
G1 X157 Y157.323 E6.75017
G1 X156.999 Y165.156 E7.01069
G1 X156.989 Y165.883 E7.03488
G1 X156.936 Y166.82 E7.06609
G1 X156.804 Y167.748 E7.09727
G1 X156.593 Y168.662 E7.12847
G1 X156.304 Y169.554 E7.15965
G1 X155.941 Y170.419 E7.19085
G1 X155.506 Y171.25 E7.22205
G1 X155.001 Y172.04 E7.25324
G1 X154.431 Y172.785 E7.28443
G1 X153.768 Y173.51 E7.31711
G1 X153.656 Y173.622 E7.32238
G1 X152.965 Y174.256 E7.35357
G1 X152.223 Y174.83 E7.38477
G1 X151.434 Y175.337 E7.41596
G1 X150.606 Y175.776 E7.44714
G1 X149.742 Y176.143 E7.47836
G1 X148.851 Y176.435 E7.50954
G1 X147.938 Y176.649 E7.54073
G1 X147.01 Y176.786 E7.57193
G1 X146.252 Y176.838 E7.5972
G1 X146.105 Y176.843 E7.60209
G1 X145.865 Y176.848 E7.61008
G1 X145.32 Y176.854 E7.62821
G1 X74.824 Y176.855 E9.97291
G1 X74.658 Y176.854 E9.97843
G1 X73.995 Y176.844 E10.00049
G1 X73.059 Y176.79 E10.03167
G1 X72.131 Y176.656 E10.06286
G1 X71.217 Y176.444 E10.09406
G1 X70.325 Y176.154 E10.12526
G1 X69.461 Y175.79 E10.15644
G1 X68.631 Y175.354 E10.18763
G1 X67.988 Y174.95 E10.21288
G1 X67.929 Y174.91 E10.21525
G1 X67.323 Y174.468 E10.2402
G1 X67.231 Y174.396 E10.24409
G1 X66.517 Y173.787 E10.2753
G1 X65.859 Y173.119 E10.30649
G1 X65.259 Y172.398 E10.33768
G1 X64.723 Y171.628 E10.36889
G1 X64.255 Y170.816 E10.40006
G1 X63.857 Y169.966 E10.43128
G1 X63.533 Y169.086 E10.46247
G1 X63.286 Y168.181 E10.49367
G1 X63.116 Y167.259 E10.52485
G1 X63.016 Y166.104 E10.56341
G1 X63.011 Y165.956 E10.56834
G1 X63.006 Y165.707 E10.57662
G1 X63 Y165.134 E10.59568
G1 X63.001 Y157.644 E10.8448
G1 X63.009 Y157.119 E10.86226
G1 X63.009 Y154.515 E10.94887
G1 X63.003 Y154.205 E10.95918
G1 X63 Y153.761 E10.97395
G1 X63 Y66.726 E13.86875
G1 X63.001 Y66.558 E13.87433
G1 X63.009 Y66.034 E13.89176
G1 X63.009 Y63.431 E13.97834
G1 X63.003 Y63.121 E13.98865
G1 X63 Y62.676 E14.00345
G1 X63.001 Y54.789 E14.26578
G1 X63.011 Y54.107 E14.28846
G1 X63.065 Y53.17 E14.31968
G1 X63.198 Y52.242 E14.35086
G1 X63.41 Y51.328 E14.38207
G1 X63.699 Y50.436 E14.41325
G1 X64.063 Y49.572 E14.44444
G1 X64.499 Y48.742 E14.47562
G1 X65.004 Y47.951 E14.50683
G0 F6000 X65.4 Y48.085
G1 F1200 X65.969 Y47.361 E14.53746
G1 X66.515 Y46.773 E14.56415
G1 X66.627 Y46.661 E14.56942
G1 X67.305 Y46.039 E14.60002
G1 X68.035 Y45.478 E14.63064
G1 X68.811 Y44.982 E14.66127
G1 X69.627 Y44.556 E14.69189
G1 X70.477 Y44.202 E14.72251
G1 X71.355 Y43.924 E14.75314
G1 X72.253 Y43.722 E14.78376
G1 X73.166 Y43.599 E14.8144
G1 X73.762 Y43.562 E14.83426
G1 X73.909 Y43.557 E14.83915
G1 X74.14 Y43.552 E14.84684
G1 X74.68 Y43.546 E14.8648
G1 X145.176 Y43.545 E17.2095
G1 X146.03 Y43.556 E17.23791
G1 X146.949 Y43.609 E17.26853
G1 X147.86 Y43.742 E17.29915
G1 X148.756 Y43.953 E17.32976
G1 X149.63 Y44.241 E17.36037
G1 X150.477 Y44.604 E17.39102
G1 X151.288 Y45.039 E17.42163
G1 X152.059 Y45.543 E17.45227
G1 X152.783 Y46.111 E17.48287
G1 X153.408 Y46.693 E17.51128
G1 X153.519 Y46.805 E17.51652
G1 X154.138 Y47.487 E17.54716
G1 X154.696 Y48.219 E17.57777
G1 X155.187 Y48.998 E17.6084
G1 X155.61 Y49.816 E17.63903
G1 X155.96 Y50.667 E17.66963
G1 X156.235 Y51.546 E17.70026
G1 X156.432 Y52.445 E17.73087
G1 X156.551 Y53.358 E17.7615
G1 X156.583 Y53.88 E17.77889
G1 X156.588 Y54.017 E17.78345
G1 X156.594 Y54.263 E17.79164
G1 X156.6 Y54.781 E17.80887
G1 X156.599 Y62.312 E18.05935
G1 X156.591 Y62.864 E18.07771
G1 X156.591 Y65.494 E18.16518
G1 X156.597 Y65.797 E18.17526
G1 X156.6 Y66.242 E18.19006
G1 X156.6 Y153.243 E21.08373
G1 X156.591 Y153.949 E21.10721
G1 X156.591 Y156.583 E21.19482
G1 X156.597 Y156.884 E21.20483
G1 X156.6 Y157.326 E21.21953
G1 X156.599 Y165.151 E21.4798
G1 X156.589 Y165.878 E21.50398
G1 X156.536 Y166.797 E21.53459
G1 X156.404 Y167.708 E21.56521
G1 X156.193 Y168.604 E21.59583
G1 X155.906 Y169.479 E21.62646
G1 X155.543 Y170.325 E21.65707
G1 X155.109 Y171.137 E21.6877
G1 X154.605 Y171.908 E21.71833
G1 X154.037 Y172.632 E21.74894
G1 X153.485 Y173.227 E21.77593
G1 X153.373 Y173.339 E21.7812
G1 X152.695 Y173.961 E21.81181
G1 X151.965 Y174.522 E21.84243
G1 X151.189 Y175.018 E21.87306
G1 X150.373 Y175.444 E21.90367
G1 X149.523 Y175.798 E21.9343
G1 X148.645 Y176.076 E21.96493
G1 X147.747 Y176.278 E21.99554
G1 X146.834 Y176.401 E22.02619
G1 X146.238 Y176.438 E22.04605
G1 X146.091 Y176.443 E22.05094
G1 X145.86 Y176.448 E22.05862
G1 X145.32 Y176.454 E22.07659
G1 X74.824 Y176.455 E24.42129
G1 X74.664 Y176.454 E24.42661
G1 X74.001 Y176.444 E24.44867
G1 X73.082 Y176.39 E24.47929
G1 X72.171 Y176.257 E24.50991
G1 X71.275 Y176.045 E24.54053
G1 X70.401 Y175.756 E24.57115
G1 X69.555 Y175.392 E24.60178
G1 X68.744 Y174.956 E24.63241
G1 X68.213 Y174.619 E24.65332
G1 X68.154 Y174.579 E24.65569
G1 X67.569 Y174.153 E24.67976
G1 X67.477 Y174.081 E24.68365
G1 X66.777 Y173.482 E24.71429
G1 X66.132 Y172.825 E24.74491
G1 X65.547 Y172.115 E24.77551
G1 X65.025 Y171.357 E24.80612
G1 X64.571 Y170.556 E24.83675
G1 X64.188 Y169.718 E24.86739
G1 X63.879 Y168.851 E24.898
G1 X63.647 Y167.96 E24.92863
G1 X63.492 Y167.053 E24.95923
G1 X63.416 Y166.091 E24.99133
G1 X63.411 Y165.943 E24.99625
G1 X63.406 Y165.703 E25.00424
G1 X63.4 Y165.134 E25.02316
G1 X63.401 Y157.65 E25.27208
G1 X63.409 Y157.125 E25.28955
G1 X63.409 Y154.506 E25.37665
G1 X63.403 Y154.203 E25.38673
G1 X63.4 Y153.759 E25.4015
G1 X63.4 Y66.726 E28.29623
G1 X63.401 Y66.564 E28.30162
G1 X63.409 Y66.04 E28.31905
G1 X63.409 Y63.422 E28.40612
G1 X63.403 Y63.118 E28.41624
G1 X63.4 Y62.673 E28.43104
G1 X63.401 Y54.795 E28.69306
G1 X63.411 Y54.113 E28.71575
G1 X63.465 Y53.193 E28.7464
G1 X63.598 Y52.283 E28.77699
G1 X63.809 Y51.386 E28.80764
G1 X64.098 Y50.512 E28.83825
G1 X64.461 Y49.666 E28.86887
G1 X64.896 Y48.855 E28.89948
G1 X65.4 Y48.085 E28.93009
G0 F6000 X65.796 Y48.221
G1 F1200 X66.363 Y47.518 E28.96013
G1 X66.798 Y47.056 E28.98124
G1 X66.91 Y46.944 E28.9865
G1 X67.576 Y46.334 E29.01654
G1 X68.293 Y45.785 E29.04658
G1 X69.057 Y45.303 E29.07662
G1 X69.86 Y44.889 E29.10667
G1 X70.696 Y44.549 E29.13669
G1 X71.559 Y44.283 E29.16672
G1 X72.442 Y44.095 E29.19675
G1 X73.775 Y43.962 E29.24131
G1 X73.922 Y43.957 E29.2462
G1 X74.145 Y43.952 E29.25362
G1 X74.68 Y43.946 E29.27141
G1 X145.176 Y43.945 E31.61612
G1 X146.024 Y43.956 E31.64433
G1 X146.926 Y44.009 E31.67438
G1 X147.819 Y44.141 E31.7044
G1 X148.697 Y44.352 E31.73444
G1 X149.553 Y44.64 E31.76448
G1 X150.38 Y45.002 E31.7945
G1 X151.172 Y45.436 E31.82454
G1 X151.923 Y45.938 E31.85458
G1 X152.626 Y46.505 E31.88462
G1 X153.124 Y46.975 E31.9074
G1 X153.235 Y47.087 E31.91264
G1 X153.841 Y47.756 E31.94267
G1 X154.387 Y48.476 E31.97272
G1 X154.866 Y49.241 E32.00274
G1 X155.276 Y50.046 E32.03279
G1 X155.613 Y50.884 E32.06283
G1 X155.874 Y51.748 E32.09285
G1 X156.058 Y52.633 E32.12291
G1 X156.183 Y53.895 E32.16509
G1 X156.194 Y54.269 E32.17754
G1 X156.2 Y54.781 E32.19457
G1 X156.199 Y62.306 E32.44485
G1 X156.191 Y62.858 E32.46321
G1 X156.191 Y65.504 E32.55122
G1 X156.197 Y65.799 E32.56103
G1 X156.2 Y66.244 E32.57583
G1 X156.2 Y153.243 E35.46943
G1 X156.191 Y153.943 E35.49272
G1 X156.191 Y156.592 E35.58082
G1 X156.197 Y156.887 E35.59064
G1 X156.2 Y157.329 E35.60534
G1 X156.199 Y165.145 E35.8653
G1 X156.189 Y165.872 E35.88948
G1 X156.137 Y166.774 E35.91953
G1 X156.005 Y167.667 E35.94956
G1 X155.794 Y168.546 E35.97962
G1 X155.507 Y169.402 E36.00965
G1 X155.145 Y170.229 E36.03968
G1 X154.711 Y171.021 E36.06971
G1 X154.209 Y171.772 E36.09976
G1 X153.643 Y172.475 E36.12978
G1 X153.202 Y172.944 E36.15119
G1 X153.09 Y173.056 E36.15646
G1 X152.424 Y173.666 E36.1865
G1 X151.707 Y174.215 E36.21653
G1 X150.943 Y174.697 E36.24658
G1 X150.14 Y175.111 E36.27662
G1 X149.304 Y175.451 E36.30664
G1 X148.441 Y175.717 E36.33668
G1 X147.558 Y175.905 E36.3667
G1 X146.225 Y176.038 E36.41126
G1 X146.078 Y176.043 E36.41615
G1 X145.855 Y176.048 E36.42357
G1 X145.32 Y176.054 E36.44137
G1 X74.824 Y176.055 E38.78607
G1 X74.67 Y176.054 E38.7912
G1 X74.007 Y176.044 E38.81325
G1 X73.106 Y175.99 E38.84327
G1 X72.212 Y175.857 E38.87333
G1 X71.334 Y175.646 E38.90337
G1 X70.479 Y175.357 E38.93338
G1 X69.652 Y174.994 E38.96342
G1 X68.86 Y174.559 E38.99348
G1 X68.437 Y174.288 E39.01019
G1 X68.378 Y174.248 E39.01256
G1 X67.816 Y173.838 E39.03569
G1 X67.724 Y173.766 E39.03958
G1 X67.038 Y173.178 E39.06963
G1 X66.407 Y172.532 E39.09967
G1 X65.835 Y171.833 E39.12971
G1 X65.327 Y171.086 E39.15975
G1 X64.888 Y170.297 E39.18978
G1 X64.52 Y169.472 E39.21983
G1 X64.227 Y168.618 E39.24986
G1 X64.01 Y167.741 E39.27991
G1 X63.871 Y166.849 E39.30993
G1 X63.816 Y166.077 E39.33568
G1 X63.811 Y165.929 E39.3406
G1 X63.806 Y165.698 E39.34829
G1 X63.8 Y165.134 E39.36705
G1 X63.801 Y157.656 E39.61577
G1 X63.809 Y157.131 E39.63323
G1 X63.809 Y154.496 E39.72087
G1 X63.803 Y154.2 E39.73072
G1 X63.8 Y153.756 E39.74548
G1 X63.8 Y66.726 E42.64011
G1 X63.801 Y66.57 E42.6453
G1 X63.809 Y66.046 E42.66273
G1 X63.809 Y63.412 E42.75034
G1 X63.803 Y63.116 E42.76019
G1 X63.8 Y62.671 E42.77499
G1 X63.801 Y54.8 E43.03678
G1 X63.811 Y54.118 E43.05946
G1 X63.864 Y53.217 E43.08948
G1 X63.997 Y52.324 E43.11951
G1 X64.208 Y51.446 E43.14955
G1 X64.496 Y50.59 E43.17959
G1 X64.859 Y49.763 E43.20962
G1 X65.293 Y48.971 E43.23966
G1 X65.796 Y48.221 E43.2697
G1 F1500 E36.7697
G0 F6000 X77.335 Y57.946
G0 X77.8 Y57.946
G1 F1500 E43.2697
G1 F1200 X142.2 Y57.945 E45.41165
G1 X142.2 Y59.114 E45.45053
G1 X77.8 Y59.115 E47.59248
G1 X77.8 Y57.946 E47.63137
G0 F6000 X77.4 Y57.546
G1 F1200 X142.6 Y57.545 E49.79993
G1 X142.6 Y59.514 E49.86542
G1 X77.4 Y59.515 E52.03398
G1 X77.4 Y57.546 E52.09947
G0 F6000 X77 Y57.146
G1 F1200 X143 Y57.145 E54.29463
G1 X143 Y59.915 E54.38677
G1 X77 Y59.915 E56.58193
G1 X77 Y57.146 E56.67403
G0 F6000 X76.6 Y56.746
G1 F1200 X143.4 Y56.745 E58.89581
G1 X143.4 Y60.315 E59.01455
G1 X76.6 Y60.315 E61.23632
G1 X76.6 Y56.746 E61.35503
G0 F6000 X76.2 Y56.346
G1 F1200 X143.8 Y56.345 E63.60341
G1 X143.8 Y60.715 E63.74876
G1 X76.2 Y60.715 E65.99715
G1 X76.2 Y56.346 E66.14246
G0 F6000 X75.8 Y55.946
G1 F1200 X144.2 Y55.945 E68.41745
G1 X144.2 Y61.115 E68.58941
G1 X75.8 Y61.115 E70.8644
G1 X75.8 Y55.946 E71.03632
G0 F6000 X75.4 Y55.546
G1 F1200 X144.6 Y55.545 E73.33792
G1 X144.6 Y61.515 E73.53649
G1 X75.4 Y61.515 E75.83809
G1 X75.4 Y55.546 E76.03662
G0 F6000 X75 Y55.146
G1 F1200 X145 Y55.145 E78.36483
G1 X145 Y61.915 E78.59
G1 X75 Y61.915 E80.91821
G1 X75 Y55.146 E81.14335
G0 F6000 X74.6 Y54.746
G1 F1200 X145.4 Y54.745 E83.49816
G1 X145.4 Y62.315 E83.74994
G1 X74.6 Y62.315 E86.10476
G1 X74.6 Y54.746 E86.35651
G0 F6000 X74.2 Y54.346
G1 F1200 X145.8 Y54.345 E88.73793
G1 X145.8 Y62.715 E89.01632
G1 X74.2 Y62.715 E91.39775
G1 X74.2 Y54.346 E91.6761
G1 F1500 E85.1761
G0 F6000 X73.339 Y65.843
G0 X73.339 Y154.157
G0 X74.2 Y157.286
G1 F1500 E91.6761
G1 F1200 X145.8 Y157.285 E94.05752
G1 X145.8 Y165.654 E94.33588
G1 X74.2 Y165.655 E96.7173
G1 X74.2 Y157.286 E96.99566
G0 F6000 X74.6 Y157.686
G1 F1200 X145.4 Y157.685 E99.35048
G1 X145.4 Y165.254 E99.60222
G1 X74.6 Y165.255 E101.95704
G1 X74.6 Y157.686 E102.20879
G0 F6000 X75 Y158.086
G1 F1200 X145 Y158.085 E104.537
G1 X145 Y164.854 E104.76213
G1 X75 Y164.855 E107.09034
G1 X75 Y158.086 E107.31548
G0 F6000 X75.4 Y158.486
G1 F1200 X144.6 Y158.485 E109.61708
G1 X144.6 Y164.454 E109.81561
G1 X75.4 Y164.455 E112.11721
G1 X75.4 Y158.486 E112.31574
G0 F6000 X75.8 Y158.886
G1 F1200 X144.2 Y158.885 E114.59074
G1 X144.2 Y164.054 E114.76266
G1 X75.8 Y164.055 E117.03765
G1 X75.8 Y158.886 E117.20957
G0 F6000 X76.2 Y159.286
G1 F1200 X143.8 Y159.285 E119.45796
G1 X143.8 Y163.654 E119.60327
G1 X76.2 Y163.655 E121.85166
G1 X76.2 Y159.286 E121.99697
G0 F6000 X76.6 Y159.686
G1 F1200 X143.4 Y159.685 E124.21875
G1 X143.4 Y163.254 E124.33745
G1 X76.6 Y163.255 E126.55923
G1 X76.6 Y159.686 E126.67793
G0 F6000 X77 Y160.086
G1 F1200 X143 Y160.085 E128.8731
G1 X143 Y162.854 E128.9652
G1 X77 Y162.855 E131.16037
G1 X77 Y160.086 E131.25247
G0 F6000 X77.4 Y160.486
G1 F1200 X142.6 Y160.485 E133.42103
G1 X142.6 Y162.454 E133.48652
G1 X77.4 Y162.455 E135.65508
G1 X77.4 Y160.486 E135.72057
G0 F6000 X77.8 Y160.886
G1 F1200 X142.2 Y160.885 E137.86252
G1 X142.2 Y162.054 E137.9014
G1 X77.8 Y162.055 E140.04335
G1 X77.8 Y160.886 E140.08223
G0 F6000 X78.2 Y161.286
;TYPE:SUPPORT
G1 F1200 X141.8 Y161.285 E142.19758
G1 X141.8 Y161.654 E142.20985
G1 X78.2 Y161.655 E144.3252
G1 X78.2 Y161.286 E144.33747
G1 F1500 E137.83747
G0 F6000 X78.199 Y160.421
G0 X73.339 Y154.157
G0 X73.339 Y65.843
G0 X78.201 Y59.579
G0 X78.2 Y58.715
G1 F1500 E144.33747
G1 F1200 X78.2 Y58.346 E144.34974
G1 X141.8 Y58.345 E146.46509
G1 X141.8 Y58.714 E146.47736
G1 X78.2 Y58.715 E148.5927
G1 F1500 E142.0927
;MESH:DepositoDeBateriasInferior.stl
G0 F6000 X78.201 Y59.579
G0 X109.249 Y108.9
G0 X108.358 Y107.744
G0 X107.621 Y109.466
G0 X107.563 Y110.05
G0 X107.645 Y110.633
G0 X107.866 Y111.179
G0 X108.21 Y111.656
G0 X108.57 Y111.962
G0 X109.742 Y112.587
;TYPE:WALL-INNER
G1 F1500 E148.5927
G1 F1200 X110.255 Y112.587 E148.60977
G1 X110.371 Y112.572 E148.61366
G1 X110.86 Y112.454 E148.63039
G1 X110.971 Y112.411 E148.63435
G1 X111.408 Y112.183 E148.65074
G1 X111.509 Y112.119 E148.65472
G1 X111.884 Y111.787 E148.67138
G1 X111.968 Y111.702 E148.67535
G1 X112.25 Y111.294 E148.69185
G1 X112.314 Y111.193 E148.69582
G1 X112.53 Y110.62 E148.71619
G1 X112.604 Y110 E148.73696
G1 X112.532 Y109.382 E148.75765
G1 X112.315 Y108.808 E148.77806
G1 X112.251 Y108.707 E148.78204
G1 X111.969 Y108.299 E148.79854
G1 X111.885 Y108.214 E148.80251
G1 X111.51 Y107.882 E148.81917
G1 X111.409 Y107.818 E148.82315
G1 X110.972 Y107.59 E148.83954
G1 X110.862 Y107.547 E148.84347
G1 X110.372 Y107.428 E148.86024
G1 X110.256 Y107.413 E148.86413
G1 X109.747 Y107.413 E148.88106
G1 X109.627 Y107.428 E148.88508
G1 X109.132 Y107.549 E148.90203
G1 X109.019 Y107.594 E148.90608
G1 X108.576 Y107.826 E148.92271
G1 X108.475 Y107.895 E148.92678
G1 X108.097 Y108.23 E148.94358
G1 X108.016 Y108.321 E148.94763
