;FLAVOR:Marlin
;TIME:11364
;Filament used: 6.70862m
;Layer height: 0.2
;MINX:69.024
;MINY:69.023
;MINZ:0.2
;MAXX:150.956
;MAXY:150.977
;MAXZ:82.6
;Generated with Cura_SteamEngine 4.7.1
M140 S60
M105
M190 S60
M104 S200
M105
M109 S200
M82 ;absolute extrusion mode
; Ender 3 Custom Start G-code
G92 E0 ; Reset Extruder
G28 ; Home all axes
G1 Z2.0 F3000 ; Move Z Axis up little to prevent scratching of Heat Bed
G1 X0.1 Y20 Z0.3 F5000.0 ; Move to start position
G1 X0.1 Y200.0 Z0.3 F1500.0 E15 ; Draw the first line
G1 X0.4 Y200.0 Z0.3 F5000.0 ; Move to side a little
G1 X0.4 Y20 Z0.3 F1500.0 E30 ; Draw the second line
G92 E0 ; Reset Extruder
G1 Z2.0 F3000 ; Move Z Axis up little to prevent scratching of Heat Bed
G1 X5 Y20 Z0.3 F5000.0 ; Move over to prevent blob squish
G92 E0
G92 E0
G1 F1500 E-6.5
;LAYER_COUNT:413
;LAYER:0
M107
G0 F6000 X80.64 Y81.408 Z0.2
;TYPE:SKIRT
G1 F1500 E0
G1 F1200 X82.285 Y79.809 E0.0763
G1 X82.773 Y79.348 E0.09863
G1 X83.484 Y78.732 E0.12992
G1 X84.198 Y78.166 E0.16022
G1 X85.916 Y76.842 E0.23236
G1 X86.445 Y76.446 E0.25434
G1 X87.212 Y75.921 E0.28526
G1 X87.832 Y75.534 E0.30956
G1 X89.724 Y74.393 E0.38305
G1 X89.877 Y74.302 E0.38897
G1 X90.466 Y73.96 E0.41162
G1 X91.264 Y73.539 E0.44163
G1 X91.88 Y73.246 E0.46432
G1 X94.087 Y72.238 E0.54502
G1 X94.651 Y71.99 E0.56551
G1 X95.537 Y71.646 E0.59712
G1 X96.412 Y71.349 E0.62786
G1 X98.257 Y70.749 E0.69239
G1 X99.104 Y70.487 E0.72187
G1 X99.975 Y70.258 E0.75183
G1 X100.895 Y70.056 E0.78316
G1 X102.833 Y69.663 E0.84893
G1 X103.672 Y69.505 E0.87732
G1 X104.583 Y69.374 E0.90793
G1 X105.51 Y69.281 E0.93892
G1 X107.477 Y69.112 E1.00458
G1 X108.333 Y69.05 E1.03313
G1 X109.286 Y69.023 E1.06484
G1 X110.006 Y69.034 E1.08879
G1 X112.325 Y69.101 E1.16595
G1 X112.991 Y69.129 E1.18812
G1 X113.933 Y69.209 E1.21957
G1 X114.849 Y69.328 E1.25029
G1 X116.775 Y69.605 E1.31501
G1 X117.634 Y69.74 E1.34393
G1 X118.551 Y69.925 E1.37504
G1 X119.281 Y70.105 E1.40005
G1 X119.45 Y70.148 E1.40585
G1 X121.356 Y70.65 E1.47141
G1 X122.19 Y70.881 E1.50019
G1 X123.09 Y71.173 E1.53166
G1 X123.907 Y71.479 E1.56068
G1 X125.869 Y72.244 E1.63072
G1 X126.564 Y72.526 E1.65566
G1 X127.411 Y72.912 E1.68662
G1 X128.088 Y73.256 E1.71188
G1 X129.958 Y74.243 E1.78221
G1 X130.726 Y74.661 E1.81129
G1 X131.529 Y75.144 E1.84246
G1 X132.257 Y75.627 E1.87151
G1 X134.015 Y76.83 E1.94237
G1 X134.624 Y77.259 E1.96714
G1 X135.369 Y77.834 E1.99844
G1 X136.052 Y78.409 E2.02814
G1 X137.556 Y79.712 E2.09432
G1 X138.166 Y80.253 E2.12144
G1 X138.871 Y80.938 E2.15414
G1 X139.495 Y81.601 E2.18442
G1 X140.846 Y83.072 E2.25085
G1 X141.421 Y83.718 E2.27961
G1 X141.998 Y84.425 E2.30996
G1 X142.527 Y85.133 E2.33936
G1 X143.714 Y86.767 E2.40653
G1 X144.186 Y87.435 E2.43374
G1 X144.704 Y88.24 E2.46558
G1 X145.141 Y88.991 E2.49447
G1 X146.134 Y90.749 E2.56163
G1 X146.528 Y91.467 E2.58887
G1 X146.949 Y92.323 E2.6206
G1 X147.332 Y93.195 E2.65227
G1 X148.104 Y95.022 E2.71824
G1 X148.411 Y95.777 E2.74535
G1 X148.731 Y96.672 E2.77696
G1 X148.94 Y97.349 E2.80053
G1 X149.55 Y99.423 E2.87243
G1 X149.783 Y100.262 E2.90139
G1 X149.99 Y101.148 E2.93166
G1 X150.135 Y101.913 E2.95755
G1 X150.527 Y104.179 E3.03404
G1 X150.637 Y104.876 E3.05751
G1 X150.743 Y105.81 E3.08877
G1 X150.801 Y106.637 E3.11635
G1 X150.92 Y108.719 E3.18571
G1 X150.955 Y109.503 E3.21181
G1 X150.956 Y110.455 E3.24347
G1 X150.915 Y111.389 E3.27457
G1 X150.803 Y113.333 E3.33933
G1 X150.742 Y114.197 E3.36814
G1 X150.635 Y115.134 E3.39951
G1 X150.524 Y115.837 E3.42318
G1 X150.156 Y117.973 E3.49527
G1 X150.131 Y118.114 E3.50003
G1 X150.007 Y118.78 E3.52257
G1 X149.79 Y119.716 E3.55452
G1 X149.546 Y120.59 E3.5847
G1 X148.993 Y122.475 E3.65004
G1 X148.725 Y123.342 E3.68022
G1 X148.418 Y124.202 E3.7106
G1 X148.104 Y124.976 E3.73838
G1 X147.296 Y126.889 E3.80745
G1 X147.228 Y127.047 E3.81317
G1 X146.959 Y127.657 E3.83534
G1 X146.556 Y128.477 E3.86573
G1 X146.108 Y129.298 E3.89684
G1 X145.136 Y131.018 E3.96255
G1 X144.703 Y131.76 E3.99112
G1 X144.203 Y132.539 E4.02191
G1 X143.788 Y133.129 E4.0459
G1 X143.69 Y133.266 E4.0515
G1 X142.418 Y135.015 E4.12343
G1 X142.015 Y135.554 E4.14582
G1 X141.415 Y136.288 E4.17735
G1 X140.77 Y137.01 E4.20955
G1 X139.501 Y138.394 E4.272
G1 X138.877 Y139.056 E4.30226
G1 X138.206 Y139.709 E4.3334
G1 X137.657 Y140.199 E4.35788
G1 X136.012 Y141.624 E4.43026
G1 X135.377 Y142.16 E4.4579
G1 X134.645 Y142.725 E4.48866
G1 X133.9 Y143.251 E4.51899
G1 X132.248 Y144.38 E4.58554
G1 X131.534 Y144.853 E4.61403
G1 X130.753 Y145.324 E4.64436
G1 X130.092 Y145.686 E4.66943
G1 X129.943 Y145.766 E4.67505
G1 X128.049 Y146.765 E4.74627
G1 X127.443 Y147.074 E4.7689
G1 X126.589 Y147.464 E4.80012
G1 X125.893 Y147.747 E4.82511
G1 X123.892 Y148.527 E4.89654
G1 X123.746 Y148.583 E4.90174
G1 X123.1 Y148.824 E4.92468
G1 X122.207 Y149.115 E4.95592
G1 X121.471 Y149.32 E4.98133
G1 X119.375 Y149.871 E5.05341
G1 X118.608 Y150.063 E5.07971
G1 X117.665 Y150.254 E5.11171
G1 X116.739 Y150.399 E5.14288
G1 X114.78 Y150.681 E5.20871
G1 X114.187 Y150.757 E5.22859
G1 X113.217 Y150.849 E5.261
G1 X112.043 Y150.907 E5.3001
G1 X111.816 Y150.915 E5.30765
G1 X109.943 Y150.968 E5.36997
G1 X109.274 Y150.977 E5.39223
G1 X108.344 Y150.95 E5.42317
G1 X107.471 Y150.887 E5.45228
G1 X105.452 Y150.714 E5.51968
G1 X104.626 Y150.632 E5.54729
G1 X103.688 Y150.497 E5.57881
G1 X102.815 Y150.332 E5.60836
G1 X100.662 Y149.895 E5.68143
G1 X100.013 Y149.753 E5.70352
G1 X99.123 Y149.519 E5.73413
G1 X98.403 Y149.297 E5.75919
G1 X96.331 Y148.625 E5.83164
G1 X95.572 Y148.368 E5.85829
G1 X94.684 Y148.023 E5.88998
G1 X93.829 Y147.646 E5.92106
G1 X92.047 Y146.832 E5.98622
G1 X91.281 Y146.47 E6.0144
G1 X90.429 Y146.021 E6.04643
G1 X89.807 Y145.657 E6.0704
G1 X87.849 Y144.477 E6.14643
G1 X87.255 Y144.108 E6.16969
G1 X86.465 Y143.567 E6.20154
G1 X85.727 Y143.013 E6.23223
G1 X84.072 Y141.735 E6.30178
G1 X83.498 Y141.279 E6.32616
G1 X82.801 Y140.677 E6.35679
G1 X82.275 Y140.182 E6.38082
G1 X80.688 Y138.641 E6.45439
G1 X80.108 Y138.062 E6.48165
G1 X79.467 Y137.364 E6.51317
G1 X78.986 Y136.792 E6.53802
G1 X77.628 Y135.133 E6.60933
G1 X77.105 Y134.476 E6.63726
G1 X76.549 Y133.712 E6.66869
G1 X76.153 Y133.115 E6.69252
G1 X74.984 Y131.297 E6.76441
G1 X74.531 Y130.571 E6.79287
G1 X74.076 Y129.767 E6.82359
G1 X73.709 Y129.049 E6.85041
G1 X72.732 Y127.062 E6.92406
G1 X72.41 Y126.382 E6.94908
G1 X72.05 Y125.531 E6.97982
G1 X71.798 Y124.858 E7.00372
G1 X71.02 Y122.676 E7.08077
G1 X70.79 Y122.002 E7.10445
G1 X70.524 Y121.095 E7.13589
G1 X70.319 Y120.263 E7.16439
G1 X69.855 Y118.268 E7.23251
G1 X69.683 Y117.485 E7.25918
G1 X69.518 Y116.539 E7.29112
G1 X69.417 Y115.756 E7.31738
G1 X69.164 Y113.548 E7.3913
G1 X69.092 Y112.842 E7.4149
G1 X69.036 Y111.885 E7.44678
G1 X69.025 Y111.122 E7.47216
G1 X69.024 Y108.994 E7.54294
G1 X69.025 Y108.823 E7.54863
G1 X69.036 Y108.116 E7.57215
G1 X69.088 Y107.208 E7.6024
G1 X69.157 Y106.508 E7.62579
G1 X69.176 Y106.329 E7.63178
G1 X69.428 Y104.148 E7.7048
G1 X69.513 Y103.489 E7.7269
G1 X69.677 Y102.544 E7.7588
G1 X69.842 Y101.79 E7.78447
G1 X70.313 Y99.759 E7.85382
G1 X70.528 Y98.891 E7.88356
G1 X70.79 Y97.999 E7.91448
G1 X71.067 Y97.19 E7.94292
G1 X71.791 Y95.161 E8.01457
G1 X72.036 Y94.503 E8.03793
G1 X72.409 Y93.621 E8.06978
G1 X72.815 Y92.769 E8.10117
G1 X73.724 Y90.922 E8.16964
G1 X74.063 Y90.256 E8.19449
G1 X74.535 Y89.421 E8.22639
G1 X74.993 Y88.689 E8.25511
G1 X76.16 Y86.873 E8.32691
G1 X76.532 Y86.311 E8.34933
G1 X77.09 Y85.543 E8.3809
G1 X77.56 Y84.951 E8.40604
G1 X78.918 Y83.29 E8.4774
G1 X79.447 Y82.659 E8.50479
G1 X80.09 Y81.958 E8.53643
G1 X80.64 Y81.408 E8.5623
G0 F6000 X81.03 Y81.584
G1 F1200 X82.451 Y80.203 E8.6282
G1 X83.048 Y79.639 E8.65552
G1 X83.733 Y79.045 E8.68567
G1 X84.442 Y78.483 E8.71576
G1 X86.156 Y77.162 E8.78774
G1 X86.685 Y76.766 E8.80972
G1 X87.424 Y76.26 E8.83951
G1 X88.187 Y75.785 E8.8694
G1 X89.93 Y74.735 E8.93708
G1 X90.077 Y74.648 E8.94276
G1 X90.666 Y74.306 E8.96541
G1 X91.436 Y73.901 E8.99435
G1 X92.203 Y73.537 E9.02259
G1 X94.113 Y72.665 E9.09242
G1 X94.812 Y72.357 E9.11783
G1 X95.666 Y72.025 E9.1483
G1 X96.536 Y71.73 E9.17886
G1 X98.54 Y71.079 E9.24894
G1 X99.222 Y70.869 E9.27267
G1 X100.061 Y70.648 E9.30153
G1 X100.974 Y70.448 E9.33262
G1 X102.912 Y70.055 E9.39839
G1 X103.745 Y69.899 E9.42657
G1 X104.623 Y69.772 E9.45608
G1 X105.382 Y69.695 E9.48145
G1 X107.512 Y69.511 E9.55256
G1 X108.362 Y69.449 E9.58091
G1 X109.28 Y69.423 E9.61145
G1 X110.141 Y69.437 E9.64009
G1 X112.308 Y69.5 E9.7122
G1 X112.974 Y69.528 E9.73437
G1 X113.882 Y69.606 E9.76468
G1 X114.792 Y69.724 E9.7952
G1 X116.718 Y70.001 E9.85992
G1 X117.572 Y70.135 E9.88867
G1 X118.456 Y70.313 E9.91866
G1 X119.186 Y70.493 E9.94367
G1 X121.392 Y71.074 E10.01955
G1 X122.083 Y71.266 E10.0434
G1 X122.951 Y71.548 E10.07375
G1 X123.621 Y71.798 E10.09754
G1 X125.58 Y72.56 E10.16745
G1 X126.413 Y72.897 E10.19734
G1 X127.23 Y73.269 E10.2272
G1 X128.056 Y73.69 E10.25803
G1 X129.771 Y74.596 E10.32254
G1 X130.535 Y75.012 E10.35148
G1 X131.309 Y75.478 E10.38153
G1 X132.031 Y75.957 E10.41034
G1 X133.784 Y77.157 E10.481
G1 X134.393 Y77.586 E10.50578
G1 X135.112 Y78.14 E10.53597
G1 X135.79 Y78.711 E10.56545
G1 X137.294 Y80.014 E10.63163
G1 X137.9 Y80.552 E10.65859
G1 X138.58 Y81.212 E10.69011
G1 X139.2 Y81.872 E10.72022
G1 X140.551 Y83.343 E10.78665
G1 X140.672 Y83.477 E10.79266
G1 X141.122 Y83.984 E10.8152
G1 X141.678 Y84.665 E10.84445
G1 X142.111 Y85.243 E10.86847
G1 X143.473 Y87.117 E10.94552
G1 X143.86 Y87.665 E10.96783
G1 X144.359 Y88.442 E10.99854
G1 X144.721 Y89.063 E11.02245
G1 X145.854 Y91.069 E11.09908
G1 X146.177 Y91.659 E11.12145
G1 X146.583 Y92.484 E11.15203
G1 X146.963 Y93.351 E11.18352
G1 X147.792 Y95.315 E11.25442
G1 X148.041 Y95.928 E11.27643
G1 X148.348 Y96.79 E11.30686
G1 X148.599 Y97.606 E11.33526
G1 X149.212 Y99.696 E11.4077
G1 X149.398 Y100.368 E11.43089
G1 X149.597 Y101.222 E11.46006
G1 X149.742 Y101.987 E11.48595
G1 X150.106 Y104.089 E11.55691
G1 X150.241 Y104.939 E11.58553
G1 X150.344 Y105.838 E11.61563
G1 X150.402 Y106.66 E11.64304
G1 X150.528 Y108.882 E11.71706
G1 X150.556 Y109.52 E11.7383
G1 X150.556 Y110.438 E11.76883
G1 X150.523 Y111.209 E11.7945
G1 X150.403 Y113.31 E11.86449
G1 X150.343 Y114.169 E11.89313
G1 X150.24 Y115.071 E11.92333
G1 X150.104 Y115.925 E11.95209
G1 X149.738 Y118.041 E12.02351
G1 X149.614 Y118.707 E12.04605
G1 X149.405 Y119.608 E12.07681
G1 X149.162 Y120.477 E12.10682
G1 X148.561 Y122.522 E12.17771
G1 X148.343 Y123.224 E12.20216
G1 X148.047 Y124.052 E12.23141
G1 X147.736 Y124.82 E12.25897
G1 X146.928 Y126.733 E12.32804
G1 X146.862 Y126.886 E12.33358
G1 X146.593 Y127.496 E12.35575
G1 X146.204 Y128.286 E12.38504
G1 X145.841 Y128.953 E12.4103
G1 X145.759 Y129.101 E12.41592
G1 X144.711 Y130.955 E12.48676
G1 X144.358 Y131.559 E12.51003
G1 X143.876 Y132.308 E12.53965
G1 X143.366 Y133.031 E12.56908
G1 X142.183 Y134.659 E12.63601
G1 X141.694 Y135.314 E12.6632
G1 X141.117 Y136.021 E12.69355
G1 X140.475 Y136.74 E12.72561
G1 X139.206 Y138.124 E12.78807
G1 X138.587 Y138.781 E12.81809
G1 X137.939 Y139.41 E12.84812
G1 X137.27 Y140.006 E12.87792
G1 X135.638 Y141.418 E12.9497
G1 X135.12 Y141.854 E12.97222
G1 X134.414 Y142.399 E13.00189
G1 X133.674 Y142.921 E13.03201
G1 X132.022 Y144.05 E13.09856
G1 X131.313 Y144.519 E13.12683
G1 X130.561 Y144.973 E13.15605
G1 X129.757 Y145.412 E13.18651
G1 X128.001 Y146.339 E13.25256
G1 X127.261 Y146.717 E13.2802
G1 X126.439 Y147.093 E13.31026
G1 X125.596 Y147.435 E13.34052
G1 X123.747 Y148.155 E13.40651
G1 X122.96 Y148.449 E13.43446
G1 X122.099 Y148.729 E13.46457
G1 X121.209 Y148.976 E13.49529
G1 X119.273 Y149.484 E13.56186
G1 X118.511 Y149.674 E13.58798
G1 X117.603 Y149.859 E13.6188
G1 X116.823 Y149.982 E13.64507
G1 X114.723 Y150.285 E13.71564
G1 X114.132 Y150.361 E13.73545
G1 X113.197 Y150.449 E13.76669
G1 X112.023 Y150.507 E13.80578
G1 X111.805 Y150.516 E13.81304
G1 X110.1 Y150.565 E13.86977
G1 X109.269 Y150.577 E13.89742
G1 X108.373 Y150.551 E13.92723
G1 X107.505 Y150.488 E13.95618
G1 X105.486 Y150.315 E14.02357
G1 X104.666 Y150.234 E14.05098
G1 X103.761 Y150.104 E14.08139
G1 X102.894 Y149.94 E14.11074
G1 X100.909 Y149.538 E14.1781
G1 X100.747 Y149.504 E14.1836
G1 X100.098 Y149.362 E14.2057
G1 X99.241 Y149.136 E14.23518
G1 X98.369 Y148.867 E14.26553
G1 X96.454 Y148.245 E14.3325
G1 X95.701 Y147.989 E14.35895
G1 X94.845 Y147.657 E14.38949
G1 X94.133 Y147.344 E14.41536
G1 X92.213 Y146.468 E14.48555
G1 X91.452 Y146.109 E14.51354
G1 X90.631 Y145.676 E14.54441
G1 X89.891 Y145.242 E14.57294
G1 X88.182 Y144.212 E14.63931
G1 X87.467 Y143.768 E14.6673
G1 X86.704 Y143.247 E14.69803
G1 X86.09 Y142.787 E14.72355
G1 X84.32 Y141.422 E14.79789
G1 X83.746 Y140.966 E14.82227
G1 X83.076 Y140.385 E14.85177
G1 X82.426 Y139.772 E14.88148
G1 X80.967 Y138.354 E14.94915
G1 X80.391 Y137.779 E14.97622
G1 X79.773 Y137.106 E15.00661
G1 X79.2 Y136.423 E15.03627
G1 X77.937 Y134.879 E15.10261
G1 X77.418 Y134.227 E15.13033
G1 X76.883 Y133.491 E15.16059
G1 X76.402 Y132.765 E15.18956
G1 X75.237 Y130.95 E15.26129
G1 X74.87 Y130.36 E15.2844
G1 X74.433 Y129.585 E15.31399
G1 X73.991 Y128.718 E15.34636
G1 X73.094 Y126.891 E15.41406
G1 X72.772 Y126.211 E15.43908
G1 X72.425 Y125.391 E15.4687
G1 X72.173 Y124.718 E15.4926
G1 X71.446 Y122.68 E15.56457
G1 X71.399 Y122.546 E15.56929
G1 X71.169 Y121.872 E15.59298
G1 X70.912 Y120.998 E15.62328
G1 X70.744 Y120.32 E15.64651
G1 X70.214 Y118.043 E15.72427
G1 X70.073 Y117.399 E15.74619
G1 X69.915 Y116.488 E15.77694
G1 X69.796 Y115.558 E15.80813
G1 X69.576 Y113.641 E15.87231
G1 X69.49 Y112.801 E15.90039
G1 X69.436 Y111.879 E15.93111
G1 X69.425 Y111.116 E15.95649
G1 X69.424 Y108.994 E16.02707
G1 X69.425 Y108.829 E16.03256
G1 X69.436 Y108.122 E16.05607
G1 X69.486 Y107.247 E16.08522
G1 X69.555 Y106.547 E16.10862
G1 X69.825 Y104.199 E16.18723
G1 X69.91 Y103.54 E16.20933
G1 X70.068 Y102.63 E16.24005
G1 X70.233 Y101.876 E16.26572
G1 X70.703 Y99.85 E16.33489
G1 X70.742 Y99.687 E16.34047
G1 X70.916 Y98.988 E16.36443
G1 X71.169 Y98.128 E16.39424
G1 X71.444 Y97.324 E16.4225
G1 X72.166 Y95.3 E16.49398
G1 X72.411 Y94.642 E16.51733
G1 X72.77 Y93.793 E16.54799
G1 X73.174 Y92.945 E16.57923
G1 X74.08 Y91.104 E16.64748
G1 X74.419 Y90.438 E16.67233
G1 X74.874 Y89.633 E16.70309
G1 X75.256 Y89.021 E16.72708
G1 X76.494 Y87.094 E16.80326
G1 X76.866 Y86.532 E16.82568
G1 X77.403 Y85.792 E16.85609
G1 X77.971 Y85.078 E16.88643
G1 X79.227 Y83.543 E16.9524
G1 X79.753 Y82.916 E16.97962
G1 X80.373 Y82.241 E17.01011
G1 X81.03 Y81.584 E17.04101
G0 F6000 X81.309 Y81.871
G1 F1200 X82.73 Y80.49 E17.10691
G1 X83.323 Y79.929 E17.13406
G1 X83.982 Y79.358 E17.16307
G1 X84.686 Y78.8 E17.19294
G1 X86.395 Y77.482 E17.26473
G1 X86.924 Y77.086 E17.2867
G1 X87.636 Y76.599 E17.3154
G1 X88.256 Y76.212 E17.3397
G1 X90.137 Y75.078 E17.41276
G1 X90.278 Y74.994 E17.41822
G1 X90.867 Y74.652 E17.44087
G1 X91.608 Y74.262 E17.46872
G1 X92.369 Y73.901 E17.49673
G1 X94.279 Y73.029 E17.56657
G1 X94.973 Y72.723 E17.59179
G1 X95.794 Y72.403 E17.6211
G1 X96.529 Y72.153 E17.64692
G1 X98.505 Y71.51 E17.71604
G1 X99.339 Y71.252 E17.74507
G1 X100.147 Y71.039 E17.77287
G1 X101.054 Y70.84 E17.80375
G1 X102.992 Y70.447 E17.86952
G1 X103.819 Y70.292 E17.89751
G1 X104.664 Y70.17 E17.9259
G1 X105.579 Y70.078 E17.95649
G1 X107.546 Y69.909 E18.02215
G1 X108.39 Y69.848 E18.0503
G1 X109.274 Y69.823 E18.07971
G1 X110.13 Y69.837 E18.10819
G1 X112.155 Y69.895 E18.17556
G1 X112.957 Y69.928 E18.20226
G1 X113.83 Y70.002 E18.2314
G1 X114.584 Y70.099 E18.25669
G1 X116.661 Y70.397 E18.32648
G1 X117.51 Y70.53 E18.35506
G1 X118.36 Y70.702 E18.3839
G1 X119.246 Y70.921 E18.41426
G1 X121.285 Y71.459 E18.4844
G1 X121.976 Y71.651 E18.50825
G1 X122.811 Y71.923 E18.53746
G1 X123.616 Y72.224 E18.56604
G1 X125.568 Y72.985 E18.63573
G1 X126.263 Y73.267 E18.66067
G1 X127.049 Y73.626 E18.68941
G1 X127.869 Y74.044 E18.72002
G1 X129.703 Y75.014 E18.78903
G1 X130.343 Y75.363 E18.81328
G1 X131.088 Y75.811 E18.84219
G1 X131.806 Y76.287 E18.87084
G1 X133.438 Y77.403 E18.9366
G1 X134.163 Y77.913 E18.96608
G1 X134.854 Y78.446 E18.99511
G1 X135.528 Y79.014 E19.02442
G1 X137.126 Y80.399 E19.09476
G1 X137.635 Y80.851 E19.1174
