;FLAVOR:Marlin
;TIME:485
;Filament used: 0.331104m
;Layer height: 0.2
;MINX:79.52
;MINY:89.6
;MINZ:0.2
;MAXX:140.48
;MAXY:130.4
;MAXZ:2
;Generated with Cura_SteamEngine 4.7.1
M140 S60
M105
M190 S60
M104 S200
M105
M109 S200
M82 ;absolute extrusion mode
; Ender 3 Custom Start G-code
G92 E0 ; Reset Extruder
G28 ; Home all axes
G1 Z2.0 F3000 ; Move Z Axis up little to prevent scratching of Heat Bed
G1 X0.1 Y20 Z0.3 F5000.0 ; Move to start position
G1 X0.1 Y200.0 Z0.3 F1500.0 E15 ; Draw the first line
G1 X0.4 Y200.0 Z0.3 F5000.0 ; Move to side a little
G1 X0.4 Y20 Z0.3 F1500.0 E30 ; Draw the second line
G92 E0 ; Reset Extruder
G1 Z2.0 F3000 ; Move Z Axis up little to prevent scratching of Heat Bed
G1 X5 Y20 Z0.3 F5000.0 ; Move over to prevent blob squish
G92 E0
G92 E0
G1 F1500 E-6.5
;LAYER_COUNT:10
;LAYER:0
M107
G0 F6000 X86.203 Y94.913 Z0.2
;TYPE:SKIRT
G1 F1500 E0
G1 F1200 X86.894 Y94.317 E0.03035
G1 X87.201 Y94.062 E0.04362
G1 X87.407 Y93.897 E0.0524
G1 X88.196 Y93.32 E0.08491
G1 X88.968 Y92.807 E0.11574
G1 X89.318 Y92.584 E0.12955
G1 X89.547 Y92.444 E0.13847
G1 X90.401 Y91.973 E0.17091
G1 X91.188 Y91.583 E0.20012
G1 X91.509 Y91.43 E0.21195
G1 X91.781 Y91.306 E0.22189
G1 X92.729 Y90.926 E0.25586
G1 X93.571 Y90.633 E0.28552
G1 X93.945 Y90.51 E0.29861
G1 X94.198 Y90.432 E0.30742
G1 X95.146 Y90.186 E0.33999
G1 X96.075 Y89.988 E0.37158
G1 X96.464 Y89.912 E0.38477
G1 X96.703 Y89.87 E0.39284
G1 X97.698 Y89.742 E0.4262
G1 X98.602 Y89.667 E0.45637
G1 X98.996 Y89.641 E0.46951
G1 X99.252 Y89.629 E0.47803
G1 X99.574 Y89.619 E0.48875
G1 X100.544 Y89.602 E0.52101
G1 X100.737 Y89.6 E0.52743
G1 X119.553 Y89.601 E1.15326
G1 X120.103 Y89.609 E1.17155
G1 X120.437 Y89.619 E1.18266
G1 X121.283 Y89.657 E1.21083
G1 X121.639 Y89.679 E1.22269
G1 X122.013 Y89.708 E1.23517
G1 X122.999 Y89.829 E1.26821
G1 X123.891 Y89.98 E1.2983
G1 X124.276 Y90.052 E1.31133
G1 X124.538 Y90.106 E1.32023
G1 X125.5 Y90.351 E1.35324
G1 X126.37 Y90.614 E1.38347
G1 X126.748 Y90.736 E1.39668
G1 X127.011 Y90.826 E1.40593
G1 X127.938 Y91.19 E1.43905
G1 X128.748 Y91.552 E1.46856
G1 X129.059 Y91.697 E1.47998
G1 X129.323 Y91.825 E1.48973
G1 X130.234 Y92.321 E1.52423
G1 X131.003 Y92.788 E1.55416
G1 X131.339 Y93 E1.56737
G1 X131.567 Y93.15 E1.57645
G1 X132.35 Y93.716 E1.60858
G1 X133.061 Y94.279 E1.63875
G1 X133.377 Y94.54 E1.65238
G1 X133.583 Y94.716 E1.66139
G1 X134.295 Y95.381 E1.69379
G1 X134.923 Y96.022 E1.72364
G1 X135.175 Y96.287 E1.7358
G1 X135.362 Y96.491 E1.74501
G1 X136.019 Y97.279 E1.77913
G1 X136.586 Y98.027 E1.81035
G1 X136.788 Y98.302 E1.8217
G1 X136.918 Y98.485 E1.82916
G1 X137.485 Y99.37 E1.86412
G1 X137.959 Y100.194 E1.89574
G1 X138.131 Y100.505 E1.90756
G1 X138.252 Y100.732 E1.91612
G1 X138.689 Y101.651 E1.94996
G1 X139.033 Y102.471 E1.97954
G1 X139.161 Y102.791 E1.991
G1 X139.256 Y103.039 E1.99983
G1 X139.582 Y104.027 E2.03444
G1 X139.832 Y104.926 E2.06547
G1 X139.928 Y105.296 E2.07819
G1 X139.988 Y105.545 E2.08671
G1 X140.178 Y106.528 E2.12001
G1 X140.3 Y107.361 E2.14801
G1 X140.337 Y107.636 E2.15724
G1 X140.391 Y108.083 E2.17221
G1 X140.461 Y108.951 E2.20117
G1 X140.469 Y109.146 E2.20767
G1 X140.477 Y109.486 E2.21898
G1 X140.48 Y109.783 E2.22886
G1 X140.48 Y110.046 E2.2376
G1 X140.472 Y110.624 E2.25683
G1 X140.412 Y111.626 E2.29022
G1 X140.309 Y112.602 E2.32286
G1 X140.249 Y113.074 E2.33868
G1 X140.207 Y113.355 E2.34813
G1 X140.025 Y114.292 E2.37988
G1 X139.869 Y114.943 E2.40215
G1 X139.789 Y115.256 E2.41289
G1 X139.682 Y115.651 E2.4265
G1 X139.374 Y116.612 E2.46007
G1 X139.048 Y117.488 E2.49115
G1 X138.905 Y117.853 E2.50419
G1 X138.8 Y118.107 E2.51333
G1 X138.378 Y119.01 E2.54649
G1 X137.972 Y119.785 E2.57559
G1 X137.801 Y120.099 E2.58748
G1 X137.664 Y120.341 E2.59673
G1 X137.12 Y121.205 E2.63069
G1 X136.589 Y121.968 E2.6616
G1 X136.386 Y122.25 E2.67316
G1 X136.235 Y122.453 E2.68158
G1 X135.58 Y123.253 E2.71596
G1 X134.968 Y123.932 E2.74637
G1 X134.699 Y124.219 E2.75945
G1 X134.515 Y124.409 E2.76825
G1 X133.797 Y125.087 E2.80109
G1 X133.106 Y125.683 E2.83144
G1 X132.799 Y125.938 E2.84472
G1 X132.593 Y126.103 E2.8535
G1 X131.804 Y126.68 E2.88601
G1 X131.032 Y127.193 E2.91684
G1 X130.688 Y127.412 E2.9304
G1 X130.461 Y127.551 E2.93925
G1 X129.601 Y128.026 E2.97193
G1 X128.812 Y128.417 E3.00122
G1 X128.491 Y128.57 E3.01304
G1 X128.219 Y128.694 E3.02299
G1 X127.271 Y129.074 E3.05696
G1 X126.429 Y129.367 E3.08661
G1 X126.055 Y129.49 E3.0997
G1 X125.802 Y129.568 E3.10851
G1 X124.854 Y129.814 E3.14108
G1 X123.925 Y130.012 E3.17268
G1 X123.536 Y130.088 E3.18586
G1 X123.297 Y130.13 E3.19393
G1 X122.302 Y130.258 E3.2273
G1 X121.398 Y130.333 E3.25747
G1 X121.004 Y130.359 E3.2706
G1 X120.748 Y130.371 E3.27912
G1 X120.426 Y130.381 E3.28984
G1 X119.456 Y130.398 E3.32211
G1 X119.263 Y130.4 E3.32853
G1 X100.447 Y130.399 E3.95435
G1 X99.898 Y130.391 E3.97261
G1 X99.566 Y130.381 E3.98366
G1 X98.718 Y130.343 E4.01189
G1 X98.357 Y130.321 E4.02392
G1 X97.984 Y130.292 E4.03636
G1 X97.001 Y130.171 E4.0693
G1 X96.109 Y130.02 E4.09939
G1 X95.724 Y129.948 E4.11242
G1 X95.462 Y129.894 E4.12132
G1 X94.5 Y129.649 E4.15434
G1 X93.63 Y129.386 E4.18457
G1 X93.252 Y129.264 E4.19778
G1 X92.989 Y129.174 E4.20702
G1 X92.065 Y128.811 E4.24004
G1 X91.252 Y128.448 E4.26965
G1 X90.908 Y128.287 E4.28229
G1 X90.644 Y128.158 E4.29206
G1 X89.765 Y127.678 E4.32537
G1 X88.999 Y127.213 E4.35517
G1 X88.661 Y127 E4.36846
G1 X88.433 Y126.85 E4.37754
G1 X87.65 Y126.284 E4.40967
G1 X86.939 Y125.721 E4.43984
G1 X86.616 Y125.454 E4.45378
G1 X86.408 Y125.276 E4.46288
G1 X85.702 Y124.617 E4.495
G1 X85.075 Y123.977 E4.5248
G1 X84.826 Y123.714 E4.53685
G1 X84.638 Y123.509 E4.5461
G1 X83.976 Y122.715 E4.58048
G1 X83.411 Y121.969 E4.61161
G1 X83.203 Y121.685 E4.62332
G1 X83.072 Y121.5 E4.63086
G1 X82.515 Y120.629 E4.66524
G1 X82.042 Y119.807 E4.69679
G1 X81.868 Y119.493 E4.70873
G1 X81.746 Y119.264 E4.71736
G1 X81.31 Y118.346 E4.75116
G1 X80.967 Y117.528 E4.78066
G1 X80.837 Y117.204 E4.79227
G1 X80.741 Y116.953 E4.80121
G1 X80.417 Y115.968 E4.8357
G1 X80.168 Y115.072 E4.86663
G1 X80.072 Y114.704 E4.87928
G1 X80.012 Y114.455 E4.8878
G1 X79.822 Y113.472 E4.9211
G1 X79.7 Y112.639 E4.9491
G1 X79.664 Y112.368 E4.95819
G1 X79.609 Y111.914 E4.9734
G1 X79.535 Y110.959 E5.00526
G1 X79.528 Y110.75 E5.01221
G1 X79.523 Y110.502 E5.02046
G1 X79.52 Y110.226 E5.02965
G1 X79.52 Y109.955 E5.03866
G1 X79.528 Y109.374 E5.05798
G1 X79.588 Y108.367 E5.09154
G1 X79.691 Y107.394 E5.12408
G1 X79.751 Y106.926 E5.13977
G1 X79.793 Y106.645 E5.14922
G1 X79.975 Y105.708 E5.18097
G1 X80.131 Y105.057 E5.20324
G1 X80.211 Y104.744 E5.21398
G1 X80.318 Y104.349 E5.22759
G1 X80.626 Y103.388 E5.26116
G1 X80.952 Y102.512 E5.29224
G1 X81.095 Y102.147 E5.30528
G1 X81.2 Y101.893 E5.31442
G1 X81.622 Y100.99 E5.34758
G1 X82.028 Y100.215 E5.37668
G1 X82.199 Y99.901 E5.38857
G1 X82.336 Y99.659 E5.39782
G1 X82.88 Y98.795 E5.43178
G1 X83.411 Y98.032 E5.46269
G1 X83.614 Y97.75 E5.47425
G1 X83.765 Y97.547 E5.48266
G1 X84.42 Y96.747 E5.51705
G1 X85.032 Y96.068 E5.54746
G1 X85.301 Y95.781 E5.56054
G1 X85.485 Y95.591 E5.56934
G1 X86.203 Y94.913 E5.60218
G0 F6000 X86.464 Y95.216
G1 F1200 X87.155 Y94.62 E5.63253
G1 X87.451 Y94.374 E5.64533
G1 X87.657 Y94.209 E5.65411
G1 X88.417 Y93.653 E5.68543
G1 X89.189 Y93.14 E5.71626
G1 X89.527 Y92.925 E5.72959
G1 X89.756 Y92.785 E5.73851
G1 X90.578 Y92.331 E5.76974
G1 X91.365 Y91.941 E5.79896
G1 X91.675 Y91.794 E5.81037
G1 X91.947 Y91.67 E5.82031
G1 X92.86 Y91.304 E5.85303
G1 X93.702 Y91.011 E5.88268
G1 X94.063 Y90.892 E5.89532
G1 X94.316 Y90.814 E5.90413
G1 X95.229 Y90.577 E5.9355
G1 X96.158 Y90.379 E5.96709
G1 X96.533 Y90.306 E5.9798
G1 X96.772 Y90.264 E5.98787
G1 X97.731 Y90.14 E6.02003
G1 X98.635 Y90.065 E6.0502
G1 X99.015 Y90.041 E6.06287
G1 X99.271 Y90.029 E6.07139
G1 X99.581 Y90.019 E6.08171
G1 X100.551 Y90.002 E6.11397
G1 X100.737 Y90 E6.12016
G1 X119.393 Y90 E6.74066
G1 X120.097 Y90.009 E6.76408
G1 X120.419 Y90.019 E6.77479
G1 X121.265 Y90.057 E6.80296
G1 X121.608 Y90.078 E6.81439
G1 X121.982 Y90.107 E6.82687
G1 X122.932 Y90.224 E6.8587
G1 X123.824 Y90.375 E6.88879
G1 X124.195 Y90.444 E6.90134
G1 X124.457 Y90.498 E6.91024
G1 X125.384 Y90.733 E6.94205
G1 X126.254 Y90.996 E6.97228
G1 X126.619 Y91.114 E6.98504
G1 X126.882 Y91.204 E6.99428
G1 X127.775 Y91.555 E7.0262
G1 X128.585 Y91.917 E7.0557
G1 X128.884 Y92.057 E7.06669
G1 X129.148 Y92.185 E7.07644
G1 X130.026 Y92.663 E7.10969
G1 X130.795 Y93.13 E7.13962
G1 X131.119 Y93.335 E7.15237
G1 X131.347 Y93.485 E7.16145
G1 X132.101 Y94.03 E7.19239
G1 X132.812 Y94.593 E7.22255
G1 X133.117 Y94.844 E7.23569
G1 X133.323 Y95.02 E7.2447
G1 X134.01 Y95.661 E7.27596
G1 X134.638 Y96.302 E7.3058
G1 X134.88 Y96.557 E7.31749
G1 X135.067 Y96.761 E7.3267
G1 X135.7 Y97.521 E7.3596
G1 X136.267 Y98.269 E7.39081
G1 X136.461 Y98.533 E7.40171
G1 X136.591 Y98.716 E7.40918
G1 X137.138 Y99.57 E7.44291
G1 X137.612 Y100.394 E7.47453
G1 X137.778 Y100.693 E7.4859
G1 X137.899 Y100.92 E7.49446
G1 X138.32 Y101.805 E7.52705
G1 X138.664 Y102.625 E7.55663
G1 X138.788 Y102.934 E7.5677
G1 X138.883 Y103.182 E7.57653
G1 X139.196 Y104.134 E7.60987
G1 X139.446 Y105.033 E7.6409
G1 X139.539 Y105.39 E7.65317
G1 X139.599 Y105.639 E7.66169
G1 X139.782 Y106.586 E7.69377
G1 X139.904 Y107.419 E7.72177
G1 X139.939 Y107.684 E7.73066
G1 X139.993 Y108.131 E7.74564
G1 X140.061 Y108.967 E7.77353
G1 X140.069 Y109.162 E7.78003
G1 X140.077 Y109.49 E7.79094
G1 X140.08 Y109.787 E7.80082
G1 X140.08 Y110.041 E7.80927
G1 X140.072 Y110.619 E7.82849
G1 X140.014 Y111.584 E7.86065
G1 X139.911 Y112.56 E7.89329
G1 X139.854 Y113.015 E7.90854
G1 X139.812 Y113.296 E7.91799
G1 X139.636 Y114.199 E7.94859
G1 X139.48 Y114.85 E7.97085
G1 X139.403 Y115.152 E7.98122
G1 X139.296 Y115.547 E7.99483
G1 X138.999 Y116.472 E8.02714
G1 X138.673 Y117.348 E8.05823
G1 X138.535 Y117.701 E8.07084
G1 X138.43 Y117.955 E8.07998
G1 X138.024 Y118.824 E8.11188
G1 X137.618 Y119.599 E8.14098
G1 X137.452 Y119.902 E8.15247
G1 X137.315 Y120.144 E8.16172
G1 X136.791 Y120.977 E8.19445
G1 X136.26 Y121.74 E8.22537
G1 X136.065 Y122.011 E8.23647
G1 X135.914 Y122.214 E8.24489
G1 X135.283 Y122.985 E8.27803
G1 X134.671 Y123.664 E8.30843
G1 X134.412 Y123.941 E8.32104
G1 X134.228 Y124.131 E8.32984
G1 X133.536 Y124.784 E8.36149
G1 X132.845 Y125.38 E8.39184
G1 X132.549 Y125.626 E8.40464
G1 X132.343 Y125.791 E8.41342
G1 X131.583 Y126.347 E8.44474
G1 X130.811 Y126.86 E8.47556
G1 X130.479 Y127.071 E8.48865
G1 X130.252 Y127.21 E8.4975
G1 X129.424 Y127.668 E8.52897
G1 X128.635 Y128.059 E8.55826
G1 X128.325 Y128.206 E8.56967
G1 X128.053 Y128.33 E8.57961
G1 X127.14 Y128.696 E8.61233
G1 X126.298 Y128.989 E8.64198
G1 X125.937 Y129.108 E8.65462
G1 X125.684 Y129.186 E8.66343
G1 X124.771 Y129.423 E8.6948
G1 X123.842 Y129.621 E8.7264
G1 X123.467 Y129.694 E8.7391
G1 X123.228 Y129.736 E8.74717
G1 X122.269 Y129.86 E8.77934
G1 X121.365 Y129.935 E8.80951
G1 X120.985 Y129.959 E8.82217
G1 X120.729 Y129.971 E8.83069
G1 X120.419 Y129.981 E8.84101
G1 X119.449 Y129.998 E8.87328
G1 X119.263 Y130 E8.87946
G1 X100.453 Y129.999 E9.50509
G1 X99.904 Y129.991 E9.52335
G1 X99.583 Y129.981 E9.53403
G1 X98.735 Y129.943 E9.56226
G1 X98.388 Y129.922 E9.57383
G1 X98.015 Y129.893 E9.58627
G1 X97.068 Y129.776 E9.61801
G1 X96.176 Y129.625 E9.6481
G1 X95.805 Y129.556 E9.66065
G1 X95.543 Y129.502 E9.66955
G1 X94.616 Y129.267 E9.70135
G1 X93.746 Y129.004 E9.73158
G1 X93.381 Y128.886 E9.74434
G1 X93.118 Y128.796 E9.75359
G1 X92.228 Y128.446 E9.78539
G1 X91.415 Y128.083 E9.81501
G1 X91.083 Y127.928 E9.82719
G1 X90.819 Y127.799 E9.83697
G1 X89.972 Y127.336 E9.86907
G1 X89.206 Y126.871 E9.89888
G1 X88.881 Y126.665 E9.91167
G1 X88.653 Y126.515 E9.92075
G1 X87.899 Y125.97 E9.9517
G1 X87.188 Y125.407 E9.98186
G1 X86.876 Y125.151 E9.99528
G1 X86.668 Y124.973 E10.00439
G1 X85.988 Y124.337 E10.03536
G1 X85.361 Y123.697 E10.06516
G1 X85.121 Y123.443 E10.07678
G1 X84.933 Y123.238 E10.08603
G1 X84.295 Y122.474 E10.11914
G1 X83.73 Y121.728 E10.15026
G1 X83.529 Y121.454 E10.16156
G1 X83.398 Y121.269 E10.1691
G1 X82.861 Y120.43 E10.20223
G1 X82.388 Y119.608 E10.23378
G1 X82.221 Y119.305 E10.24528
G1 X82.099 Y119.076 E10.25391
G1 X81.679 Y118.191 E10.2865
G1 X81.336 Y117.373 E10.316
G1 X81.21 Y117.061 E10.32719
G1 X81.114 Y116.81 E10.33613
G1 X80.802 Y115.861 E10.36935
G1 X80.553 Y114.965 E10.40028
G1 X80.461 Y114.61 E10.41248
G1 X80.401 Y114.361 E10.421
G1 X80.218 Y113.414 E10.45308
G1 X80.096 Y112.581 E10.48108
G1 X80.061 Y112.32 E10.48984
G1 X80.006 Y111.866 E10.50505
G1 X79.935 Y110.946 E10.53574
G1 X79.928 Y110.737 E10.5427
G1 X79.923 Y110.497 E10.55068
G1 X79.92 Y110.221 E10.55986
G1 X79.92 Y109.96 E10.56854
G1 X79.928 Y109.379 E10.58787
G1 X79.986 Y108.409 E10.62019
G1 X80.089 Y107.436 E10.65273
G1 X80.146 Y106.985 E10.66785
G1 X80.188 Y106.704 E10.6773
G1 X80.364 Y105.801 E10.7079
G1 X80.52 Y105.15 E10.73016
G1 X80.597 Y104.848 E10.74053
G1 X80.704 Y104.453 E10.75414
G1 X81.001 Y103.528 E10.78645
G1 X81.327 Y102.652 E10.81754
G1 X81.465 Y102.299 E10.83015
G1 X81.57 Y102.045 E10.83929
G1 X81.976 Y101.176 E10.87119
G1 X82.382 Y100.401 E10.90029
G1 X82.548 Y100.098 E10.91178
G1 X82.685 Y99.856 E10.92103
G1 X83.209 Y99.023 E10.95376
G1 X83.74 Y98.26 E10.98468
G1 X83.935 Y97.989 E10.99579
G1 X84.086 Y97.786 E11.0042
G1 X84.717 Y97.015 E11.03734
G1 X85.329 Y96.336 E11.06774
G1 X85.588 Y96.059 E11.08035
G1 X85.772 Y95.869 E11.08915
G1 X86.464 Y95.216 E11.1208
G0 F6000 X86.725 Y95.519
G1 F1200 X87.416 Y94.923 E11.15115
G1 X87.701 Y94.686 E11.16348
G1 X87.907 Y94.521 E11.17225
G1 X88.639 Y93.987 E11.20239
G1 X89.411 Y93.474 E11.23322
G1 X89.736 Y93.266 E11.24605
G1 X89.965 Y93.126 E11.25498
G1 X90.756 Y92.69 E11.28502
G1 X91.543 Y92.3 E11.31423
G1 X91.841 Y92.158 E11.32521
G1 X92.113 Y92.034 E11.33516
G1 X92.992 Y91.682 E11.36665
G1 X93.834 Y91.389 E11.3963
G1 X94.181 Y91.275 E11.40845
G1 X94.434 Y91.197 E11.41725
G1 X95.313 Y90.968 E11.44747
G1 X96.242 Y90.77 E11.47906
G1 X96.603 Y90.7 E11.49129
G1 X96.842 Y90.658 E11.49936
G1 X97.764 Y90.539 E11.53028
G1 X98.668 Y90.464 E11.56045
G1 X99.033 Y90.44 E11.57262
G1 X99.289 Y90.428 E11.58114
G1 X99.588 Y90.419 E11.59109
G1 X100.737 Y90.4 E11.62931
G1 X119.393 Y90.4 E12.24981
G1 X120.091 Y90.409 E12.27303
G1 X120.401 Y90.418 E12.28335
G1 X121.247 Y90.456 E12.31151
G1 X121.578 Y90.477 E12.32254
G1 X121.952 Y90.506 E12.33502
G1 X122.865 Y90.618 E12.36561
G1 X123.757 Y90.769 E12.3957
G1 X124.114 Y90.836 E12.40778
G1 X124.376 Y90.89 E12.41668
G1 X125.269 Y91.116 E12.44732
G1 X126.139 Y91.379 E12.47755
G1 X126.489 Y91.492 E12.48978
G1 X126.752 Y91.582 E12.49903
G1 X127.612 Y91.921 E12.52977
G1 X128.422 Y92.283 E12.55928
G1 X128.71 Y92.417 E12.56985
G1 X128.974 Y92.545 E12.57961
G1 X129.818 Y93.005 E12.61158
G1 X130.587 Y93.472 E12.6415
G1 X130.899 Y93.669 E12.65377
G1 X131.127 Y93.819 E12.66285
G1 X131.853 Y94.343 E12.69263
G1 X132.564 Y94.906 E12.72279
G1 X132.858 Y95.148 E12.73546
G1 X133.064 Y95.324 E12.74447
G1 X133.724 Y95.941 E12.77452
G1 X134.352 Y96.582 E12.80437
G1 X134.585 Y96.828 E12.81564
G1 X134.772 Y97.032 E12.82484
G1 X135.382 Y97.762 E12.85648
G1 X135.949 Y98.51 E12.8877
G1 X136.135 Y98.765 E12.8982
G1 X136.265 Y98.948 E12.90566
G1 X136.792 Y99.769 E12.93811
G1 X137.266 Y100.593 E12.96973
G1 X137.425 Y100.881 E12.98067
G1 X137.546 Y101.108 E12.98923
G1 X137.951 Y101.96 E13.0206
G1 X138.295 Y102.78 E13.05018
G1 X138.414 Y103.077 E13.06082
G1 X138.509 Y103.325 E13.06965
G1 X138.811 Y104.241 E13.10173
G1 X139.061 Y105.14 E13.13277
G1 X139.15 Y105.484 E13.14459
G1 X139.21 Y105.733 E13.15311
G1 X139.386 Y106.644 E13.18397
G1 X139.508 Y107.477 E13.21197
G1 X139.542 Y107.732 E13.22052
G1 X139.596 Y108.179 E13.2355
G1 X139.661 Y108.984 E13.26236
G1 X139.669 Y109.179 E13.26885
G1 X139.677 Y109.494 E13.27933
G1 X139.68 Y109.791 E13.28921
G1 X139.68 Y110.035 E13.29733
G1 X139.672 Y110.613 E13.31655
G1 X139.617 Y111.542 E13.3475
G1 X139.514 Y112.518 E13.38015
G1 X139.458 Y112.956 E13.39483
G1 X139.416 Y113.237 E13.40428
G1 X139.247 Y114.106 E13.43373
G1 X139.091 Y114.757 E13.45599
G1 X139.017 Y115.047 E13.46595
G1 X138.91 Y115.442 E13.47956
G1 X138.624 Y116.333 E13.51068
